; G-Code generated by Simplify3D(R) Version 4.0.0
; Jan 23, 2019 at 11:07:43 AM
; Settings Summary
;   processName,Process3
;   applyToModels,h12.5_2
;   profileName,MP Mini Delta23 (modified)
;   profileVersion,2017-10-15 16:31:22
;   baseProfile,Monoprice MP Mini Delta
;   printMaterial,eSun PLA+ - Solid Red
;   printQuality,0.08
;   printExtruders,
;   extruderName,Primary Extruder
;   extruderToolheadNumber,0
;   extruderDiameter,0.4
;   extruderAutoWidth,0
;   extruderWidth,0.4
;   extrusionMultiplier,1
;   extruderUseRetract,1
;   extruderRetractionDistance,8
;   extruderExtraRestartDistance,0
;   extruderRetractionZLift,0
;   extruderRetractionSpeed,3000
;   extruderUseCoasting,0
;   extruderCoastingDistance,0.2
;   extruderUseWipe,0
;   extruderWipeDistance,5
;   primaryExtruder,0
;   layerHeight,0.3
;   topSolidLayers,5
;   bottomSolidLayers,5
;   perimeterOutlines,2
;   printPerimetersInsideOut,1
;   startPointOption,2
;   startPointOriginX,0
;   startPointOriginY,0
;   sequentialIslands,0
;   spiralVaseMode,0
;   firstLayerHeightPercentage,100
;   firstLayerWidthPercentage,100
;   firstLayerUnderspeed,0.4
;   useRaft,0
;   raftExtruder,0
;   raftTopLayers,3
;   raftBaseLayers,1
;   raftOffset,2
;   raftSeparationDistance,0.1
;   raftTopInfill,100
;   aboveRaftSpeedMultiplier,0.3
;   useSkirt,0
;   skirtExtruder,0
;   skirtLayers,3
;   skirtOutlines,6
;   skirtOffset,0
;   usePrimePillar,0
;   primePillarExtruder,999
;   primePillarWidth,6
;   primePillarLocation,0
;   primePillarSpeedMultiplier,1
;   useOozeShield,0
;   oozeShieldExtruder,999
;   oozeShieldOffset,2
;   oozeShieldOutlines,1
;   oozeShieldSidewallShape,1
;   oozeShieldSidewallAngle,30
;   oozeShieldSpeedMultiplier,1
;   infillExtruder,0
;   internalInfillPattern,Full Honeycomb
;   externalInfillPattern,Rectilinear
;   infillPercentage,15
;   outlineOverlapPercentage,0
;   infillExtrusionWidthPercentage,100
;   minInfillLength,5
;   infillLayerInterval,1
;   internalInfillAngles,0,120,-120
;   overlapInternalInfillAngles,0
;   externalInfillAngles,45,-45
;   generateSupport,1
;   supportExtruder,0
;   supportInfillPercentage,30
;   supportExtraInflation,0.4
;   supportBaseLayers,0
;   denseSupportExtruder,0
;   denseSupportLayers,0
;   denseSupportInfillPercentage,70
;   supportLayerInterval,1
;   supportHorizontalPartOffset,0.8
;   supportUpperSeparationLayers,1
;   supportLowerSeparationLayers,0
;   supportType,0
;   supportGridSpacing,1
;   maxOverhangAngle,45
;   supportAngles,-45
;   temperatureName,Primary Extruder,Heated Bed
;   temperatureNumber,0,0
;   temperatureSetpointCount,1,1
;   temperatureSetpointLayers,1,1
;   temperatureSetpointTemperatures,200,30
;   temperatureStabilizeAtStartup,1,1
;   temperatureHeatedBed,0,1
;   temperatureRelayBetweenLayers,0,0
;   temperatureRelayBetweenLoops,0,0
;   fanLayers,1,2,10
;   fanSpeeds,0,60,100
;   blipFanToFullPower,1
;   adjustSpeedForCooling,1
;   minSpeedLayerTime,15
;   minCoolingSpeedSlowdown,20
;   increaseFanForCooling,0
;   minFanLayerTime,45
;   maxCoolingFanSpeed,100
;   increaseFanForBridging,0
;   bridgingFanSpeed,100
;   use5D,1
;   relativeEdistances,0
;   allowEaxisZeroing,1
;   independentExtruderAxes,0
;   includeM10123,0
;   stickySupport,1
;   applyToolheadOffsets,0
;   gcodeXoffset,0
;   gcodeYoffset,0
;   gcodeZoffset,0.39
;   overrideMachineDefinition,1
;   machineTypeOverride,1
;   strokeXoverride,77.8
;   strokeYoverride,77.8
;   strokeZoverride,120
;   originOffsetXoverride,38.9
;   originOffsetYoverride,38.9
;   originOffsetZoverride,0
;   homeXdirOverride,0
;   homeYdirOverride,0
;   homeZdirOverride,-1
;   flipXoverride,1
;   flipYoverride,-1
;   flipZoverride,1
;   toolheadOffsets,0,0|0,0|0,0|0,0|0,0|0,0
;   overrideFirmwareConfiguration,1
;   firmwareTypeOverride,RepRap (Marlin/Repetier/Sprinter)
;   GPXconfigOverride,r2
;   baudRateOverride,115200
;   overridePrinterModels,1
;   printerModelsOverride,MP_Mini_Delta_Platform.stl
;   startingGcode,G90 ; absolute positioning - this line was added in case Cura doesn't include it by default,M82 ; set extruder to absolute mode - this line was added in case Cura doesn't include it by default (may not be needed),M107; start with the fan off (I don't think this is possible),G28 ; Start from home position,G29 C-0.8 Z0.3 ; probe the bed at 3 points with a 0.3mm overall vertical offset and an additional -0.8mm center offset ,G1 Z15.0 F4800  ; move the nozzle up 15mm,G92 E0 ; reset extrusion distance,G1 F200 E3 ; extrude 3mm of feed stock,G92 E0 ; reset extrusion distance again,G1 F4800
;   layerChangeGcode,
;   retractionGcode,
;   toolChangeGcode,
;   endingGcode,M104 S0 ; turn off hotend heater,M140 S0 ; turn off bed heater,G91 ; Switch to use Relative Coordinates,G1 E-3 F700 ; retract the filament a bit before lifting the nozzle to release some of the pressure,G1 Z2 F1000 ; raise platform 2mm from current position,G1 E-2 F700 ; retract filament even more,G90 ; Switch back to using absolute coordinates,G28 X ; Return to home position. Without an X Y or Z after G28 the print completion time will not be displayed on the Mini Delta's display.,M84 ; disable motors,G4 S360 ; pause for 360 seconds to keep fan running to cool hotend and allow the fan to be turned off,M107 ; turn off fan. Some say M107 doesn't work for them but if the hotend is cool enough it should work,;M106 S1 ; turn off fan. Remove the semicolon in front of M106 if M107 doesn't work for you
;   exportFileFormat,gcode
;   celebration,0
;   celebrationSong,Random Song
;   postProcessing,
;   defaultSpeed,3200
;   outlineUnderspeed,1
;   solidInfillUnderspeed,1
;   supportUnderspeed,1
;   rapidXYspeed,3200
;   rapidZspeed,1002
;   minBridgingArea,50
;   bridgingExtraInflation,0
;   bridgingExtrusionMultiplier,0.9
;   bridgingSpeedMultiplier,1
;   useFixedBridgingAngle,0
;   fixedBridgingAngle,0
;   applyBridgingToPerimeters,0
;   filamentDiameters,1.75|1.75|1.75|1.75|1.75|1.75
;   filamentPricesPerKg,48|25|25|25|25|25
;   filamentDensities,1.25|1.25|1.25|1.25|1.25|1.25
;   useMinPrintHeight,0
;   minPrintHeight,42
;   useMaxPrintHeight,0
;   maxPrintHeight,0
;   useDiaphragm,0
;   diaphragmLayerInterval,20
;   robustSlicing,1
;   mergeAllIntoSolid,0
;   onlyRetractWhenCrossingOutline,1
;   retractBetweenLayers,1
;   useRetractionMinTravel,0
;   retractionMinTravel,3
;   retractWhileWiping,1
;   onlyWipeOutlines,1
;   avoidCrossingOutline,0
;   maxMovementDetourFactor,5
;   toolChangeRetractionDistance,12
;   toolChangeExtraRestartDistance,-0.5
;   toolChangeRetractionSpeed,600
;   externalThinWallType,1
;   internalThinWallType,1
;   thinWallAllowedOverlapPercentage,100
;   singleExtrusionMinLength,0.4
;   singleExtrusionMinPrintingWidthPercentage,50
;   singleExtrusionMaxPrintingWidthPercentage,200
;   singleExtrusionEndpointExtension,0.2
;   horizontalSizeCompensation,0
G90
M82
M106 S255
G4 P500
M106 S0
M140 S30
M190 S30
M104 S200 T0
M109 S200 T0
G90 ; absolute positioning - this line was added in case Cura doesn't include it by default
M82 ; set extruder to absolute mode - this line was added in case Cura doesn't include it by default (may not be needed)
M107; start with the fan off (I don't think this is possible)
G28 ; Start from home position
G29 C-0.8 Z0.3 ; probe the bed at 3 points with a 0.3mm overall vertical offset and an additional -0.8mm center offset 
G1 Z15.0 F4800  ; move the nozzle up 15mm
G92 E0 ; reset extrusion distance
G1 F200 E3 ; extrude 3mm of feed stock
G92 E0 ; reset extrusion distance again
G1 F4800
G92 E0
G1 E-8.0000 F3000
G1 Z0.690 F1002
; process Process3
; layer 1, Z = 0.300
T0
; tool H0.300 W0.400
; inner perimeter
G1 X5.115 Y1.261 F3200
G1 E0.0000 F900
G92 E0
G1 X-9.484 Y1.261 E0.7284 F1280
G1 X-5.115 Y-1.261 E0.9801
G1 X9.484 Y-1.261 E1.7085
G1 X5.115 Y1.261 E1.9602
; outer perimeter
G1 X5.223 Y1.661 F3200
G92 E0
G1 X-10.977 Y1.661 E0.8082 F1280
G1 X-5.223 Y-1.661 E1.1397
G1 X10.977 Y-1.661 E1.9480
G1 X5.223 Y1.661 E2.2795
; solid layer
G1 X7.624 Y-0.861 F3200
G92 E0
G1 X7.759 Y-0.727 E0.0095 F1280
G1 X7.400 Y-0.520 E0.0302
G1 X7.058 Y-0.861 E0.0543
G1 X6.493 Y-0.861 E0.0825
G1 X7.041 Y-0.313 E0.1212
G1 X6.683 Y-0.106 E0.1418
G1 X5.927 Y-0.861 E0.1952
G1 X5.361 Y-0.861 E0.2234
G1 X6.324 Y0.102 E0.2913
G1 X5.965 Y0.309 E0.3120
G1 X4.796 Y-0.861 E0.3945
G1 X4.230 Y-0.861 E0.4227
G1 X5.607 Y0.516 E0.5199
G1 X5.248 Y0.723 E0.5405
G1 X3.664 Y-0.861 E0.6523
G1 X3.099 Y-0.861 E0.6805
G1 X4.821 Y0.861 E0.8020
G1 X4.255 Y0.861 E0.8303
G1 X2.533 Y-0.861 E0.9518
G1 X1.967 Y-0.861 E0.9800
G1 X3.690 Y0.861 E1.1015
G1 X3.124 Y0.861 E1.1298
G1 X1.402 Y-0.861 E1.2513
G1 X0.836 Y-0.861 E1.2795
G1 X2.558 Y0.861 E1.4010
G1 X1.993 Y0.861 E1.4293
G1 X0.270 Y-0.861 E1.5508
G1 X-0.296 Y-0.861 E1.5790
G1 X1.427 Y0.861 E1.7005
G1 X0.861 Y0.861 E1.7287
G1 X-0.861 Y-0.861 E1.8503
G1 X-1.427 Y-0.861 E1.8785
G1 X0.296 Y0.861 E2.0000
G1 X-0.270 Y0.861 E2.0282
G1 X-1.993 Y-0.861 E2.1498
G1 X-2.558 Y-0.861 E2.1780
G1 X-0.836 Y0.861 E2.2995
G1 X-1.402 Y0.861 E2.3277
G1 X-3.124 Y-0.861 E2.4493
G1 X-3.690 Y-0.861 E2.4775
G1 X-1.967 Y0.861 E2.5990
G1 X-2.533 Y0.861 E2.6272
G1 X-4.255 Y-0.861 E2.7488
G1 X-4.821 Y-0.861 E2.7770
G1 X-3.099 Y0.861 E2.8985
G1 X-3.664 Y0.861 E2.9267
G1 X-5.248 Y-0.723 E3.0385
G1 X-5.607 Y-0.516 E3.0591
G1 X-4.230 Y0.861 E3.1563
G1 X-4.796 Y0.861 E3.1845
G1 X-5.965 Y-0.309 E3.2671
G1 X-6.324 Y-0.102 E3.2877
G1 X-5.361 Y0.861 E3.3556
G1 X-5.927 Y0.861 E3.3839
G1 X-6.683 Y0.106 E3.4372
G1 X-7.041 Y0.313 E3.4578
G1 X-6.493 Y0.861 E3.4966
G1 X-7.058 Y0.861 E3.5248
G1 X-7.400 Y0.520 E3.5489
G1 X-7.759 Y0.727 E3.5695
G1 X-7.624 Y0.861 E3.5790
G92 E0
G1 E-8.0000 F3000
; inner perimeter
G1 X-9.484 Y13.461 F3200
G1 E0.0000 F3000
G92 E0
G1 X0.984 Y13.461 E0.5223 F1280
G1 X-4.250 Y16.483 E0.8238
G1 X-9.484 Y13.461 E1.1254
; outer perimeter
G1 X-10.977 Y13.061 F3200
G92 E0
G1 X2.477 Y13.061 E0.6713 F1280
G1 X-4.250 Y16.945 E1.0588
G1 X-10.977 Y13.061 E1.4463
; solid layer
G1 X-7.147 Y14.349 F3200
G92 E0
G1 X-7.635 Y13.861 E0.0344 F1280
G1 X-7.069 Y13.861 E0.0626
G1 X-5.809 Y15.121 E0.1515
G1 X-4.470 Y15.894 E0.2286
G1 X-6.503 Y13.861 E0.3721
G1 X-5.938 Y13.861 E0.4003
G1 X-3.950 Y15.849 E0.5405
G1 X-3.592 Y15.641 E0.5612
G1 X-5.372 Y13.861 E0.6868
G1 X-4.806 Y13.861 E0.7150
G1 X-3.233 Y15.434 E0.8260
G1 X-2.875 Y15.227 E0.8467
G1 X-4.241 Y13.861 E0.9430
G1 X-3.675 Y13.861 E0.9713
G1 X-2.516 Y15.020 E1.0530
G1 X-2.157 Y14.813 E1.0737
G1 X-3.109 Y13.861 E1.1409
G1 X-2.544 Y13.861 E1.1691
G1 X-1.799 Y14.606 E1.2217
G1 X-1.440 Y14.399 E1.2423
G1 X-1.978 Y13.861 E1.2803
G1 X-1.412 Y13.861 E1.3085
G1 X-1.081 Y14.192 E1.3318
G1 X-0.723 Y13.985 E1.3525
G1 X-0.847 Y13.861 E1.3612
G92 E0
G1 E-8.0000 F3000
; inner perimeter
G1 X-0.984 Y-13.461 F3200
G1 E0.0000 F3000
G92 E0
G1 X4.250 Y-16.483 E0.3015 F1280
G1 X9.484 Y-13.461 E0.6031
G1 X-0.984 Y-13.461 E1.1254
; outer perimeter
G1 X-2.477 Y-13.061 F3200
G92 E0
G1 X4.250 Y-16.945 E0.3875 F1280
G1 X10.977 Y-13.061 E0.7751
G1 X-2.477 Y-13.061 E1.4463
; solid layer
G1 X0.847 Y-13.861 F3200
G92 E0
G1 X0.723 Y-13.985 E0.0087 F1280
G1 X1.081 Y-14.192 E0.0294
G1 X1.412 Y-13.861 E0.0527
G1 X1.978 Y-13.861 E0.0810
G1 X1.440 Y-14.399 E0.1189
G1 X1.799 Y-14.606 E0.1396
G1 X2.544 Y-13.861 E0.1921
G1 X3.109 Y-13.861 E0.2204
G1 X2.157 Y-14.813 E0.2875
G1 X2.516 Y-15.020 E0.3082
G1 X3.675 Y-13.861 E0.3900
G1 X4.241 Y-13.861 E0.4182
G1 X2.875 Y-15.227 E0.5146
G1 X3.233 Y-15.434 E0.5353
G1 X4.806 Y-13.861 E0.6462
G1 X5.372 Y-13.861 E0.6745
G1 X3.592 Y-15.641 E0.8001
G1 X3.950 Y-15.849 E0.8207
G1 X5.938 Y-13.861 E0.9610
G1 X6.503 Y-13.861 E0.9892
G1 X4.471 Y-15.894 E1.1326
G1 X5.809 Y-15.121 E1.2097
G1 X7.069 Y-13.861 E1.2986
G1 X7.635 Y-13.861 E1.3268
G1 X7.147 Y-14.349 E1.3612
G92 E0
G1 E-8.0000 F3000
; support
G1 X3.923 Y-9.580 F3200
G1 E0.0000 F3000
G92 E0
G1 X6.204 Y-11.861 E0.1610 F1280
G1 X8.090 Y-11.861 E0.2550
G1 X5.809 Y-9.580 E0.4160
G1 X6.080 Y-9.580 E0.4295
G1 X6.080 Y-8.580 E0.4794
G1 X6.694 Y-8.580 E0.5101
G1 X9.976 Y-11.861 E0.7416
G1 X11.861 Y-11.861 E0.8356
G1 X7.080 Y-7.080 E1.1730
G1 X7.080 Y-5.420 E1.2558
G1 X5.420 Y-5.420 E1.3386
G1 X5.080 Y-5.080 E1.3626
G92 E0
G1 E-8.0000 F3000
G1 X12.894 Y-1.580 F3200
G1 E0.0000 F3000
G92 E0
G1 X12.920 Y-1.606 E0.0019 F1280
G1 X12.920 Y-3.492 E0.0959
G1 X12.289 Y-2.861 E0.1404
G1 X10.404 Y-2.861 E0.2345
G1 X12.920 Y-5.378 E0.4120
G1 X12.920 Y-7.263 E0.5061
G1 X8.518 Y-2.861 E0.8167
G1 X6.632 Y-2.861 E0.9108
G1 X12.920 Y-9.149 E1.3544
G1 X12.920 Y-11.034 E1.4485
G1 X4.747 Y-2.861 E2.0251
G1 X2.861 Y-2.861 E2.1192
G1 X4.420 Y-4.420 E2.2292
G1 X2.920 Y-4.420 E2.3040
G1 X2.920 Y-4.806 E2.3232
G1 X0.976 Y-2.861 E2.4604
G1 X-0.910 Y-2.861 E2.5545
G1 X1.920 Y-5.691 E2.7542
G1 X1.920 Y-7.577 E2.8483
G1 X-2.796 Y-2.861 E3.1810
G1 X-4.681 Y-2.861 E3.2750
G1 X1.920 Y-9.462 E3.7408
G1 X1.920 Y-9.580 E3.7467
G1 X2.038 Y-9.580 E3.7525
G1 X4.319 Y-11.861 E3.9135
G1 X2.433 Y-11.861 E4.0076
G1 X-4.920 Y-4.508 E4.5264
G1 X-4.920 Y-6.394 E4.6204
G1 X0.548 Y-11.861 E5.0062
G1 X-1.338 Y-11.861 E5.1003
G1 X-4.920 Y-8.279 E5.3530
G1 X-4.920 Y-10.165 E5.4471
G1 X-3.224 Y-11.861 E5.5667
G1 X-3.991 Y-11.861 E5.6050
G1 X-4.141 Y-12.420 E5.6339
G1 X-4.551 Y-12.420 E5.6543
G1 X-4.920 Y-12.051 E5.6804
G92 E0
G1 E-8.0000 F3000
G1 X-12.920 Y1.606 F3200
G1 E0.0000 F3000
G92 E0
G1 X-12.894 Y1.580 E0.0019 F1280
G1 X-12.834 Y1.580 E0.0048
G1 X-12.491 Y2.861 E0.0710
G1 X-12.289 Y2.861 E0.0811
G1 X-12.920 Y3.492 E0.1256
G1 X-12.920 Y5.378 E0.2196
G1 X-10.404 Y2.861 E0.3972
G1 X-8.518 Y2.861 E0.4912
G1 X-12.920 Y7.263 E0.8018
G1 X-12.920 Y9.149 E0.8959
G1 X-6.632 Y2.861 E1.3395
G1 X-4.747 Y2.861 E1.4336
G1 X-12.920 Y11.034 E2.0103
G1 X-12.920 Y12.920 E2.1043
G1 X-12.722 Y12.722 E2.1183
G1 X-12.491 Y11.861 E2.1628
G1 X-11.861 Y11.861 E2.1942
G1 X-7.080 Y7.080 E2.5315
G1 X-7.080 Y8.580 E2.6064
G1 X-6.694 Y8.580 E2.6256
G1 X-9.976 Y11.861 E2.8571
G1 X-8.090 Y11.861 E2.9512
G1 X-5.809 Y9.580 E3.1121
G1 X-3.923 Y9.580 E3.2062
G1 X-6.204 Y11.861 E3.3672
G1 X-4.319 Y11.861 E3.4612
G1 X-2.037 Y9.580 E3.6222
G1 X-1.920 Y9.580 E3.6281
G1 X-1.920 Y9.462 E3.6339
G1 X4.681 Y2.861 E4.0997
G1 X4.920 Y2.861 E4.1116
G1 X4.920 Y4.508 E4.1937
G1 X-2.433 Y11.861 E4.7125
G1 X-0.547 Y11.861 E4.8066
G1 X4.920 Y6.394 E5.1924
G1 X4.920 Y8.279 E5.2865
G1 X1.338 Y11.861 E5.5392
G1 X3.224 Y11.861 E5.6333
G1 X4.920 Y10.165 E5.7529
G1 X4.920 Y12.051 E5.8470
G1 X4.551 Y12.420 E5.8731
G92 E0
G1 E-8.0000 F3000
G1 X-1.920 Y7.577 F3200
G1 E0.0000 F3000
G92 E0
G1 X2.796 Y2.861 E0.3327 F1280
G1 X0.910 Y2.861 E0.4268
G1 X-1.920 Y5.691 E0.6265
G1 X-1.920 Y5.420 E0.6400
G1 X-2.920 Y5.420 E0.6899
G1 X-2.920 Y4.806 E0.7205
G1 X-0.976 Y2.861 E0.8577
G1 X-2.861 Y2.861 E0.9518
G1 X-4.420 Y4.420 E1.0618
G1 X-5.080 Y4.420 E1.0947
G1 X-5.080 Y5.080 E1.1276
G1 X-5.420 Y5.420 E1.1516
G92 E0
G1 E-8.0000 F3000
G1 X12.722 Y-12.722 F3200
G1 E0.0000 F3000
G92 E0
G1 X12.920 Y-12.920 E0.0140 F1280
G92 E0
G1 E-8.0000 F3000
; layer 2, Z = 0.600
M106 S255
G4 P500
M106 S153
; inner perimeter
G1 X9.484 Y-13.461 F3200
G1 Z0.990 F1002
G1 E0.0000 F3000
G92 E0
G1 X-0.984 Y-13.461 E0.5223 F2387
G1 X4.250 Y-16.483 E0.8238
G1 X9.484 Y-13.461 E1.1254
; outer perimeter
G1 X10.977 Y-13.061 F3200
G92 E0
G1 X-2.477 Y-13.061 E0.6713 F2387
G1 X4.250 Y-16.945 E1.0588
G1 X10.977 Y-13.061 E1.4463
; solid layer
G1 X7.768 Y-13.990 F3200
G92 E0
G1 X7.639 Y-13.861 E0.0091 F2387
G1 X7.073 Y-13.861 E0.0373
G1 X7.409 Y-14.197 E0.0611
G1 X7.051 Y-14.405 E0.0817
G1 X6.507 Y-13.861 E0.1201
G1 X5.942 Y-13.861 E0.1483
G1 X6.692 Y-14.612 E0.2012
G1 X6.333 Y-14.819 E0.2219
G1 X5.376 Y-13.861 E0.2894
G1 X4.810 Y-13.861 E0.3177
G1 X5.975 Y-15.026 E0.3998
G1 X5.616 Y-15.233 E0.4205
G1 X4.245 Y-13.861 E0.5172
G1 X3.679 Y-13.861 E0.5455
G1 X5.257 Y-15.440 E0.6568
G1 X4.899 Y-15.647 E0.6775
G1 X3.113 Y-13.861 E0.8035
G1 X2.548 Y-13.861 E0.8317
G1 X4.540 Y-15.854 E0.9723
G1 X4.250 Y-16.021 E0.9890
G1 X3.995 Y-15.874 E1.0037
G1 X1.982 Y-13.861 E1.1458
G1 X1.416 Y-13.861 E1.1740
G1 X2.656 Y-15.101 E1.2615
G1 X1.318 Y-14.329 E1.3386
G1 X0.850 Y-13.861 E1.3716
G92 E0
