; G-Code generated by Simplify3D(R) Version 4.0.0
; Jan 23, 2019 at 10:48:56 AM
; Settings Summary
;   processName,Process3
;   applyToModels,h12.5_1
;   profileName,MP Mini Delta23 (modified)
;   profileVersion,2017-10-15 16:31:22
;   baseProfile,Monoprice MP Mini Delta
;   printMaterial,eSun PLA+ - Solid Red
;   printQuality,0.08
;   printExtruders,
;   extruderName,Primary Extruder
;   extruderToolheadNumber,0
;   extruderDiameter,0.4
;   extruderAutoWidth,0
;   extruderWidth,0.4
;   extrusionMultiplier,1
;   extruderUseRetract,1
;   extruderRetractionDistance,8
;   extruderExtraRestartDistance,0
;   extruderRetractionZLift,0
;   extruderRetractionSpeed,3000
;   extruderUseCoasting,0
;   extruderCoastingDistance,0.2
;   extruderUseWipe,0
;   extruderWipeDistance,5
;   primaryExtruder,0
;   layerHeight,0.3
;   topSolidLayers,5
;   bottomSolidLayers,5
;   perimeterOutlines,2
;   printPerimetersInsideOut,1
;   startPointOption,2
;   startPointOriginX,0
;   startPointOriginY,0
;   sequentialIslands,0
;   spiralVaseMode,0
;   firstLayerHeightPercentage,100
;   firstLayerWidthPercentage,100
;   firstLayerUnderspeed,0.4
;   useRaft,0
;   raftExtruder,0
;   raftTopLayers,3
;   raftBaseLayers,1
;   raftOffset,2
;   raftSeparationDistance,0.1
;   raftTopInfill,100
;   aboveRaftSpeedMultiplier,0.3
;   useSkirt,0
;   skirtExtruder,0
;   skirtLayers,3
;   skirtOutlines,6
;   skirtOffset,0
;   usePrimePillar,0
;   primePillarExtruder,999
;   primePillarWidth,6
;   primePillarLocation,0
;   primePillarSpeedMultiplier,1
;   useOozeShield,0
;   oozeShieldExtruder,999
;   oozeShieldOffset,2
;   oozeShieldOutlines,1
;   oozeShieldSidewallShape,1
;   oozeShieldSidewallAngle,30
;   oozeShieldSpeedMultiplier,1
;   infillExtruder,0
;   internalInfillPattern,Full Honeycomb
;   externalInfillPattern,Rectilinear
;   infillPercentage,15
;   outlineOverlapPercentage,0
;   infillExtrusionWidthPercentage,100
;   minInfillLength,5
;   infillLayerInterval,1
;   internalInfillAngles,0,120,-120
;   overlapInternalInfillAngles,0
;   externalInfillAngles,45,-45
;   generateSupport,1
;   supportExtruder,0
;   supportInfillPercentage,30
;   supportExtraInflation,0.4
;   supportBaseLayers,0
;   denseSupportExtruder,0
;   denseSupportLayers,0
;   denseSupportInfillPercentage,70
;   supportLayerInterval,1
;   supportHorizontalPartOffset,0.8
;   supportUpperSeparationLayers,1
;   supportLowerSeparationLayers,0
;   supportType,0
;   supportGridSpacing,1
;   maxOverhangAngle,45
;   supportAngles,-45
;   temperatureName,Primary Extruder,Heated Bed
;   temperatureNumber,0,0
;   temperatureSetpointCount,1,1
;   temperatureSetpointLayers,1,1
;   temperatureSetpointTemperatures,200,30
;   temperatureStabilizeAtStartup,1,1
;   temperatureHeatedBed,0,1
;   temperatureRelayBetweenLayers,0,0
;   temperatureRelayBetweenLoops,0,0
;   fanLayers,1,2,10
;   fanSpeeds,0,60,100
;   blipFanToFullPower,1
;   adjustSpeedForCooling,1
;   minSpeedLayerTime,15
;   minCoolingSpeedSlowdown,20
;   increaseFanForCooling,0
;   minFanLayerTime,45
;   maxCoolingFanSpeed,100
;   increaseFanForBridging,0
;   bridgingFanSpeed,100
;   use5D,1
;   relativeEdistances,0
;   allowEaxisZeroing,1
;   independentExtruderAxes,0
;   includeM10123,0
;   stickySupport,1
;   applyToolheadOffsets,0
;   gcodeXoffset,0
;   gcodeYoffset,0
;   gcodeZoffset,0.39
;   overrideMachineDefinition,1
;   machineTypeOverride,1
;   strokeXoverride,77.8
;   strokeYoverride,77.8
;   strokeZoverride,120
;   originOffsetXoverride,38.9
;   originOffsetYoverride,38.9
;   originOffsetZoverride,0
;   homeXdirOverride,0
;   homeYdirOverride,0
;   homeZdirOverride,-1
;   flipXoverride,1
;   flipYoverride,-1
;   flipZoverride,1
;   toolheadOffsets,0,0|0,0|0,0|0,0|0,0|0,0
;   overrideFirmwareConfiguration,1
;   firmwareTypeOverride,RepRap (Marlin/Repetier/Sprinter)
;   GPXconfigOverride,r2
;   baudRateOverride,115200
;   overridePrinterModels,1
;   printerModelsOverride,MP_Mini_Delta_Platform.stl
;   startingGcode,G90 ; absolute positioning - this line was added in case Cura doesn't include it by default,M82 ; set extruder to absolute mode - this line was added in case Cura doesn't include it by default (may not be needed),M107; start with the fan off (I don't think this is possible),G28 ; Start from home position,G29 C-0.8 Z0.3 ; probe the bed at 3 points with a 0.3mm overall vertical offset and an additional -0.8mm center offset ,G1 Z15.0 F4800  ; move the nozzle up 15mm,G92 E0 ; reset extrusion distance,G1 F200 E3 ; extrude 3mm of feed stock,G92 E0 ; reset extrusion distance again,G1 F4800
;   layerChangeGcode,
;   retractionGcode,
;   toolChangeGcode,
;   endingGcode,M104 S0 ; turn off hotend heater,M140 S0 ; turn off bed heater,G91 ; Switch to use Relative Coordinates,G1 E-3 F700 ; retract the filament a bit before lifting the nozzle to release some of the pressure,G1 Z2 F1000 ; raise platform 2mm from current position,G1 E-2 F700 ; retract filament even more,G90 ; Switch back to using absolute coordinates,G28 X ; Return to home position. Without an X Y or Z after G28 the print completion time will not be displayed on the Mini Delta's display.,M84 ; disable motors,G4 S360 ; pause for 360 seconds to keep fan running to cool hotend and allow the fan to be turned off,M107 ; turn off fan. Some say M107 doesn't work for them but if the hotend is cool enough it should work,;M106 S1 ; turn off fan. Remove the semicolon in front of M106 if M107 doesn't work for you
;   exportFileFormat,gcode
;   celebration,0
;   celebrationSong,Random Song
;   postProcessing,
;   defaultSpeed,3200
;   outlineUnderspeed,1
;   solidInfillUnderspeed,1
;   supportUnderspeed,1
;   rapidXYspeed,3200
;   rapidZspeed,1002
;   minBridgingArea,50
;   bridgingExtraInflation,0
;   bridgingExtrusionMultiplier,0.9
;   bridgingSpeedMultiplier,1
;   useFixedBridgingAngle,0
;   fixedBridgingAngle,0
;   applyBridgingToPerimeters,0
;   filamentDiameters,1.75|1.75|1.75|1.75|1.75|1.75
;   filamentPricesPerKg,48|25|25|25|25|25
;   filamentDensities,1.25|1.25|1.25|1.25|1.25|1.25
;   useMinPrintHeight,0
;   minPrintHeight,42
;   useMaxPrintHeight,0
;   maxPrintHeight,0
;   useDiaphragm,0
;   diaphragmLayerInterval,20
;   robustSlicing,1
;   mergeAllIntoSolid,0
;   onlyRetractWhenCrossingOutline,1
;   retractBetweenLayers,1
;   useRetractionMinTravel,0
;   retractionMinTravel,3
;   retractWhileWiping,1
;   onlyWipeOutlines,1
;   avoidCrossingOutline,0
;   maxMovementDetourFactor,5
;   toolChangeRetractionDistance,12
;   toolChangeExtraRestartDistance,-0.5
;   toolChangeRetractionSpeed,600
;   externalThinWallType,1
;   internalThinWallType,1
;   thinWallAllowedOverlapPercentage,100
;   singleExtrusionMinLength,0.4
;   singleExtrusionMinPrintingWidthPercentage,50
;   singleExtrusionMaxPrintingWidthPercentage,200
;   singleExtrusionEndpointExtension,0.2
;   horizontalSizeCompensation,0
G90
M82
M106 S255
G4 P500
M106 S0
M140 S30
M190 S30
M104 S200 T0
M109 S200 T0
G90 ; absolute positioning - this line was added in case Cura doesn't include it by default
M82 ; set extruder to absolute mode - this line was added in case Cura doesn't include it by default (may not be needed)
M107; start with the fan off (I don't think this is possible)
G28 ; Start from home position
G29 C-0.8 Z0.3 ; probe the bed at 3 points with a 0.3mm overall vertical offset and an additional -0.8mm center offset 
G1 Z15.0 F4800  ; move the nozzle up 15mm
G92 E0 ; reset extrusion distance
G1 F200 E3 ; extrude 3mm of feed stock
G92 E0 ; reset extrusion distance again
G1 F4800
G92 E0
G1 E-8.0000 F3000
G1 Z0.690 F1002
; process Process3
; layer 1, Z = 0.300
T0
; tool H0.300 W0.400
; inner perimeter
G1 X-0.984 Y13.461 F3200
G1 E0.0000 F900
G92 E0
G1 X9.484 Y13.461 E0.5223 F1280
G1 X4.250 Y16.483 E0.8238
G1 X-0.984 Y13.461 E1.1254
; outer perimeter
G1 X-2.477 Y13.061 F3200
G92 E0
G1 X10.977 Y13.061 E0.6713 F1280
G1 X4.250 Y16.945 E1.0588
G1 X-2.477 Y13.061 E1.4463
; solid layer
G1 X1.318 Y14.329 F3200
G92 E0
G1 X0.850 Y13.861 E0.0330 F1280
G1 X1.416 Y13.861 E0.0612
G1 X2.656 Y15.101 E0.1487
G1 X3.995 Y15.874 E0.2258
G1 X1.982 Y13.861 E0.3678
G1 X2.548 Y13.861 E0.3960
G1 X4.540 Y15.854 E0.5366
G1 X4.899 Y15.647 E0.5573
G1 X3.113 Y13.861 E0.6833
G1 X3.679 Y13.861 E0.7115
G1 X5.257 Y15.440 E0.8229
G1 X5.616 Y15.233 E0.8435
G1 X4.245 Y13.861 E0.9403
G1 X4.810 Y13.861 E0.9685
G1 X5.975 Y15.026 E1.0507
G1 X6.333 Y14.819 E1.0714
G1 X5.376 Y13.861 E1.1389
G1 X5.942 Y13.861 E1.1671
G1 X6.692 Y14.612 E1.2201
G1 X7.051 Y14.405 E1.2407
G1 X6.507 Y13.861 E1.2791
G1 X7.073 Y13.861 E1.3073
G1 X7.409 Y14.197 E1.3310
G1 X7.768 Y13.990 E1.3517
G1 X7.639 Y13.861 E1.3608
G92 E0
G1 E-8.0000 F3000
; inner perimeter
G1 X13.615 Y1.261 F3200
G1 E0.0000 F3000
G92 E0
G1 X-17.984 Y1.261 E1.5765 F1280
G1 X-13.615 Y-1.261 E1.8282
G1 X17.984 Y-1.261 E3.4047
G1 X13.615 Y1.261 E3.6564
; outer perimeter
G1 X13.723 Y1.661 F3200
G92 E0
G1 X-19.477 Y1.661 E1.6564 F1280
G1 X-13.723 Y-1.661 E1.9879
G1 X19.477 Y-1.661 E3.6442
G1 X13.723 Y1.661 E3.9757
; solid layer
G1 X16.109 Y-0.861 F3200
G92 E0
G1 X16.249 Y-0.721 E0.0099 F1280
G1 X15.891 Y-0.514 E0.0305
G1 X15.544 Y-0.861 E0.0550
G1 X14.978 Y-0.861 E0.0832
G1 X15.532 Y-0.307 E0.1223
G1 X15.173 Y-0.100 E0.1430
G1 X14.412 Y-0.861 E0.1967
G1 X13.847 Y-0.861 E0.2249
G1 X14.815 Y0.107 E0.2932
G1 X14.456 Y0.314 E0.3139
G1 X13.281 Y-0.861 E0.3968
G1 X12.715 Y-0.861 E0.4250
G1 X14.098 Y0.521 E0.5225
G1 X13.739 Y0.728 E0.5432
G1 X12.150 Y-0.861 E0.6553
G1 X11.584 Y-0.861 E0.6836
G1 X13.306 Y0.861 E0.8051
G1 X12.741 Y0.861 E0.8333
G1 X11.018 Y-0.861 E0.9548
G1 X10.453 Y-0.861 E0.9830
G1 X12.175 Y0.861 E1.1046
G1 X11.609 Y0.861 E1.1328
G1 X9.887 Y-0.861 E1.2543
G1 X9.321 Y-0.861 E1.2825
G1 X11.044 Y0.861 E1.4041
G1 X10.478 Y0.861 E1.4323
G1 X8.755 Y-0.861 E1.5538
G1 X8.190 Y-0.861 E1.5820
G1 X9.912 Y0.861 E1.7036
G1 X9.347 Y0.861 E1.7318
G1 X7.624 Y-0.861 E1.8533
G1 X7.058 Y-0.861 E1.8815
G1 X8.781 Y0.861 E2.0031
G1 X8.215 Y0.861 E2.0313
G1 X6.493 Y-0.861 E2.1528
G1 X5.927 Y-0.861 E2.1810
G1 X7.649 Y0.861 E2.3026
G1 X7.084 Y0.861 E2.3308
G1 X5.361 Y-0.861 E2.4523
G1 X4.796 Y-0.861 E2.4805
G1 X6.518 Y0.861 E2.6021
G1 X5.952 Y0.861 E2.6303
G1 X4.230 Y-0.861 E2.7518
G1 X3.664 Y-0.861 E2.7800
G1 X5.387 Y0.861 E2.9016
G1 X4.821 Y0.861 E2.9298
G1 X3.099 Y-0.861 E3.0513
G1 X2.533 Y-0.861 E3.0795
G1 X4.255 Y0.861 E3.2010
G1 X3.690 Y0.861 E3.2293
G1 X1.967 Y-0.861 E3.3508
G1 X1.402 Y-0.861 E3.3790
G1 X3.124 Y0.861 E3.5005
G1 X2.558 Y0.861 E3.5288
G1 X0.836 Y-0.861 E3.6503
G1 X0.270 Y-0.861 E3.6785
G1 X1.993 Y0.861 E3.8000
G1 X1.427 Y0.861 E3.8283
G1 X-0.296 Y-0.861 E3.9498
G1 X-0.861 Y-0.861 E3.9780
G1 X0.861 Y0.861 E4.0995
G1 X0.296 Y0.861 E4.1278
G1 X-1.427 Y-0.861 E4.2493
G1 X-1.993 Y-0.861 E4.2775
G1 X-0.270 Y0.861 E4.3990
G1 X-0.836 Y0.861 E4.4273
G1 X-2.558 Y-0.861 E4.5488
G1 X-3.124 Y-0.861 E4.5770
G1 X-1.402 Y0.861 E4.6985
G1 X-1.967 Y0.861 E4.7268
G1 X-3.690 Y-0.861 E4.8483
G1 X-4.255 Y-0.861 E4.8765
G1 X-2.533 Y0.861 E4.9980
G1 X-3.099 Y0.861 E5.0262
G1 X-4.821 Y-0.861 E5.1478
G1 X-5.387 Y-0.861 E5.1760
G1 X-3.664 Y0.861 E5.2975
G1 X-4.230 Y0.861 E5.3257
G1 X-5.952 Y-0.861 E5.4473
G1 X-6.518 Y-0.861 E5.4755
G1 X-4.796 Y0.861 E5.5970
G1 X-5.361 Y0.861 E5.6252
G1 X-7.084 Y-0.861 E5.7468
G1 X-7.649 Y-0.861 E5.7750
G1 X-5.927 Y0.861 E5.8965
G1 X-6.493 Y0.861 E5.9247
G1 X-8.215 Y-0.861 E6.0463
G1 X-8.781 Y-0.861 E6.0745
G1 X-7.058 Y0.861 E6.1960
G1 X-7.624 Y0.861 E6.2242
G1 X-9.346 Y-0.861 E6.3458
G1 X-9.912 Y-0.861 E6.3740
G1 X-8.190 Y0.861 E6.4955
G1 X-8.755 Y0.861 E6.5237
G1 X-10.478 Y-0.861 E6.6453
G1 X-11.044 Y-0.861 E6.6735
G1 X-9.321 Y0.861 E6.7950
G1 X-9.887 Y0.861 E6.8232
G1 X-11.609 Y-0.861 E6.9448
G1 X-12.175 Y-0.861 E6.9730
G1 X-10.452 Y0.861 E7.0945
G1 X-11.018 Y0.861 E7.1227
G1 X-12.741 Y-0.861 E7.2443
G1 X-13.306 Y-0.861 E7.2725
G1 X-11.584 Y0.861 E7.3940
G1 X-12.150 Y0.861 E7.4222
G1 X-13.739 Y-0.728 E7.5344
G1 X-14.097 Y-0.521 E7.5550
G1 X-12.715 Y0.861 E7.6525
G1 X-13.281 Y0.861 E7.6808
G1 X-14.456 Y-0.314 E7.7637
G1 X-14.815 Y-0.107 E7.7843
G1 X-13.847 Y0.861 E7.8526
G1 X-14.412 Y0.861 E7.8809
G1 X-15.173 Y0.100 E7.9346
G1 X-15.532 Y0.307 E7.9552
G1 X-14.978 Y0.861 E7.9943
G1 X-15.544 Y0.861 E8.0225
G1 X-15.891 Y0.514 E8.0470
G1 X-16.249 Y0.721 E8.0677
G1 X-16.109 Y0.861 E8.0776
G92 E0
G1 E-8.0000 F3000
; inner perimeter
G1 X-17.984 Y13.461 F3200
G1 E0.0000 F3000
G92 E0
G1 X-7.516 Y13.461 E0.5223 F1280
G1 X-12.750 Y16.483 E0.8238
G1 X-17.984 Y13.461 E1.1254
; outer perimeter
G1 X-19.477 Y13.061 F3200
G92 E0
G1 X-6.023 Y13.061 E0.6713 F1280
G1 X-12.750 Y16.945 E1.0588
G1 X-19.477 Y13.061 E1.4463
; solid layer
G1 X-15.613 Y14.369 F3200
G92 E0
G1 X-16.120 Y13.861 E0.0358 F1280
G1 X-15.554 Y13.861 E0.0640
G1 X-14.274 Y15.142 E0.1544
G1 X-12.936 Y15.914 E0.2315
G1 X-14.989 Y13.861 E0.3763
G1 X-14.423 Y13.861 E0.4046
G1 X-12.441 Y15.843 E0.5444
G1 X-12.082 Y15.636 E0.5650
G1 X-13.857 Y13.861 E0.6903
G1 X-13.292 Y13.861 E0.7185
G1 X-11.724 Y15.429 E0.8291
G1 X-11.365 Y15.222 E0.8498
G1 X-12.726 Y13.861 E0.9458
G1 X-12.160 Y13.861 E0.9740
G1 X-11.007 Y15.015 E1.0554
G1 X-10.648 Y14.808 E1.0761
G1 X-11.595 Y13.861 E1.1429
G1 X-11.029 Y13.861 E1.1711
G1 X-10.289 Y14.601 E1.2233
G1 X-9.931 Y14.394 E1.2439
G1 X-10.463 Y13.861 E1.2815
G1 X-9.898 Y13.861 E1.3097
G1 X-9.572 Y14.187 E1.3327
G1 X-9.213 Y13.980 E1.3533
G1 X-9.332 Y13.861 E1.3617
G92 E0
G1 E-8.0000 F3000
; inner perimeter
G1 X-9.484 Y-13.461 F3200
G1 E0.0000 F3000
G92 E0
G1 X-4.250 Y-16.483 E0.3015 F1280
G1 X0.984 Y-13.461 E0.6031
G1 X-9.484 Y-13.461 E1.1254
; outer perimeter
G1 X-10.977 Y-13.061 F3200
G92 E0
G1 X-4.250 Y-16.945 E0.3875 F1280
G1 X2.477 Y-13.061 E0.7751
G1 X-10.977 Y-13.061 E1.4463
; solid layer
G1 X-7.639 Y-13.861 F3200
G92 E0
G1 X-7.768 Y-13.990 E0.0091 F1280
G1 X-7.409 Y-14.197 E0.0298
G1 X-7.073 Y-13.861 E0.0535
G1 X-6.507 Y-13.861 E0.0817
G1 X-7.051 Y-14.405 E0.1201
G1 X-6.692 Y-14.612 E0.1407
G1 X-5.942 Y-13.861 E0.1937
G1 X-5.376 Y-13.861 E0.2219
G1 X-6.333 Y-14.819 E0.2894
G1 X-5.975 Y-15.026 E0.3101
G1 X-4.810 Y-13.861 E0.3923
G1 X-4.245 Y-13.861 E0.4205
G1 X-5.616 Y-15.233 E0.5173
G1 X-5.257 Y-15.440 E0.5379
G1 X-3.679 Y-13.861 E0.6493
G1 X-3.113 Y-13.861 E0.6775
G1 X-4.899 Y-15.647 E0.8035
G1 X-4.540 Y-15.854 E0.8242
G1 X-2.547 Y-13.861 E0.9648
G1 X-1.982 Y-13.861 E0.9930
G1 X-3.995 Y-15.874 E1.1350
G1 X-2.656 Y-15.101 E1.2121
G1 X-1.416 Y-13.861 E1.2996
G1 X-0.850 Y-13.861 E1.3278
G1 X-1.318 Y-14.329 E1.3608
G92 E0
G1 E-8.0000 F3000
; inner perimeter
G1 X7.516 Y-13.461 F3200
G1 E0.0000 F3000
G92 E0
G1 X12.750 Y-16.483 E0.3015 F1280
G1 X17.984 Y-13.461 E0.6031
G1 X7.516 Y-13.461 E1.1254
; outer perimeter
G1 X6.023 Y-13.061 F3200
G92 E0
G1 X12.750 Y-16.945 E0.3875 F1280
G1 X19.477 Y-13.061 E0.7751
G1 X6.023 Y-13.061 E1.4463
; solid layer
G1 X9.332 Y-13.861 F3200
G92 E0
G1 X9.213 Y-13.980 E0.0084 F1280
G1 X9.572 Y-14.187 E0.0290
G1 X9.898 Y-13.861 E0.0520
G1 X10.463 Y-13.861 E0.0802
G1 X9.931 Y-14.394 E0.1178
G1 X10.289 Y-14.601 E0.1384
G1 X11.029 Y-13.861 E0.1906
G1 X11.595 Y-13.861 E0.2188
G1 X10.648 Y-14.808 E0.2856
G1 X11.007 Y-15.015 E0.3063
G1 X12.160 Y-13.861 E0.3877
G1 X12.726 Y-13.861 E0.4159
G1 X11.365 Y-15.222 E0.5119
G1 X11.724 Y-15.429 E0.5326
G1 X13.292 Y-13.861 E0.6432
G1 X13.857 Y-13.861 E0.6714
G1 X12.083 Y-15.636 E0.7967
G1 X12.441 Y-15.843 E0.8173
G1 X14.423 Y-13.861 E0.9572
G1 X14.989 Y-13.861 E0.9854
G1 X12.936 Y-15.914 E1.1302
G1 X14.274 Y-15.142 E1.2073
G1 X15.554 Y-13.861 E1.2977
G1 X16.120 Y-13.861 E1.3259
G1 X15.613 Y-14.369 E1.3617
G92 E0
G1 E-8.0000 F3000
; support
G1 X15.580 Y-8.038 F3200
G1 E0.0000 F3000
G92 E0
G1 X19.404 Y-11.861 E0.2698 F1280
G1 X17.518 Y-11.861 E0.3639
G1 X15.237 Y-9.580 E0.5248
G1 X13.351 Y-9.580 E0.6189
G1 X15.632 Y-11.861 E0.7798
G1 X13.747 Y-11.861 E0.8739
G1 X11.466 Y-9.580 E1.0349
G92 E0
G1 E-8.0000 F3000
G1 X21.145 Y-2.288 F3200
G1 E0.0000 F3000
G92 E0
G1 X21.420 Y-2.564 E0.0194 F1280
G1 X21.420 Y-4.449 E0.1135
G1 X19.832 Y-2.861 E0.2256
G1 X17.946 Y-2.861 E0.3196
G1 X21.420 Y-6.335 E0.5647
G1 X21.420 Y-8.221 E0.6588
