; G-Code generated by Simplify3D(R) Version 4.0.0
; Jan 22, 2019 at 6:08:07 PM
; Settings Summary
;   processName,Process2
;   applyToModels,h7.5_1
;   profileName,MP Mini Delta23 (modified)
;   profileVersion,2017-10-15 16:31:22
;   baseProfile,Monoprice MP Mini Delta
;   printMaterial,eSun PLA+ - Solid Red
;   printQuality,0.08
;   printExtruders,
;   extruderName,Primary Extruder
;   extruderToolheadNumber,0
;   extruderDiameter,0.4
;   extruderAutoWidth,0
;   extruderWidth,0.4
;   extrusionMultiplier,1
;   extruderUseRetract,1
;   extruderRetractionDistance,8
;   extruderExtraRestartDistance,0
;   extruderRetractionZLift,0
;   extruderRetractionSpeed,3000
;   extruderUseCoasting,0
;   extruderCoastingDistance,0.2
;   extruderUseWipe,0
;   extruderWipeDistance,5
;   primaryExtruder,0
;   layerHeight,0.1
;   topSolidLayers,7
;   bottomSolidLayers,7
;   perimeterOutlines,2
;   printPerimetersInsideOut,1
;   startPointOption,2
;   startPointOriginX,0
;   startPointOriginY,0
;   sequentialIslands,0
;   spiralVaseMode,0
;   firstLayerHeightPercentage,100
;   firstLayerWidthPercentage,100
;   firstLayerUnderspeed,0.4
;   useRaft,0
;   raftExtruder,0
;   raftTopLayers,3
;   raftBaseLayers,1
;   raftOffset,2
;   raftSeparationDistance,0.1
;   raftTopInfill,100
;   aboveRaftSpeedMultiplier,0.3
;   useSkirt,0
;   skirtExtruder,0
;   skirtLayers,4
;   skirtOutlines,12
;   skirtOffset,0
;   usePrimePillar,0
;   primePillarExtruder,999
;   primePillarWidth,6
;   primePillarLocation,0
;   primePillarSpeedMultiplier,1
;   useOozeShield,0
;   oozeShieldExtruder,999
;   oozeShieldOffset,2
;   oozeShieldOutlines,1
;   oozeShieldSidewallShape,1
;   oozeShieldSidewallAngle,30
;   oozeShieldSpeedMultiplier,1
;   infillExtruder,0
;   internalInfillPattern,Full Honeycomb
;   externalInfillPattern,Rectilinear
;   infillPercentage,12
;   outlineOverlapPercentage,0
;   infillExtrusionWidthPercentage,80
;   minInfillLength,5
;   infillLayerInterval,1
;   internalInfillAngles,0,120,-120
;   overlapInternalInfillAngles,0
;   externalInfillAngles,45,-45
;   generateSupport,1
;   supportExtruder,0
;   supportInfillPercentage,30
;   supportExtraInflation,0.2
;   supportBaseLayers,0
;   denseSupportExtruder,0
;   denseSupportLayers,0
;   denseSupportInfillPercentage,70
;   supportLayerInterval,2
;   supportHorizontalPartOffset,0.4
;   supportUpperSeparationLayers,1
;   supportLowerSeparationLayers,1
;   supportType,0
;   supportGridSpacing,1
;   maxOverhangAngle,45
;   supportAngles,45
;   temperatureName,Primary Extruder,Heated Bed
;   temperatureNumber,0,0
;   temperatureSetpointCount,1,1
;   temperatureSetpointLayers,1,1
;   temperatureSetpointTemperatures,200,30
;   temperatureStabilizeAtStartup,1,1
;   temperatureHeatedBed,0,1
;   temperatureRelayBetweenLayers,0,0
;   temperatureRelayBetweenLoops,0,0
;   fanLayers,1,2,10
;   fanSpeeds,0,60,100
;   blipFanToFullPower,1
;   adjustSpeedForCooling,1
;   minSpeedLayerTime,15
;   minCoolingSpeedSlowdown,20
;   increaseFanForCooling,0
;   minFanLayerTime,45
;   maxCoolingFanSpeed,100
;   increaseFanForBridging,0
;   bridgingFanSpeed,100
;   use5D,1
;   relativeEdistances,0
;   allowEaxisZeroing,1
;   independentExtruderAxes,0
;   includeM10123,0
;   stickySupport,1
;   applyToolheadOffsets,0
;   gcodeXoffset,0
;   gcodeYoffset,0
;   gcodeZoffset,0.39
;   overrideMachineDefinition,1
;   machineTypeOverride,1
;   strokeXoverride,77.8
;   strokeYoverride,77.8
;   strokeZoverride,120
;   originOffsetXoverride,38.9
;   originOffsetYoverride,38.9
;   originOffsetZoverride,0
;   homeXdirOverride,0
;   homeYdirOverride,0
;   homeZdirOverride,-1
;   flipXoverride,1
;   flipYoverride,-1
;   flipZoverride,1
;   toolheadOffsets,0,0|0,0|0,0|0,0|0,0|0,0
;   overrideFirmwareConfiguration,1
;   firmwareTypeOverride,RepRap (Marlin/Repetier/Sprinter)
;   GPXconfigOverride,r2
;   baudRateOverride,115200
;   overridePrinterModels,1
;   printerModelsOverride,MP_Mini_Delta_Platform.stl
;   startingGcode,G90 ; absolute positioning - this line was added in case Cura doesn't include it by default,M82 ; set extruder to absolute mode - this line was added in case Cura doesn't include it by default (may not be needed),M107; start with the fan off (I don't think this is possible),G28 ; Start from home position,G29 C-0.8 Z0.3 ; probe the bed at 3 points with a 0.3mm overall vertical offset and an additional -0.8mm center offset ,G1 Z15.0 F4800  ; move the nozzle up 15mm,G92 E0 ; reset extrusion distance,G1 F200 E3 ; extrude 3mm of feed stock,G92 E0 ; reset extrusion distance again,G1 F4800
;   layerChangeGcode,
;   retractionGcode,
;   toolChangeGcode,
;   endingGcode,M104 S0 ; turn off hotend heater,M140 S0 ; turn off bed heater,G91 ; Switch to use Relative Coordinates,G1 E-3 F700 ; retract the filament a bit before lifting the nozzle to release some of the pressure,G1 Z2 F1000 ; raise platform 2mm from current position,G1 E-2 F700 ; retract filament even more,G90 ; Switch back to using absolute coordinates,G28 X ; Return to home position. Without an X Y or Z after G28 the print completion time will not be displayed on the Mini Delta's display.,M84 ; disable motors,G4 S360 ; pause for 360 seconds to keep fan running to cool hotend and allow the fan to be turned off,M107 ; turn off fan. Some say M107 doesn't work for them but if the hotend is cool enough it should work,;M106 S1 ; turn off fan. Remove the semicolon in front of M106 if M107 doesn't work for you
;   exportFileFormat,gcode
;   celebration,0
;   celebrationSong,Random Song
;   postProcessing,
;   defaultSpeed,3200
;   outlineUnderspeed,1
;   solidInfillUnderspeed,1
;   supportUnderspeed,1
;   rapidXYspeed,3200
;   rapidZspeed,1002
;   minBridgingArea,50
;   bridgingExtraInflation,0
;   bridgingExtrusionMultiplier,0.9
;   bridgingSpeedMultiplier,1
;   useFixedBridgingAngle,0
;   fixedBridgingAngle,0
;   applyBridgingToPerimeters,0
;   filamentDiameters,1.75|1.75|1.75|1.75|1.75|1.75
;   filamentPricesPerKg,48|25|25|25|25|25
;   filamentDensities,1.25|1.25|1.25|1.25|1.25|1.25
;   useMinPrintHeight,0
;   minPrintHeight,42
;   useMaxPrintHeight,0
;   maxPrintHeight,0
;   useDiaphragm,0
;   diaphragmLayerInterval,20
;   robustSlicing,1
;   mergeAllIntoSolid,0
;   onlyRetractWhenCrossingOutline,1
;   retractBetweenLayers,1
;   useRetractionMinTravel,0
;   retractionMinTravel,3
;   retractWhileWiping,1
;   onlyWipeOutlines,1
;   avoidCrossingOutline,0
;   maxMovementDetourFactor,5
;   toolChangeRetractionDistance,12
;   toolChangeExtraRestartDistance,-0.5
;   toolChangeRetractionSpeed,600
;   externalThinWallType,1
;   internalThinWallType,1
;   thinWallAllowedOverlapPercentage,100
;   singleExtrusionMinLength,0.4
;   singleExtrusionMinPrintingWidthPercentage,50
;   singleExtrusionMaxPrintingWidthPercentage,200
;   singleExtrusionEndpointExtension,0.2
;   horizontalSizeCompensation,0
G90
M82
M106 S255
G4 P500
M106 S0
M140 S30
M190 S30
M104 S200 T0
M109 S200 T0
G90 ; absolute positioning - this line was added in case Cura doesn't include it by default
M82 ; set extruder to absolute mode - this line was added in case Cura doesn't include it by default (may not be needed)
M107; start with the fan off (I don't think this is possible)
G28 ; Start from home position
G29 C-0.8 Z0.3 ; probe the bed at 3 points with a 0.3mm overall vertical offset and an additional -0.8mm center offset 
G1 Z15.0 F4800  ; move the nozzle up 15mm
G92 E0 ; reset extrusion distance
G1 F200 E3 ; extrude 3mm of feed stock
G92 E0 ; reset extrusion distance again
G1 F4800
G92 E0
G1 E-8.0000 F3000
G1 Z0.490 F1002
; process Process2
; layer 1, Z = 0.100
T0
; tool H0.100 W0.400
; inner perimeter
G1 X-0.984 Y13.461 F3200
G1 E0.0000 F900
G92 E0
G1 X9.484 Y13.461 E0.1741 F1280
G1 X4.250 Y16.483 E0.2746
G1 X-0.984 Y13.461 E0.3751
; outer perimeter
G1 X-2.477 Y13.061 F3200
G92 E0
G1 X10.977 Y13.061 E0.2238 F1280
G1 X4.250 Y16.945 E0.3529
G1 X-2.477 Y13.061 E0.4821
; solid layer
G1 X1.318 Y14.329 F3200
G92 E0
G1 X0.850 Y13.861 E0.0110 F1280
G1 X1.416 Y13.861 E0.0204
G1 X2.656 Y15.101 E0.0496
G1 X3.995 Y15.874 E0.0753
G1 X1.982 Y13.861 E0.1226
G1 X2.548 Y13.861 E0.1320
G1 X4.540 Y15.854 E0.1789
G1 X4.899 Y15.647 E0.1858
G1 X3.113 Y13.861 E0.2278
G1 X3.679 Y13.861 E0.2372
G1 X5.257 Y15.440 E0.2743
G1 X5.616 Y15.233 E0.2812
G1 X4.245 Y13.861 E0.3134
G1 X4.810 Y13.861 E0.3228
G1 X5.975 Y15.026 E0.3502
G1 X6.333 Y14.819 E0.3571
G1 X5.376 Y13.861 E0.3796
G1 X5.942 Y13.861 E0.3890
G1 X6.692 Y14.612 E0.4067
G1 X7.051 Y14.405 E0.4136
G1 X6.507 Y13.861 E0.4264
G1 X7.073 Y13.861 E0.4358
G1 X7.409 Y14.197 E0.4437
G1 X7.768 Y13.990 E0.4506
G1 X7.639 Y13.861 E0.4536
G92 E0
G1 E-8.0000 F3000
; inner perimeter
G1 X13.615 Y1.261 F3200
G1 E0.0000 F3000
G92 E0
G1 X-17.984 Y1.261 E0.5255 F1280
G1 X-13.615 Y-1.261 E0.6094
G1 X17.984 Y-1.261 E1.1349
G1 X13.615 Y1.261 E1.2188
; outer perimeter
G1 X13.723 Y1.661 F3200
G92 E0
G1 X-19.477 Y1.661 E0.5521 F1280
G1 X-13.723 Y-1.661 E0.6626
G1 X19.477 Y-1.661 E1.2147
G1 X13.723 Y1.661 E1.3252
; solid layer
G1 X16.109 Y-0.861 F3200
G92 E0
G1 X16.249 Y-0.721 E0.0033 F1280
G1 X15.891 Y-0.514 E0.0102
G1 X15.544 Y-0.861 E0.0183
G1 X14.978 Y-0.861 E0.0277
G1 X15.532 Y-0.307 E0.0408
G1 X15.173 Y-0.100 E0.0477
G1 X14.412 Y-0.861 E0.0656
G1 X13.847 Y-0.861 E0.0750
G1 X14.815 Y0.107 E0.0977
G1 X14.456 Y0.314 E0.1046
G1 X13.281 Y-0.861 E0.1323
G1 X12.715 Y-0.861 E0.1417
G1 X14.098 Y0.521 E0.1742
G1 X13.739 Y0.728 E0.1811
G1 X12.150 Y-0.861 E0.2184
G1 X11.584 Y-0.861 E0.2279
G1 X13.306 Y0.861 E0.2684
G1 X12.741 Y0.861 E0.2778
G1 X11.018 Y-0.861 E0.3183
G1 X10.453 Y-0.861 E0.3277
G1 X12.175 Y0.861 E0.3682
G1 X11.609 Y0.861 E0.3776
G1 X9.887 Y-0.861 E0.4181
G1 X9.321 Y-0.861 E0.4275
G1 X11.044 Y0.861 E0.4680
G1 X10.478 Y0.861 E0.4774
G1 X8.755 Y-0.861 E0.5179
G1 X8.190 Y-0.861 E0.5273
G1 X9.912 Y0.861 E0.5679
G1 X9.347 Y0.861 E0.5773
G1 X7.624 Y-0.861 E0.6178
G1 X7.058 Y-0.861 E0.6272
G1 X8.781 Y0.861 E0.6677
G1 X8.215 Y0.861 E0.6771
G1 X6.493 Y-0.861 E0.7176
G1 X5.927 Y-0.861 E0.7270
G1 X7.649 Y0.861 E0.7675
G1 X7.084 Y0.861 E0.7769
G1 X5.361 Y-0.861 E0.8174
G1 X4.796 Y-0.861 E0.8268
G1 X6.518 Y0.861 E0.8674
G1 X5.952 Y0.861 E0.8768
G1 X4.230 Y-0.861 E0.9173
G1 X3.664 Y-0.861 E0.9267
G1 X5.387 Y0.861 E0.9672
G1 X4.821 Y0.861 E0.9766
G1 X3.099 Y-0.861 E1.0171
G1 X2.533 Y-0.861 E1.0265
G1 X4.255 Y0.861 E1.0670
G1 X3.690 Y0.861 E1.0764
G1 X1.967 Y-0.861 E1.1169
G1 X1.402 Y-0.861 E1.1263
G1 X3.124 Y0.861 E1.1668
G1 X2.558 Y0.861 E1.1763
G1 X0.836 Y-0.861 E1.2168
G1 X0.270 Y-0.861 E1.2262
G1 X1.993 Y0.861 E1.2667
G1 X1.427 Y0.861 E1.2761
G1 X-0.296 Y-0.861 E1.3166
G1 X-0.861 Y-0.861 E1.3260
G1 X0.861 Y0.861 E1.3665
G1 X0.296 Y0.861 E1.3759
G1 X-1.427 Y-0.861 E1.4164
G1 X-1.993 Y-0.861 E1.4258
G1 X-0.270 Y0.861 E1.4663
G1 X-0.836 Y0.861 E1.4758
G1 X-2.558 Y-0.861 E1.5163
G1 X-3.124 Y-0.861 E1.5257
G1 X-1.402 Y0.861 E1.5662
G1 X-1.967 Y0.861 E1.5756
G1 X-3.690 Y-0.861 E1.6161
G1 X-4.255 Y-0.861 E1.6255
G1 X-2.533 Y0.861 E1.6660
G1 X-3.099 Y0.861 E1.6754
G1 X-4.821 Y-0.861 E1.7159
G1 X-5.387 Y-0.861 E1.7253
G1 X-3.664 Y0.861 E1.7658
G1 X-4.230 Y0.861 E1.7752
G1 X-5.952 Y-0.861 E1.8158
G1 X-6.518 Y-0.861 E1.8252
G1 X-4.796 Y0.861 E1.8657
G1 X-5.361 Y0.861 E1.8751
G1 X-7.084 Y-0.861 E1.9156
G1 X-7.649 Y-0.861 E1.9250
G1 X-5.927 Y0.861 E1.9655
G1 X-6.493 Y0.861 E1.9749
G1 X-8.215 Y-0.861 E2.0154
G1 X-8.781 Y-0.861 E2.0248
G1 X-7.058 Y0.861 E2.0653
G1 X-7.624 Y0.861 E2.0747
G1 X-9.346 Y-0.861 E2.1153
G1 X-9.912 Y-0.861 E2.1247
G1 X-8.190 Y0.861 E2.1652
G1 X-8.755 Y0.861 E2.1746
G1 X-10.478 Y-0.861 E2.2151
G1 X-11.044 Y-0.861 E2.2245
G1 X-9.321 Y0.861 E2.2650
G1 X-9.887 Y0.861 E2.2744
G1 X-11.609 Y-0.861 E2.3149
G1 X-12.175 Y-0.861 E2.3243
G1 X-10.452 Y0.861 E2.3648
G1 X-11.018 Y0.861 E2.3742
G1 X-12.741 Y-0.861 E2.4148
G1 X-13.306 Y-0.861 E2.4242
G1 X-11.584 Y0.861 E2.4647
G1 X-12.150 Y0.861 E2.4741
G1 X-13.739 Y-0.728 E2.5115
G1 X-14.097 Y-0.521 E2.5183
G1 X-12.715 Y0.861 E2.5508
G1 X-13.281 Y0.861 E2.5603
G1 X-14.456 Y-0.314 E2.5879
G1 X-14.815 Y-0.107 E2.5948
G1 X-13.847 Y0.861 E2.6175
G1 X-14.412 Y0.861 E2.6270
G1 X-15.173 Y0.100 E2.6449
G1 X-15.532 Y0.307 E2.6517
G1 X-14.978 Y0.861 E2.6648
G1 X-15.544 Y0.861 E2.6742
G1 X-15.891 Y0.514 E2.6823
G1 X-16.249 Y0.721 E2.6892
G1 X-16.109 Y0.861 E2.6925
G92 E0
G1 E-8.0000 F3000
; inner perimeter
G1 X-17.984 Y13.461 F3200
G1 E0.0000 F3000
G92 E0
G1 X-7.516 Y13.461 E0.1741 F1280
G1 X-12.750 Y16.483 E0.2746
G1 X-17.984 Y13.461 E0.3751
; outer perimeter
G1 X-19.477 Y13.061 F3200
G92 E0
G1 X-6.023 Y13.061 E0.2238 F1280
G1 X-12.750 Y16.945 E0.3529
G1 X-19.477 Y13.061 E0.4821
; solid layer
G1 X-15.613 Y14.369 F3200
G92 E0
G1 X-16.120 Y13.861 E0.0119 F1280
G1 X-15.554 Y13.861 E0.0213
G1 X-14.274 Y15.142 E0.0515
G1 X-12.936 Y15.914 E0.0772
G1 X-14.989 Y13.861 E0.1254
G1 X-14.423 Y13.861 E0.1349
G1 X-12.441 Y15.843 E0.1815
G1 X-12.082 Y15.636 E0.1883
G1 X-13.857 Y13.861 E0.2301
G1 X-13.292 Y13.861 E0.2395
G1 X-11.724 Y15.429 E0.2764
G1 X-11.365 Y15.222 E0.2833
G1 X-12.726 Y13.861 E0.3153
G1 X-12.160 Y13.861 E0.3247
G1 X-11.007 Y15.015 E0.3518
G1 X-10.648 Y14.808 E0.3587
G1 X-11.595 Y13.861 E0.3810
G1 X-11.029 Y13.861 E0.3904
G1 X-10.289 Y14.601 E0.4078
G1 X-9.931 Y14.394 E0.4146
G1 X-10.463 Y13.861 E0.4272
G1 X-9.898 Y13.861 E0.4366
G1 X-9.572 Y14.187 E0.4442
G1 X-9.213 Y13.980 E0.4511
G1 X-9.332 Y13.861 E0.4539
G92 E0
G1 E-8.0000 F3000
; inner perimeter
G1 X-9.484 Y-13.461 F3200
G1 E0.0000 F3000
G92 E0
G1 X-4.250 Y-16.483 E0.1005 F1280
G1 X0.984 Y-13.461 E0.2010
G1 X-9.484 Y-13.461 E0.3751
; outer perimeter
G1 X-10.977 Y-13.061 F3200
G92 E0
G1 X-4.250 Y-16.945 E0.1292 F1280
G1 X2.477 Y-13.061 E0.2584
G1 X-10.977 Y-13.061 E0.4821
; solid layer
G1 X-7.639 Y-13.861 F3200
G92 E0
G1 X-7.768 Y-13.990 E0.0030 F1280
G1 X-7.409 Y-14.197 E0.0099
G1 X-7.073 Y-13.861 E0.0178
G1 X-6.507 Y-13.861 E0.0272
G1 X-7.051 Y-14.405 E0.0400
G1 X-6.692 Y-14.612 E0.0469
G1 X-5.942 Y-13.861 E0.0646
G1 X-5.376 Y-13.861 E0.0740
G1 X-6.333 Y-14.819 E0.0965
G1 X-5.975 Y-15.026 E0.1034
G1 X-4.810 Y-13.861 E0.1308
G1 X-4.245 Y-13.861 E0.1402
G1 X-5.616 Y-15.233 E0.1724
G1 X-5.257 Y-15.440 E0.1793
G1 X-3.679 Y-13.861 E0.2164
G1 X-3.113 Y-13.861 E0.2258
G1 X-4.899 Y-15.647 E0.2678
G1 X-4.540 Y-15.854 E0.2747
G1 X-2.547 Y-13.861 E0.3216
G1 X-1.982 Y-13.861 E0.3310
G1 X-3.995 Y-15.874 E0.3783
G1 X-2.656 Y-15.101 E0.4040
G1 X-1.416 Y-13.861 E0.4332
G1 X-0.850 Y-13.861 E0.4426
G1 X-1.318 Y-14.329 E0.4536
G92 E0
G1 E-8.0000 F3000
; inner perimeter
G1 X7.516 Y-13.461 F3200
G1 E0.0000 F3000
G92 E0
G1 X12.750 Y-16.483 E0.1005 F1280
G1 X17.984 Y-13.461 E0.2010
G1 X7.516 Y-13.461 E0.3751
; outer perimeter
G1 X6.023 Y-13.061 F3200
G92 E0
G1 X12.750 Y-16.945 E0.1292 F1280
G1 X19.477 Y-13.061 E0.2584
G1 X6.023 Y-13.061 E0.4821
; solid layer
G1 X9.332 Y-13.861 F3200
G92 E0
G1 X9.213 Y-13.980 E0.0028 F1280
G1 X9.572 Y-14.187 E0.0097
G1 X9.898 Y-13.861 E0.0173
G1 X10.463 Y-13.861 E0.0267
G1 X9.931 Y-14.394 E0.0393
G1 X10.289 Y-14.601 E0.0461
G1 X11.029 Y-13.861 E0.0635
G1 X11.595 Y-13.861 E0.0729
G1 X10.648 Y-14.808 E0.0952
G1 X11.007 Y-15.015 E0.1021
G1 X12.160 Y-13.861 E0.1292
G1 X12.726 Y-13.861 E0.1386
G1 X11.365 Y-15.222 E0.1706
G1 X11.724 Y-15.429 E0.1775
G1 X13.292 Y-13.861 E0.2144
G1 X13.857 Y-13.861 E0.2238
G1 X12.083 Y-15.636 E0.2656
G1 X12.441 Y-15.843 E0.2724
G1 X14.423 Y-13.861 E0.3191
G1 X14.989 Y-13.861 E0.3285
G1 X12.936 Y-15.914 E0.3767
G1 X14.274 Y-15.142 E0.4024
G1 X15.554 Y-13.861 E0.4326
G1 X16.120 Y-13.861 E0.4420
G1 X15.613 Y-14.369 E0.4539
G92 E0
G1 E-8.0000 F3000
; support
G1 X20.895 Y-13.047 F3200
G1 E0.0000 F3000
G92 E0
G1 X21.220 Y-12.721 E0.0077 F1280
G1 X21.220 Y-10.835 E0.0390
G1 X19.794 Y-12.261 E0.0725
G1 X17.909 Y-12.261 E0.1039
G1 X21.220 Y-8.950 E0.1818
G1 X21.220 Y-7.064 E0.2131
G1 X16.023 Y-12.261 E0.3354
G1 X14.137 Y-12.261 E0.3667
G1 X21.220 Y-5.179 E0.5333
G1 X21.220 Y-3.293 E0.5646
G1 X15.780 Y-8.733 E0.6926
G1 X15.780 Y-9.780 E0.7100
G1 X14.733 Y-9.780 E0.7274
G1 X13.780 Y-10.733 E0.7498
G1 X13.780 Y-10.780 E0.7506
G1 X13.733 Y-10.780 E0.7514
