; G-Code generated by Simplify3D(R) Version 4.0.0
; Oct 29, 2018 at 1:33:04 PM
; Settings Summary
;   processName,Process3
;   applyToModels,CPbottom_changed_2mm,CPbottom_changed_2mm(2),CPbottom_changed_2mm(3),CPbottom_changed_2mm(4),CPbottom_changed_2mm(5),CPbottom_changed_2mm(6),CPbottom_changed_2mm(7),CPbottom_changed_2mm(8),CPbottom_changed_2mm(9),CPbottom_changed_2mm(10),CPbottom_changed_2mm(11),CPbottom_changed_2mm(12)
;   profileName,MP Mini Delta23 (modified)
;   profileVersion,2017-10-15 16:31:22
;   baseProfile,Monoprice MP Mini Delta
;   printMaterial,eSun PLA+ - Solid Red
;   printQuality,0.08
;   printExtruders,
;   extruderName,Primary Extruder
;   extruderToolheadNumber,0
;   extruderDiameter,0.4
;   extruderAutoWidth,0
;   extruderWidth,0.4
;   extrusionMultiplier,1
;   extruderUseRetract,1
;   extruderRetractionDistance,8
;   extruderExtraRestartDistance,0
;   extruderRetractionZLift,0
;   extruderRetractionSpeed,3000
;   extruderUseCoasting,0
;   extruderCoastingDistance,0.2
;   extruderUseWipe,0
;   extruderWipeDistance,5
;   primaryExtruder,0
;   layerHeight,0.3
;   topSolidLayers,5
;   bottomSolidLayers,5
;   perimeterOutlines,2
;   printPerimetersInsideOut,1
;   startPointOption,2
;   startPointOriginX,0
;   startPointOriginY,0
;   sequentialIslands,0
;   spiralVaseMode,0
;   firstLayerHeightPercentage,100
;   firstLayerWidthPercentage,100
;   firstLayerUnderspeed,0.4
;   useRaft,0
;   raftExtruder,0
;   raftTopLayers,3
;   raftBaseLayers,1
;   raftOffset,2
;   raftSeparationDistance,0.1
;   raftTopInfill,100
;   aboveRaftSpeedMultiplier,0.3
;   useSkirt,1
;   skirtExtruder,0
;   skirtLayers,3
;   skirtOutlines,6
;   skirtOffset,0
;   usePrimePillar,0
;   primePillarExtruder,999
;   primePillarWidth,6
;   primePillarLocation,0
;   primePillarSpeedMultiplier,1
;   useOozeShield,0
;   oozeShieldExtruder,999
;   oozeShieldOffset,2
;   oozeShieldOutlines,1
;   oozeShieldSidewallShape,1
;   oozeShieldSidewallAngle,30
;   oozeShieldSpeedMultiplier,1
;   infillExtruder,0
;   internalInfillPattern,Full Honeycomb
;   externalInfillPattern,Rectilinear
;   infillPercentage,15
;   outlineOverlapPercentage,0
;   infillExtrusionWidthPercentage,100
;   minInfillLength,5
;   infillLayerInterval,1
;   internalInfillAngles,0,120,-120
;   overlapInternalInfillAngles,0
;   externalInfillAngles,45,-45
;   generateSupport,1
;   supportExtruder,0
;   supportInfillPercentage,30
;   supportExtraInflation,0.2
;   supportBaseLayers,0
;   denseSupportExtruder,0
;   denseSupportLayers,0
;   denseSupportInfillPercentage,70
;   supportLayerInterval,1
;   supportHorizontalPartOffset,0.4
;   supportUpperSeparationLayers,1
;   supportLowerSeparationLayers,1
;   supportType,0
;   supportGridSpacing,1
;   maxOverhangAngle,45
;   supportAngles,-45
;   temperatureName,Primary Extruder,Heated Bed
;   temperatureNumber,0,0
;   temperatureSetpointCount,1,1
;   temperatureSetpointLayers,1,1
;   temperatureSetpointTemperatures,200,30
;   temperatureStabilizeAtStartup,1,1
;   temperatureHeatedBed,0,1
;   temperatureRelayBetweenLayers,0,0
;   temperatureRelayBetweenLoops,0,0
;   fanLayers,1,2,10
;   fanSpeeds,0,60,100
;   blipFanToFullPower,1
;   adjustSpeedForCooling,1
;   minSpeedLayerTime,15
;   minCoolingSpeedSlowdown,20
;   increaseFanForCooling,0
;   minFanLayerTime,45
;   maxCoolingFanSpeed,100
;   increaseFanForBridging,0
;   bridgingFanSpeed,100
;   use5D,1
;   relativeEdistances,0
;   allowEaxisZeroing,1
;   independentExtruderAxes,0
;   includeM10123,0
;   stickySupport,1
;   applyToolheadOffsets,0
;   gcodeXoffset,0
;   gcodeYoffset,0
;   gcodeZoffset,0.39
;   overrideMachineDefinition,1
;   machineTypeOverride,1
;   strokeXoverride,77.8
;   strokeYoverride,77.8
;   strokeZoverride,120
;   originOffsetXoverride,38.9
;   originOffsetYoverride,38.9
;   originOffsetZoverride,0
;   homeXdirOverride,0
;   homeYdirOverride,0
;   homeZdirOverride,-1
;   flipXoverride,1
;   flipYoverride,-1
;   flipZoverride,1
;   toolheadOffsets,0,0|0,0|0,0|0,0|0,0|0,0
;   overrideFirmwareConfiguration,1
;   firmwareTypeOverride,RepRap (Marlin/Repetier/Sprinter)
;   GPXconfigOverride,r2
;   baudRateOverride,115200
;   overridePrinterModels,1
;   printerModelsOverride,MP_Mini_Delta_Platform.stl
;   startingGcode,G90 ; absolute positioning - this line was added in case Cura doesn't include it by default,M82 ; set extruder to absolute mode - this line was added in case Cura doesn't include it by default (may not be needed),M107; start with the fan off (I don't think this is possible),G28 ; Start from home position,G29 C-0.8 Z0.3 ; probe the bed at 3 points with a 0.3mm overall vertical offset and an additional -0.8mm center offset ,G1 Z15.0 F4800  ; move the nozzle up 15mm,G92 E0 ; reset extrusion distance,G1 F200 E3 ; extrude 3mm of feed stock,G92 E0 ; reset extrusion distance again,G1 F4800
;   layerChangeGcode,
;   retractionGcode,
;   toolChangeGcode,
;   endingGcode,M104 S0 ; turn off hotend heater,M140 S0 ; turn off bed heater,G91 ; Switch to use Relative Coordinates,G1 E-3 F700 ; retract the filament a bit before lifting the nozzle to release some of the pressure,G1 Z2 F1000 ; raise platform 2mm from current position,G1 E-2 F700 ; retract filament even more,G90 ; Switch back to using absolute coordinates,G28 X ; Return to home position. Without an X Y or Z after G28 the print completion time will not be displayed on the Mini Delta's display.,M84 ; disable motors,G4 S360 ; pause for 360 seconds to keep fan running to cool hotend and allow the fan to be turned off,M107 ; turn off fan. Some say M107 doesn't work for them but if the hotend is cool enough it should work,;M106 S1 ; turn off fan. Remove the semicolon in front of M106 if M107 doesn't work for you
;   exportFileFormat,gcode
;   celebration,0
;   celebrationSong,Random Song
;   postProcessing,
;   defaultSpeed,3200
;   outlineUnderspeed,1
;   solidInfillUnderspeed,1
;   supportUnderspeed,1
;   rapidXYspeed,3200
;   rapidZspeed,1002
;   minBridgingArea,50
;   bridgingExtraInflation,0
;   bridgingExtrusionMultiplier,0.9
;   bridgingSpeedMultiplier,1
;   useFixedBridgingAngle,0
;   fixedBridgingAngle,0
;   applyBridgingToPerimeters,0
;   filamentDiameters,1.75|1.75|1.75|1.75|1.75|1.75
;   filamentPricesPerKg,48|25|25|25|25|25
;   filamentDensities,1.25|1.25|1.25|1.25|1.25|1.25
;   useMinPrintHeight,0
;   minPrintHeight,42
;   useMaxPrintHeight,0
;   maxPrintHeight,0
;   useDiaphragm,0
;   diaphragmLayerInterval,20
;   robustSlicing,1
;   mergeAllIntoSolid,0
;   onlyRetractWhenCrossingOutline,1
;   retractBetweenLayers,1
;   useRetractionMinTravel,0
;   retractionMinTravel,3
;   retractWhileWiping,1
;   onlyWipeOutlines,1
;   avoidCrossingOutline,0
;   maxMovementDetourFactor,5
;   toolChangeRetractionDistance,12
;   toolChangeExtraRestartDistance,-0.5
;   toolChangeRetractionSpeed,600
;   externalThinWallType,1
;   internalThinWallType,1
;   thinWallAllowedOverlapPercentage,100
;   singleExtrusionMinLength,0.4
;   singleExtrusionMinPrintingWidthPercentage,50
;   singleExtrusionMaxPrintingWidthPercentage,200
;   singleExtrusionEndpointExtension,0.2
;   horizontalSizeCompensation,0
G90
M82
M106 S255
G4 P500
M106 S0
M140 S30
M190 S30
M104 S200 T0
M109 S200 T0
G90 ; absolute positioning - this line was added in case Cura doesn't include it by default
M82 ; set extruder to absolute mode - this line was added in case Cura doesn't include it by default (may not be needed)
M107; start with the fan off (I don't think this is possible)
G28 ; Start from home position
G29 C-0.8 Z0.3 ; probe the bed at 3 points with a 0.3mm overall vertical offset and an additional -0.8mm center offset 
G1 Z15.0 F4800  ; move the nozzle up 15mm
G92 E0 ; reset extrusion distance
G1 F200 E3 ; extrude 3mm of feed stock
G92 E0 ; reset extrusion distance again
G1 F4800
G92 E0
G1 E-8.0000 F3000
G1 Z0.690 F1002
; process Process3
; layer 1, Z = 0.300
T0
; tool H0.300 W0.400
; skirt
G1 X0.121 Y0.310 F3200
G1 E0.0000 F900
G92 E0
G1 X0.659 Y0.324 E0.0268 F1280
G1 X0.779 Y0.334 E0.0329
G1 X1.609 Y0.449 E0.0747
G1 X1.728 Y0.473 E0.0807
G1 X2.540 Y0.678 E0.1225
G1 X2.655 Y0.714 E0.1285
G1 X3.440 Y1.008 E0.1703
G1 X3.551 Y1.057 E0.1764
G1 X4.289 Y1.430 E0.2176
G1 X4.377 Y1.480 E0.2227
G1 X4.867 Y1.788 E0.2516
G1 X4.950 Y1.845 E0.2566
G1 X5.600 Y2.341 E0.2974
G1 X5.677 Y2.406 E0.3024
G1 X6.095 Y2.791 E0.3308
G1 X6.153 Y2.848 E0.3348
G1 X6.542 Y3.263 E0.3632
G1 X6.607 Y3.340 E0.3682
G1 X7.109 Y3.985 E0.4090
G1 X7.168 Y4.067 E0.4140
G1 X7.480 Y4.554 E0.4429
G1 X7.530 Y4.642 E0.4479
G1 X7.910 Y5.377 E0.4892
G1 X7.960 Y5.487 E0.4953
G1 X8.261 Y6.269 E0.5370
G1 X8.298 Y6.384 E0.5431
G1 X8.511 Y7.194 E0.5849
G1 X8.536 Y7.313 E0.5909
G1 X8.658 Y8.141 E0.6327
G1 X8.669 Y8.262 E0.6388
G1 X8.700 Y9.089 E0.6800
G1 X8.699 Y9.190 E0.6851
G1 X8.667 Y9.768 E0.7139
G1 X8.657 Y9.868 E0.7190
G1 X8.536 Y10.687 E0.7603
G1 X8.511 Y10.805 E0.7663
G1 X8.298 Y11.615 E0.8081
G1 X8.261 Y11.731 E0.8141
G1 X7.960 Y12.512 E0.8559
G1 X7.910 Y12.623 E0.8620
G1 X7.530 Y13.358 E0.9032
G1 X7.480 Y13.445 E0.9083
G1 X7.168 Y13.932 E0.9372
G1 X7.109 Y14.015 E0.9422
G1 X6.607 Y14.660 E0.9830
G1 X6.542 Y14.737 E0.9880
G1 X6.153 Y15.151 E1.0164
G1 X6.095 Y15.208 E1.0204
G1 X5.677 Y15.593 E1.0488
G1 X5.600 Y15.658 E1.0538
G1 X4.950 Y16.154 E1.0946
G1 X4.867 Y16.212 E1.0996
G1 X4.377 Y16.519 E1.1285
G1 X4.289 Y16.569 E1.1335
G1 X3.542 Y16.947 E1.1753
G1 X3.412 Y17.003 E1.1824
G1 X2.378 Y17.368 E1.2371
G1 X2.242 Y17.407 E1.2441
G1 X1.423 Y17.582 E1.2859
G1 X1.324 Y17.599 E1.2909
G1 X0.749 Y17.668 E1.3198
G1 X0.648 Y17.675 E1.3248
G1 X-0.179 Y17.698 E1.3661
G1 X-0.300 Y17.695 E1.3722
G1 X-1.124 Y17.626 E1.4134
G1 X-1.224 Y17.613 E1.4185
G1 X-1.794 Y17.513 E1.4474
G1 X-1.893 Y17.491 E1.4524
G1 X-2.691 Y17.273 E1.4937
G1 X-2.806 Y17.235 E1.4997
G1 X-3.575 Y16.930 E1.5410
G1 X-3.668 Y16.889 E1.5460
G1 X-4.184 Y16.628 E1.5749
G1 X-4.272 Y16.578 E1.5799
G1 X-4.973 Y16.138 E1.6212
G1 X-5.072 Y16.068 E1.6273
G1 X-5.728 Y15.548 E1.6691
G1 X-5.819 Y15.467 E1.6751
G1 X-6.406 Y14.885 E1.7164
G1 X-6.475 Y14.811 E1.7214
G1 X-6.847 Y14.368 E1.7503
G1 X-6.908 Y14.287 E1.7553
G1 X-7.374 Y13.616 E1.7961
G1 X-7.427 Y13.530 E1.8011
G1 X-7.712 Y13.026 E1.8300
G1 X-7.758 Y12.936 E1.8351
G1 X-8.097 Y12.182 E1.8763
G1 X-8.141 Y12.068 E1.8824
G1 X-8.398 Y11.271 E1.9242
G1 X-8.429 Y11.154 E1.9302
G1 X-8.599 Y10.324 E1.9725
G1 X-8.618 Y10.184 E1.9796
G1 X-8.698 Y9.101 E2.0337
G1 X-8.700 Y8.980 E2.0398
G1 X-8.679 Y8.391 E2.0691
G1 X-8.670 Y8.290 E2.0742
G1 X-8.564 Y7.470 E2.1155
G1 X-8.542 Y7.351 E2.1215
G1 X-8.346 Y6.547 E2.1628
G1 X-8.318 Y6.450 E2.1678
G1 X-8.130 Y5.903 E2.1967
G1 X-8.093 Y5.809 E2.2017
G1 X-7.754 Y5.054 E2.2430
G1 X-7.698 Y4.946 E2.2491
G1 X-7.278 Y4.234 E2.2903
G1 X-7.222 Y4.149 E2.2954
G1 X-6.884 Y3.680 E2.3243
G1 X-6.821 Y3.601 E2.3293
G1 X-6.278 Y2.977 E2.3706
G1 X-6.193 Y2.890 E2.3766
G1 X-5.584 Y2.329 E2.4179
G1 X-5.507 Y2.264 E2.4229
G1 X-5.047 Y1.913 E2.4518
G1 X-4.964 Y1.856 E2.4568
G1 X-4.272 Y1.421 E2.4976
G1 X-4.184 Y1.372 E2.5027
G1 X-3.668 Y1.110 E2.5315
G1 X-3.575 Y1.069 E2.5366
G1 X-2.806 Y0.765 E2.5778
G1 X-2.691 Y0.726 E2.5839
G1 X-1.893 Y0.509 E2.6252
G1 X-1.794 Y0.486 E2.6302
G1 X-1.224 Y0.386 E2.6591
G1 X-1.124 Y0.373 E2.6641
G1 X-0.300 Y0.305 E2.7054
G1 X-0.179 Y0.301 E2.7114
G1 X0.121 Y0.310 E2.7264
G1 X-0.189 Y-0.301 F3200
G92 E0
G1 X-0.330 Y-0.306 E0.0071 F1280
G1 X-1.431 Y-0.418 E0.0622
G1 X-1.590 Y-0.446 E0.0703
G1 X-2.652 Y-0.715 E0.1250
G1 X-2.768 Y-0.751 E0.1310
G1 X-3.319 Y-0.958 E0.1604
G1 X-3.412 Y-0.997 E0.1655
G1 X-4.157 Y-1.357 E0.2067
G1 X-4.263 Y-1.416 E0.2128
G1 X-4.973 Y-1.861 E0.2546
G1 X-5.072 Y-1.931 E0.2606
G1 X-5.720 Y-2.445 E0.3019
G1 X-5.796 Y-2.512 E0.3069
G1 X-6.215 Y-2.911 E0.3358
G1 X-6.284 Y-2.984 E0.3408
G1 X-6.828 Y-3.608 E0.3821
G1 X-6.902 Y-3.704 E0.3882
G1 X-7.385 Y-4.400 E0.4305
G1 X-7.458 Y-4.522 E0.4375
G1 X-7.957 Y-5.486 E0.4917
G1 X-8.007 Y-5.597 E0.4977
G1 X-8.219 Y-6.146 E0.5271
G1 X-8.251 Y-6.242 E0.5321
G1 X-8.476 Y-7.038 E0.5734
G1 X-8.502 Y-7.156 E0.5795
G1 X-8.642 Y-7.992 E0.6218
G1 X-8.656 Y-8.133 E0.6288
G1 X-8.696 Y-9.218 E0.6830
G1 X-8.694 Y-9.340 E0.6890
G1 X-8.650 Y-9.927 E0.7184
G1 X-8.638 Y-10.027 E0.7235
G1 X-8.502 Y-10.843 E0.7647
G1 X-8.476 Y-10.961 E0.7708
G1 X-8.248 Y-11.767 E0.8126
G1 X-8.208 Y-11.882 E0.8186
G1 X-7.889 Y-12.667 E0.8609
G1 X-7.828 Y-12.795 E0.8680
G1 X-7.289 Y-13.749 E0.9226
G1 X-7.211 Y-13.867 E0.9297
G1 X-6.709 Y-14.537 E0.9715
G1 X-6.645 Y-14.615 E0.9765
G1 X-6.264 Y-15.037 E1.0049
G1 X-6.207 Y-15.095 E1.0089
G1 X-5.796 Y-15.488 E1.0373
G1 X-5.720 Y-15.554 E1.0423
G1 X-5.072 Y-16.068 E1.0836
G1 X-4.973 Y-16.138 E1.0896
G1 X-4.272 Y-16.578 E1.1309
G1 X-4.184 Y-16.628 E1.1360
G1 X-3.668 Y-16.889 E1.1648
G1 X-3.575 Y-16.930 E1.1699
G1 X-2.806 Y-17.235 E1.2112
G1 X-2.691 Y-17.273 E1.2172
G1 X-1.883 Y-17.494 E1.2590
G1 X-1.765 Y-17.519 E1.2650
G1 X-0.937 Y-17.649 E1.3068
G1 X-0.817 Y-17.661 E1.3129
G1 X0.010 Y-17.699 E1.3541
G1 X0.111 Y-17.699 E1.3592
G1 X0.345 Y-17.689 E1.3709
G1 X0.393 Y-17.685 E1.3733
G1 X1.276 Y-17.606 E1.4175
G1 X1.408 Y-17.586 E1.4242
G1 X2.242 Y-17.407 E1.4667
G1 X2.378 Y-17.368 E1.4738
G1 X3.402 Y-17.006 E1.5280
G1 X3.514 Y-16.960 E1.5340
G1 X4.044 Y-16.703 E1.5634
G1 X4.133 Y-16.655 E1.5684
G1 X4.842 Y-16.229 E1.6097
G1 X4.942 Y-16.160 E1.6158
G1 X5.608 Y-15.652 E1.6575
G1 X5.700 Y-15.573 E1.6636
G1 X6.298 Y-15.002 E1.7049
G1 X6.368 Y-14.929 E1.7099
G1 X6.748 Y-14.492 E1.7388
G1 X6.811 Y-14.413 E1.7438
G1 X7.289 Y-13.750 E1.7846
G1 X7.344 Y-13.666 E1.7896
G1 X7.638 Y-13.167 E1.8185
G1 X7.685 Y-13.078 E1.8235
G1 X8.038 Y-12.330 E1.8648
G1 X8.084 Y-12.217 E1.8709
G1 X8.356 Y-11.425 E1.9126
G1 X8.389 Y-11.309 E1.9187
G1 X8.570 Y-10.501 E1.9600
G1 X8.587 Y-10.402 E1.9650
G1 X8.661 Y-9.828 E1.9939
G1 X8.670 Y-9.727 E1.9989
G1 X8.700 Y-8.911 E2.0397
G1 X8.699 Y-8.810 E2.0447
G1 X8.667 Y-8.232 E2.0736
G1 X8.657 Y-8.131 E2.0786
G1 X8.537 Y-7.323 E2.1194
G1 X8.518 Y-7.224 E2.1245
G1 X8.381 Y-6.662 E2.1533
G1 X8.352 Y-6.565 E2.1584
G1 X8.084 Y-5.782 E2.1996
G1 X8.038 Y-5.670 E2.2057
G1 X7.685 Y-4.921 E2.2470
G1 X7.638 Y-4.832 E2.2520
G1 X7.344 Y-4.334 E2.2809
G1 X7.289 Y-4.249 E2.2859
G1 X6.799 Y-3.570 E2.3277
G1 X6.709 Y-3.461 E2.3348
G1 X5.966 Y-2.668 E2.3889
G1 X5.879 Y-2.585 E2.3950
G1 X5.431 Y-2.202 E2.4244
G1 X5.351 Y-2.140 E2.4294
G1 X4.684 Y-1.668 E2.4702
G1 X4.599 Y-1.614 E2.4752
G1 X4.098 Y-1.324 E2.5041
G1 X4.008 Y-1.278 E2.5091
G1 X3.266 Y-0.936 E2.5499
G1 X3.172 Y-0.898 E2.5549
G1 X2.617 Y-0.702 E2.5843
G1 X2.501 Y-0.668 E2.5904
G1 X1.453 Y-0.423 E2.6440
G1 X1.334 Y-0.402 E2.6501
G1 X0.749 Y-0.332 E2.6795
G1 X0.648 Y-0.324 E2.6845
G1 X-0.189 Y-0.301 E2.7263
G1 X-10.173 Y-5.197 F3200
G92 E0
G1 X-10.227 Y-5.088 E0.0061 F1280
G1 X-10.634 Y-4.368 E0.0473
G1 X-10.688 Y-4.283 E0.0524
G1 X-11.012 Y-3.815 E0.0807
G1 X-11.060 Y-3.751 E0.0848
G1 X-11.417 Y-3.309 E0.1131
G1 X-11.485 Y-3.233 E0.1182
G1 X-12.054 Y-2.647 E0.1589
G1 X-12.128 Y-2.578 E0.1640
G1 X-12.568 Y-2.202 E0.1929
G1 X-12.648 Y-2.140 E0.1979
G1 X-13.323 Y-1.662 E0.2392
G1 X-13.426 Y-1.598 E0.2452
G1 X-14.159 Y-1.193 E0.2870
G1 X-14.268 Y-1.140 E0.2930
G1 X-15.041 Y-0.818 E0.3348
G1 X-15.155 Y-0.777 E0.3409
G1 X-15.949 Y-0.545 E0.3822
G1 X-16.047 Y-0.521 E0.3872
G1 X-16.605 Y-0.412 E0.4156
G1 X-16.685 Y-0.399 E0.4196
G1 X-17.250 Y-0.332 E0.4480
G1 X-17.350 Y-0.324 E0.4530
G1 X-18.188 Y-0.301 E0.4948
G1 X-18.329 Y-0.306 E0.5018
G1 X-19.429 Y-0.418 E0.5570
G1 X-19.589 Y-0.446 E0.5651
G1 X-20.651 Y-0.715 E0.6198
G1 X-20.767 Y-0.751 E0.6258
G1 X-21.318 Y-0.958 E0.6552
G1 X-21.411 Y-0.997 E0.6602
G1 X-22.147 Y-1.353 E0.7010
G1 X-22.236 Y-1.401 E0.7060
G1 X-22.732 Y-1.699 E0.7349
G1 X-22.816 Y-1.756 E0.7400
G1 X-23.482 Y-2.245 E0.7812
G1 X-23.576 Y-2.323 E0.7873
G1 X-24.185 Y-2.883 E0.8286
G1 X-24.256 Y-2.955 E0.8336
G1 X-24.644 Y-3.384 E0.8625
G1 X-24.708 Y-3.462 E0.8675
G1 X-25.204 Y-4.124 E0.9088
G1 X-25.271 Y-4.225 E0.9148
G1 X-25.692 Y-4.938 E0.9561
G1 X-25.739 Y-5.027 E0.9612
G1 X-25.986 Y-5.550 E0.9900
G1 X-26.025 Y-5.644 E0.9951
G1 X-26.304 Y-6.411 E1.0358
