; G-Code generated by Simplify3D(R) Version 4.0.0
; Oct 26, 2018 at 11:50:17 PM
; Settings Summary
;   processName,Process3
;   applyToModels,CPbottom_changed
;   profileName,MP Mini Delta23 (modified)
;   profileVersion,2017-10-15 16:31:22
;   baseProfile,Monoprice MP Mini Delta
;   printMaterial,eSun PLA+ - Solid Red
;   printQuality,0.08
;   printExtruders,
;   extruderName,Primary Extruder
;   extruderToolheadNumber,0
;   extruderDiameter,0.4
;   extruderAutoWidth,0
;   extruderWidth,0.4
;   extrusionMultiplier,1
;   extruderUseRetract,1
;   extruderRetractionDistance,8
;   extruderExtraRestartDistance,0
;   extruderRetractionZLift,0
;   extruderRetractionSpeed,3000
;   extruderUseCoasting,0
;   extruderCoastingDistance,0.2
;   extruderUseWipe,0
;   extruderWipeDistance,5
;   primaryExtruder,0
;   layerHeight,0.3
;   topSolidLayers,5
;   bottomSolidLayers,5
;   perimeterOutlines,2
;   printPerimetersInsideOut,1
;   startPointOption,2
;   startPointOriginX,0
;   startPointOriginY,0
;   sequentialIslands,0
;   spiralVaseMode,0
;   firstLayerHeightPercentage,100
;   firstLayerWidthPercentage,100
;   firstLayerUnderspeed,0.4
;   useRaft,0
;   raftExtruder,0
;   raftTopLayers,3
;   raftBaseLayers,1
;   raftOffset,2
;   raftSeparationDistance,0.1
;   raftTopInfill,100
;   aboveRaftSpeedMultiplier,0.3
;   useSkirt,0
;   skirtExtruder,0
;   skirtLayers,4
;   skirtOutlines,12
;   skirtOffset,0
;   usePrimePillar,0
;   primePillarExtruder,999
;   primePillarWidth,6
;   primePillarLocation,0
;   primePillarSpeedMultiplier,1
;   useOozeShield,0
;   oozeShieldExtruder,999
;   oozeShieldOffset,2
;   oozeShieldOutlines,1
;   oozeShieldSidewallShape,1
;   oozeShieldSidewallAngle,30
;   oozeShieldSpeedMultiplier,1
;   infillExtruder,0
;   internalInfillPattern,Full Honeycomb
;   externalInfillPattern,Rectilinear
;   infillPercentage,15
;   outlineOverlapPercentage,0
;   infillExtrusionWidthPercentage,100
;   minInfillLength,5
;   infillLayerInterval,1
;   internalInfillAngles,0,120,-120
;   overlapInternalInfillAngles,0
;   externalInfillAngles,45,-45
;   generateSupport,1
;   supportExtruder,0
;   supportInfillPercentage,30
;   supportExtraInflation,0.2
;   supportBaseLayers,0
;   denseSupportExtruder,0
;   denseSupportLayers,0
;   denseSupportInfillPercentage,70
;   supportLayerInterval,1
;   supportHorizontalPartOffset,0.4
;   supportUpperSeparationLayers,1
;   supportLowerSeparationLayers,1
;   supportType,0
;   supportGridSpacing,1
;   maxOverhangAngle,45
;   supportAngles,-45
;   temperatureName,Primary Extruder,Heated Bed
;   temperatureNumber,0,0
;   temperatureSetpointCount,1,1
;   temperatureSetpointLayers,1,1
;   temperatureSetpointTemperatures,200,30
;   temperatureStabilizeAtStartup,1,1
;   temperatureHeatedBed,0,1
;   temperatureRelayBetweenLayers,0,0
;   temperatureRelayBetweenLoops,0,0
;   fanLayers,1,2,10
;   fanSpeeds,0,60,100
;   blipFanToFullPower,1
;   adjustSpeedForCooling,1
;   minSpeedLayerTime,15
;   minCoolingSpeedSlowdown,20
;   increaseFanForCooling,0
;   minFanLayerTime,45
;   maxCoolingFanSpeed,100
;   increaseFanForBridging,0
;   bridgingFanSpeed,100
;   use5D,1
;   relativeEdistances,0
;   allowEaxisZeroing,1
;   independentExtruderAxes,0
;   includeM10123,0
;   stickySupport,1
;   applyToolheadOffsets,0
;   gcodeXoffset,0
;   gcodeYoffset,0
;   gcodeZoffset,0.39
;   overrideMachineDefinition,1
;   machineTypeOverride,1
;   strokeXoverride,77.8
;   strokeYoverride,77.8
;   strokeZoverride,120
;   originOffsetXoverride,38.9
;   originOffsetYoverride,38.9
;   originOffsetZoverride,0
;   homeXdirOverride,0
;   homeYdirOverride,0
;   homeZdirOverride,-1
;   flipXoverride,1
;   flipYoverride,-1
;   flipZoverride,1
;   toolheadOffsets,0,0|0,0|0,0|0,0|0,0|0,0
;   overrideFirmwareConfiguration,1
;   firmwareTypeOverride,RepRap (Marlin/Repetier/Sprinter)
;   GPXconfigOverride,r2
;   baudRateOverride,115200
;   overridePrinterModels,1
;   printerModelsOverride,MP_Mini_Delta_Platform.stl
;   startingGcode,G90 ; absolute positioning - this line was added in case Cura doesn't include it by default,M82 ; set extruder to absolute mode - this line was added in case Cura doesn't include it by default (may not be needed),M107; start with the fan off (I don't think this is possible),G28 ; Start from home position,G29 C-0.8 Z0.3 ; probe the bed at 3 points with a 0.3mm overall vertical offset and an additional -0.8mm center offset ,G1 Z15.0 F4800  ; move the nozzle up 15mm,G92 E0 ; reset extrusion distance,G1 F200 E3 ; extrude 3mm of feed stock,G92 E0 ; reset extrusion distance again,G1 F4800
;   layerChangeGcode,
;   retractionGcode,
;   toolChangeGcode,
;   endingGcode,M104 S0 ; turn off hotend heater,M140 S0 ; turn off bed heater,G91 ; Switch to use Relative Coordinates,G1 E-3 F700 ; retract the filament a bit before lifting the nozzle to release some of the pressure,G1 Z2 F1000 ; raise platform 2mm from current position,G1 E-2 F700 ; retract filament even more,G90 ; Switch back to using absolute coordinates,G28 X ; Return to home position. Without an X Y or Z after G28 the print completion time will not be displayed on the Mini Delta's display.,M84 ; disable motors,G4 S360 ; pause for 360 seconds to keep fan running to cool hotend and allow the fan to be turned off,M107 ; turn off fan. Some say M107 doesn't work for them but if the hotend is cool enough it should work,;M106 S1 ; turn off fan. Remove the semicolon in front of M106 if M107 doesn't work for you
;   exportFileFormat,gcode
;   celebration,0
;   celebrationSong,Random Song
;   postProcessing,
;   defaultSpeed,3200
;   outlineUnderspeed,1
;   solidInfillUnderspeed,1
;   supportUnderspeed,1
;   rapidXYspeed,3200
;   rapidZspeed,1002
;   minBridgingArea,50
;   bridgingExtraInflation,0
;   bridgingExtrusionMultiplier,0.9
;   bridgingSpeedMultiplier,1
;   useFixedBridgingAngle,0
;   fixedBridgingAngle,0
;   applyBridgingToPerimeters,0
;   filamentDiameters,1.75|1.75|1.75|1.75|1.75|1.75
;   filamentPricesPerKg,48|25|25|25|25|25
;   filamentDensities,1.25|1.25|1.25|1.25|1.25|1.25
;   useMinPrintHeight,0
;   minPrintHeight,42
;   useMaxPrintHeight,0
;   maxPrintHeight,0
;   useDiaphragm,0
;   diaphragmLayerInterval,20
;   robustSlicing,1
;   mergeAllIntoSolid,0
;   onlyRetractWhenCrossingOutline,1
;   retractBetweenLayers,1
;   useRetractionMinTravel,0
;   retractionMinTravel,3
;   retractWhileWiping,1
;   onlyWipeOutlines,1
;   avoidCrossingOutline,0
;   maxMovementDetourFactor,5
;   toolChangeRetractionDistance,12
;   toolChangeExtraRestartDistance,-0.5
;   toolChangeRetractionSpeed,600
;   externalThinWallType,1
;   internalThinWallType,1
;   thinWallAllowedOverlapPercentage,100
;   singleExtrusionMinLength,0.4
;   singleExtrusionMinPrintingWidthPercentage,50
;   singleExtrusionMaxPrintingWidthPercentage,200
;   singleExtrusionEndpointExtension,0.2
;   horizontalSizeCompensation,0
G90
M82
M106 S255
G4 P500
M106 S0
M140 S30
M190 S30
M104 S200 T0
M109 S200 T0
G90 ; absolute positioning - this line was added in case Cura doesn't include it by default
M82 ; set extruder to absolute mode - this line was added in case Cura doesn't include it by default (may not be needed)
M107; start with the fan off (I don't think this is possible)
G28 ; Start from home position
G29 C-0.8 Z0.3 ; probe the bed at 3 points with a 0.3mm overall vertical offset and an additional -0.8mm center offset 
G1 Z15.0 F4800  ; move the nozzle up 15mm
G92 E0 ; reset extrusion distance
G1 F200 E3 ; extrude 3mm of feed stock
G92 E0 ; reset extrusion distance again
G1 F4800
G92 E0
G1 E-8.0000 F3000
G1 Z0.690 F1002
; process Process3
; layer 1, Z = 0.300
T0
; tool H0.300 W0.400
; outer perimeter
G1 X-6.261 Y0.693 F3200
G1 E0.0000 F900
G92 E0
G1 X-6.299 Y-0.002 E0.0347 F714
G1 X-6.282 Y-0.462 E0.0577
G1 X-6.232 Y-0.921 E0.0807
G1 X-6.092 Y-1.603 E0.1154
G1 X-5.878 Y-2.265 E0.1502
G1 X-5.698 Y-2.687 E0.1731
G1 X-5.366 Y-3.299 E0.2078
G1 X-4.970 Y-3.871 E0.2425
G1 X-4.675 Y-4.223 E0.2654
G1 X-4.180 Y-4.712 E0.3001
G1 X-3.636 Y-5.144 E0.3348
G1 X-3.045 Y-5.515 E0.3696
G1 X-2.847 Y-5.619 E0.3808
G1 X-2.207 Y-5.900 E0.4157
G1 X-1.771 Y-6.046 E0.4386
G1 X-1.092 Y-6.204 E0.4734
G1 X-0.637 Y-6.267 E0.4963
G1 X0.058 Y-6.299 E0.5310
G1 X0.751 Y-6.255 E0.5656
G1 X1.436 Y-6.134 E0.6003
G1 X1.881 Y-6.013 E0.6234
G1 X2.316 Y-5.859 E0.6464
G1 X2.948 Y-5.568 E0.6811
G1 X3.542 Y-5.210 E0.7157
G1 X4.094 Y-4.788 E0.7503
G1 X4.597 Y-4.308 E0.7850
G1 X4.899 Y-3.962 E0.8080
G1 X5.306 Y-3.397 E0.8427
G1 X5.647 Y-2.793 E0.8773
G1 X5.921 Y-2.153 E0.9120
G1 X6.062 Y-1.716 E0.9349
G1 X6.215 Y-1.035 E0.9697
G1 X6.274 Y-0.580 E0.9927
G1 X6.299 Y0.116 E1.0274
G1 X6.248 Y0.808 E1.0620
G1 X6.121 Y1.492 E1.0967
G1 X5.996 Y1.936 E1.1197
G1 X5.838 Y2.369 E1.1427
G1 X5.541 Y2.998 E1.1774
G1 X5.177 Y3.591 E1.2121
G1 X4.901 Y3.959 E1.2351
G1 X4.435 Y4.475 E1.2698
G1 X3.915 Y4.936 E1.3044
G1 X3.347 Y5.337 E1.3391
G1 X2.950 Y5.567 E1.3620
G1 X2.316 Y5.859 E1.3968
G1 X1.881 Y6.013 E1.4198
G1 X1.436 Y6.134 E1.4429
G1 X0.751 Y6.255 E1.4776
G1 X0.058 Y6.299 E1.5122
G1 X-0.637 Y6.267 E1.5469
G1 X-1.092 Y6.204 E1.5698
G1 X-1.771 Y6.046 E1.6046
G1 X-2.207 Y5.900 E1.6275
G1 X-2.846 Y5.620 E1.6624
G1 X-3.247 Y5.398 E1.6853
G1 X-3.823 Y5.007 E1.7200
G1 X-4.351 Y4.556 E1.7546
G1 X-4.827 Y4.048 E1.7893
G1 X-5.109 Y3.686 E1.8122
G1 X-5.484 Y3.100 E1.8470
G1 X-5.792 Y2.476 E1.8817
G1 X-5.957 Y2.047 E1.9046
G1 X-6.147 Y1.378 E1.9393
G1 X-6.261 Y0.693 E1.9739
G1 X-5.628 Y0.901 F3200
G92 E0
G1 X-5.538 Y1.347 E0.0227 F714
G1 X-5.414 Y1.783 E0.0453
G1 X-5.254 Y2.209 E0.0680
G1 X-4.955 Y2.817 E0.1018
G1 X-4.585 Y3.385 E0.1357
G1 X-4.299 Y3.742 E0.1585
G1 X-3.826 Y4.225 E0.1922
G1 X-3.477 Y4.516 E0.2149
G1 X-3.106 Y4.780 E0.2376
G1 X-2.516 Y5.115 E0.2714
G1 X-1.892 Y5.377 E0.3052
G1 X-1.456 Y5.511 E0.3279
G1 X-1.014 Y5.609 E0.3505
G1 X-0.565 Y5.672 E0.3731
G1 X-0.111 Y5.699 E0.3959
G1 X0.566 Y5.672 E0.4297
G1 X1.235 Y5.565 E0.4635
G1 X1.677 Y5.448 E0.4863
G1 X2.310 Y5.211 E0.5200
G1 X2.721 Y5.009 E0.5428
G1 X3.294 Y4.652 E0.5765
G1 X3.656 Y4.373 E0.5993
G1 X4.148 Y3.910 E0.6330
G1 X4.447 Y3.567 E0.6557
G1 X4.718 Y3.200 E0.6785
G1 X5.063 Y2.620 E0.7122
G1 X5.257 Y2.206 E0.7350
G1 X5.481 Y1.568 E0.7687
G1 X5.589 Y1.124 E0.7915
G1 X5.683 Y0.455 E0.8252
G1 X5.701 Y0.000 E0.8479
G1 X5.683 Y-0.455 E0.8706
G1 X5.589 Y-1.124 E0.9043
G1 X5.481 Y-1.568 E0.9272
G1 X5.257 Y-2.206 E0.9609
G1 X5.063 Y-2.620 E0.9837
G1 X4.718 Y-3.200 E1.0174
G1 X4.447 Y-3.567 E1.0401
G1 X4.148 Y-3.910 E1.0628
G1 X3.656 Y-4.373 E1.0965
G1 X3.294 Y-4.652 E1.1193
G1 X2.721 Y-5.009 E1.1530
G1 X2.310 Y-5.211 E1.1758
G1 X1.677 Y-5.448 E1.2096
G1 X1.235 Y-5.565 E1.2324
G1 X0.568 Y-5.672 E1.2661
G1 X0.112 Y-5.699 E1.2889
G1 X-0.565 Y-5.672 E1.3227
G1 X-1.234 Y-5.565 E1.3565
G1 X-1.676 Y-5.448 E1.3793
G1 X-2.309 Y-5.211 E1.4130
G1 X-2.718 Y-5.010 E1.4357
G1 X-3.109 Y-4.777 E1.4584
G1 X-3.654 Y-4.375 E1.4923
G1 X-4.147 Y-3.910 E1.5261
G1 X-4.445 Y-3.568 E1.5487
G1 X-4.586 Y-3.384 E1.5603
G1 X-4.954 Y-2.819 E1.5939
G1 X-5.164 Y-2.413 E1.6167
G1 X-5.413 Y-1.785 E1.6504
G1 X-5.538 Y-1.347 E1.6731
G1 X-5.628 Y-0.901 E1.6958
G1 X-5.695 Y-0.229 E1.7295
G1 X-5.695 Y0.229 E1.7524
G1 X-5.628 Y0.901 E1.7861
; internal single extrusion
G1 X-5.919 Y0.950 F3200
G92 E0
; tool H0.300 W0.200
G1 X-5.929 Y0.876 E0.0019 F714
G1 X-5.949 Y0.728 E0.0056
G1 X-5.958 Y0.660 E0.0073
G1 X-5.963 Y0.590 E0.0090
G1 X-5.987 Y0.291 E0.0165
G1 X-5.991 Y0.216 E0.0184
G1 X-5.995 Y0.066 E0.0222
G1 X-5.997 Y-0.005 E0.0239
G1 X-5.996 Y-0.074 E0.0256
G1 X-5.993 Y-0.222 E0.0293
G1 X-5.989 Y-0.296 E0.0312
G1 X-5.984 Y-0.370 E0.0330
G1 X-5.979 Y-0.440 E0.0348
G1 X-5.972 Y-0.510 E0.0365
G1 X-5.941 Y-0.805 E0.0439
G1 X-5.934 Y-0.874 E0.0457
G1 X-5.923 Y-0.944 E0.0474
G1 X-5.908 Y-1.017 E0.0493
G1 X-5.833 Y-1.385 E0.0587
G1 X-5.817 Y-1.458 E0.0605
G1 X-5.800 Y-1.526 E0.0623
G1 X-5.780 Y-1.592 E0.0640
G1 X-5.714 Y-1.808 E0.0696
G1 X-5.693 Y-1.880 E0.0715
G1 X-5.667 Y-1.950 E0.0734
G1 X-5.616 Y-2.092 E0.0771
G1 X-5.593 Y-2.158 E0.0789
G1 X-5.566 Y-2.221 E0.0806
G1 X-5.454 Y-2.493 E0.0879
G1 X-5.427 Y-2.556 E0.0896
G1 X-5.394 Y-2.619 E0.0914
G1 X-5.219 Y-2.950 E0.1008
G1 X-5.181 Y-3.015 E0.1026
G1 X-5.143 Y-3.080 E0.1045
G1 X-5.107 Y-3.140 E0.1062
G1 X-5.069 Y-3.198 E0.1080
G1 X-4.859 Y-3.509 E0.1173
G1 X-4.817 Y-3.571 E0.1192
G1 X-4.773 Y-3.631 E0.1211
G1 X-4.731 Y-3.688 E0.1228
G1 X-4.688 Y-3.742 E0.1246
G1 X-4.640 Y-3.798 E0.1264
G1 X-4.497 Y-3.966 E0.1319
G1 X-4.453 Y-4.018 E0.1336
G1 X-4.404 Y-4.070 E0.1354
G1 X-4.353 Y-4.124 E0.1372
G1 X-4.029 Y-4.437 E0.1485
G1 X-3.979 Y-4.485 E0.1502
G1 X-3.926 Y-4.531 E0.1519
G1 X-3.870 Y-4.579 E0.1538
G1 X-3.812 Y-4.626 E0.1557
G1 X-3.516 Y-4.853 E0.1650
G1 X-3.461 Y-4.895 E0.1667
G1 X-3.403 Y-4.935 E0.1684
G1 X-3.278 Y-5.020 E0.1722
G1 X-3.214 Y-5.059 E0.1741
G1 X-2.956 Y-5.217 E0.1816
G1 X-2.895 Y-5.254 E0.1834
G1 X-2.837 Y-5.286 E0.1850
G1 X-2.775 Y-5.317 E0.1868
G1 X-2.716 Y-5.348 E0.1884
G1 X-2.650 Y-5.378 E0.1902
G1 X-2.444 Y-5.474 E0.1959
G1 X-2.374 Y-5.503 E0.1978
G1 X-2.163 Y-5.589 E0.2035
G1 X-2.097 Y-5.616 E0.2053
G1 X-2.032 Y-5.639 E0.2070
G1 X-1.825 Y-5.712 E0.2125
G1 X-1.755 Y-5.736 E0.2143
G1 X-1.689 Y-5.756 E0.2160
G1 X-1.620 Y-5.773 E0.2178
G1 X-1.327 Y-5.846 E0.2253
G1 X-1.254 Y-5.862 E0.2272
G1 X-1.105 Y-5.891 E0.2310
G1 X-1.036 Y-5.905 E0.2327
G1 X-0.968 Y-5.915 E0.2345
G1 X-0.677 Y-5.958 E0.2418
G1 X-0.609 Y-5.969 E0.2435
G1 X-0.539 Y-5.973 E0.2453
G1 X-0.014 Y-5.995 E0.2584
G1 X0.056 Y-5.998 E0.2601
G1 X0.125 Y-5.997 E0.2618
G1 X0.572 Y-5.969 E0.2730
G1 X0.715 Y-5.954 E0.2766
G1 X0.784 Y-5.943 E0.2783
G1 X1.228 Y-5.868 E0.2896
G1 X1.302 Y-5.855 E0.2914
G1 X1.371 Y-5.840 E0.2932
G1 X1.438 Y-5.822 E0.2949
G1 X1.724 Y-5.745 E0.3023
G1 X1.791 Y-5.726 E0.3041
G1 X1.858 Y-5.702 E0.3058
G1 X2.136 Y-5.601 E0.3132
G1 X2.201 Y-5.577 E0.3150
G1 X2.266 Y-5.550 E0.3167
G1 X2.405 Y-5.492 E0.3205
G1 X2.473 Y-5.461 E0.3223
G1 X2.744 Y-5.332 E0.3298
G1 X2.807 Y-5.302 E0.3316
G1 X2.868 Y-5.268 E0.3333
G1 X2.932 Y-5.229 E0.3352
G1 X3.313 Y-4.996 E0.3463
G1 X3.372 Y-4.960 E0.3480
G1 X3.429 Y-4.920 E0.3498
G1 X3.490 Y-4.876 E0.3516
G1 X3.845 Y-4.604 E0.3628
G1 X3.898 Y-4.559 E0.3645
G1 X3.949 Y-4.511 E0.3663
G1 X4.330 Y-4.150 E0.3794
G1 X4.380 Y-4.100 E0.3811
G1 X4.425 Y-4.048 E0.3829
G1 X4.618 Y-3.827 E0.3902
G1 X4.664 Y-3.775 E0.3919
G1 X4.706 Y-3.718 E0.3937
G1 X4.927 Y-3.415 E0.4030
G1 X4.971 Y-3.354 E0.4049
G1 X5.012 Y-3.292 E0.4068
G1 X5.050 Y-3.233 E0.4085
G1 X5.085 Y-3.174 E0.4102
G1 X5.310 Y-2.786 E0.4214
G1 X5.345 Y-2.721 E0.4233
G1 X5.377 Y-2.659 E0.4250
G1 X5.406 Y-2.596 E0.4267
G1 X5.528 Y-2.321 E0.4342
G1 X5.556 Y-2.252 E0.4361
G1 X5.610 Y-2.112 E0.4398
G1 X5.636 Y-2.046 E0.4416
G1 X5.658 Y-1.981 E0.4433
G1 X5.751 Y-1.703 E0.4506
G1 X5.773 Y-1.637 E0.4524
G1 X5.789 Y-1.568 E0.4541
G1 X5.875 Y-1.200 E0.4635
G1 X5.889 Y-1.126 E0.4654
G1 X5.903 Y-1.052 E0.4673
G1 X5.915 Y-0.982 E0.4691
G1 X5.925 Y-0.914 E0.4708
G1 X5.964 Y-0.623 E0.4781
G1 X5.973 Y-0.555 E0.4798
G1 X5.979 Y-0.484 E0.4816
G1 X5.982 Y-0.409 E0.4835
G1 X5.997 Y-0.035 E0.4928
G1 X5.998 Y0.040 E0.4947
G1 X5.998 Y0.110 E0.4964
G1 X5.994 Y0.179 E0.4982
G1 X5.981 Y0.403 E0.5037
G1 X5.977 Y0.477 E0.5056
G1 X5.969 Y0.552 E0.5075
G1 X5.953 Y0.700 E0.5112
G1 X5.946 Y0.769 E0.5129
G1 X5.935 Y0.837 E0.5147
G1 X5.887 Y1.134 E0.5221
G1 X5.873 Y1.208 E0.5240
G1 X5.842 Y1.354 E0.5278
G1 X5.827 Y1.423 E0.5295
G1 X5.809 Y1.491 E0.5313
G1 X5.771 Y1.634 E0.5350
G1 X5.750 Y1.705 E0.5368
G1 X5.728 Y1.775 E0.5386
G1 X5.706 Y1.842 E0.5404
G1 X5.683 Y1.909 E0.5422
G1 X5.583 Y2.187 E0.5495
G1 X5.560 Y2.253 E0.5513
G1 X5.533 Y2.318 E0.5530
G1 X5.501 Y2.386 E0.5549
G1 X5.341 Y2.726 E0.5643
G1 X5.308 Y2.793 E0.5661
G1 X5.275 Y2.854 E0.5679
G1 X5.239 Y2.914 E0.5696
G1 X5.006 Y3.299 E0.5808
G1 X4.967 Y3.363 E0.5827
G1 X4.928 Y3.422 E0.5845
G1 X4.886 Y3.477 E0.5862
G1 X4.711 Y3.713 E0.5935
G1 X4.669 Y3.768 E0.5952
G1 X4.623 Y3.821 E0.5970
G1 X4.374 Y4.101 E0.6064
G1 X4.322 Y4.156 E0.6082
G1 X4.269 Y4.209 E0.6101
G1 X4.221 Y4.259 E0.6118
G1 X4.170 Y4.306 E0.6136
G1 X3.894 Y4.557 E0.6229
G1 X3.839 Y4.607 E0.6247
