; G-Code generated by Simplify3D(R) Version 4.0.0
; Oct 26, 2018 at 8:13:39 PM
; Settings Summary
;   processName,Process3
;   applyToModels,CPbottom
;   profileName,MP Mini Delta23 (modified)
;   profileVersion,2017-10-15 16:31:22
;   baseProfile,Monoprice MP Mini Delta
;   printMaterial,eSun PLA+ - Solid Red
;   printQuality,0.08
;   printExtruders,
;   extruderName,Primary Extruder
;   extruderToolheadNumber,0
;   extruderDiameter,0.4
;   extruderAutoWidth,0
;   extruderWidth,0.4
;   extrusionMultiplier,1
;   extruderUseRetract,1
;   extruderRetractionDistance,8
;   extruderExtraRestartDistance,0
;   extruderRetractionZLift,0
;   extruderRetractionSpeed,3000
;   extruderUseCoasting,0
;   extruderCoastingDistance,0.2
;   extruderUseWipe,0
;   extruderWipeDistance,5
;   primaryExtruder,0
;   layerHeight,0.25
;   topSolidLayers,5
;   bottomSolidLayers,5
;   perimeterOutlines,2
;   printPerimetersInsideOut,1
;   startPointOption,2
;   startPointOriginX,0
;   startPointOriginY,0
;   sequentialIslands,0
;   spiralVaseMode,0
;   firstLayerHeightPercentage,100
;   firstLayerWidthPercentage,100
;   firstLayerUnderspeed,0.4
;   useRaft,0
;   raftExtruder,0
;   raftTopLayers,3
;   raftBaseLayers,1
;   raftOffset,2
;   raftSeparationDistance,0.1
;   raftTopInfill,100
;   aboveRaftSpeedMultiplier,0.3
;   useSkirt,0
;   skirtExtruder,0
;   skirtLayers,4
;   skirtOutlines,12
;   skirtOffset,0
;   usePrimePillar,0
;   primePillarExtruder,999
;   primePillarWidth,6
;   primePillarLocation,0
;   primePillarSpeedMultiplier,1
;   useOozeShield,0
;   oozeShieldExtruder,999
;   oozeShieldOffset,2
;   oozeShieldOutlines,1
;   oozeShieldSidewallShape,1
;   oozeShieldSidewallAngle,30
;   oozeShieldSpeedMultiplier,1
;   infillExtruder,0
;   internalInfillPattern,Full Honeycomb
;   externalInfillPattern,Rectilinear
;   infillPercentage,12
;   outlineOverlapPercentage,0
;   infillExtrusionWidthPercentage,80
;   minInfillLength,5
;   infillLayerInterval,1
;   internalInfillAngles,0,120,-120
;   overlapInternalInfillAngles,0
;   externalInfillAngles,45,-45
;   generateSupport,1
;   supportExtruder,0
;   supportInfillPercentage,30
;   supportExtraInflation,0.2
;   supportBaseLayers,1
;   denseSupportExtruder,0
;   denseSupportLayers,0
;   denseSupportInfillPercentage,70
;   supportLayerInterval,1
;   supportHorizontalPartOffset,0.4
;   supportUpperSeparationLayers,1
;   supportLowerSeparationLayers,1
;   supportType,0
;   supportGridSpacing,1
;   maxOverhangAngle,45
;   supportAngles,45
;   temperatureName,Primary Extruder,Heated Bed
;   temperatureNumber,0,0
;   temperatureSetpointCount,1,1
;   temperatureSetpointLayers,1,1
;   temperatureSetpointTemperatures,200,30
;   temperatureStabilizeAtStartup,1,1
;   temperatureHeatedBed,0,1
;   temperatureRelayBetweenLayers,0,0
;   temperatureRelayBetweenLoops,0,0
;   fanLayers,1,2,10
;   fanSpeeds,0,60,100
;   blipFanToFullPower,1
;   adjustSpeedForCooling,1
;   minSpeedLayerTime,15
;   minCoolingSpeedSlowdown,20
;   increaseFanForCooling,0
;   minFanLayerTime,45
;   maxCoolingFanSpeed,100
;   increaseFanForBridging,0
;   bridgingFanSpeed,100
;   use5D,1
;   relativeEdistances,0
;   allowEaxisZeroing,1
;   independentExtruderAxes,0
;   includeM10123,0
;   stickySupport,1
;   applyToolheadOffsets,0
;   gcodeXoffset,0
;   gcodeYoffset,0
;   gcodeZoffset,0.39
;   overrideMachineDefinition,1
;   machineTypeOverride,1
;   strokeXoverride,77.8
;   strokeYoverride,77.8
;   strokeZoverride,120
;   originOffsetXoverride,38.9
;   originOffsetYoverride,38.9
;   originOffsetZoverride,0
;   homeXdirOverride,0
;   homeYdirOverride,0
;   homeZdirOverride,-1
;   flipXoverride,1
;   flipYoverride,-1
;   flipZoverride,1
;   toolheadOffsets,0,0|0,0|0,0|0,0|0,0|0,0
;   overrideFirmwareConfiguration,1
;   firmwareTypeOverride,RepRap (Marlin/Repetier/Sprinter)
;   GPXconfigOverride,r2
;   baudRateOverride,115200
;   overridePrinterModels,1
;   printerModelsOverride,MP_Mini_Delta_Platform.stl
;   startingGcode,G90 ; absolute positioning - this line was added in case Cura doesn't include it by default,M82 ; set extruder to absolute mode - this line was added in case Cura doesn't include it by default (may not be needed),M107; start with the fan off (I don't think this is possible),G28 ; Start from home position,G29 C-0.8 Z0.3 ; probe the bed at 3 points with a 0.3mm overall vertical offset and an additional -0.8mm center offset ,G1 Z15.0 F4800  ; move the nozzle up 15mm,G92 E0 ; reset extrusion distance,G1 F200 E3 ; extrude 3mm of feed stock,G92 E0 ; reset extrusion distance again,G1 F4800
;   layerChangeGcode,
;   retractionGcode,
;   toolChangeGcode,
;   endingGcode,M104 S0 ; turn off hotend heater,M140 S0 ; turn off bed heater,G91 ; Switch to use Relative Coordinates,G1 E-3 F700 ; retract the filament a bit before lifting the nozzle to release some of the pressure,G1 Z2 F1000 ; raise platform 2mm from current position,G1 E-2 F700 ; retract filament even more,G90 ; Switch back to using absolute coordinates,G28 X ; Return to home position. Without an X Y or Z after G28 the print completion time will not be displayed on the Mini Delta's display.,M84 ; disable motors,G4 S360 ; pause for 360 seconds to keep fan running to cool hotend and allow the fan to be turned off,M107 ; turn off fan. Some say M107 doesn't work for them but if the hotend is cool enough it should work,;M106 S1 ; turn off fan. Remove the semicolon in front of M106 if M107 doesn't work for you
;   exportFileFormat,gcode
;   celebration,0
;   celebrationSong,Random Song
;   postProcessing,
;   defaultSpeed,3200
;   outlineUnderspeed,1
;   solidInfillUnderspeed,1
;   supportUnderspeed,1
;   rapidXYspeed,3200
;   rapidZspeed,1002
;   minBridgingArea,50
;   bridgingExtraInflation,0
;   bridgingExtrusionMultiplier,0.9
;   bridgingSpeedMultiplier,1
;   useFixedBridgingAngle,0
;   fixedBridgingAngle,0
;   applyBridgingToPerimeters,0
;   filamentDiameters,1.75|1.75|1.75|1.75|1.75|1.75
;   filamentPricesPerKg,48|25|25|25|25|25
;   filamentDensities,1.25|1.25|1.25|1.25|1.25|1.25
;   useMinPrintHeight,0
;   minPrintHeight,42
;   useMaxPrintHeight,0
;   maxPrintHeight,0
;   useDiaphragm,0
;   diaphragmLayerInterval,20
;   robustSlicing,1
;   mergeAllIntoSolid,0
;   onlyRetractWhenCrossingOutline,1
;   retractBetweenLayers,1
;   useRetractionMinTravel,0
;   retractionMinTravel,3
;   retractWhileWiping,1
;   onlyWipeOutlines,1
;   avoidCrossingOutline,0
;   maxMovementDetourFactor,5
;   toolChangeRetractionDistance,12
;   toolChangeExtraRestartDistance,-0.5
;   toolChangeRetractionSpeed,600
;   externalThinWallType,1
;   internalThinWallType,1
;   thinWallAllowedOverlapPercentage,100
;   singleExtrusionMinLength,0.4
;   singleExtrusionMinPrintingWidthPercentage,50
;   singleExtrusionMaxPrintingWidthPercentage,200
;   singleExtrusionEndpointExtension,0.2
;   horizontalSizeCompensation,0
G90
M82
M106 S255
G4 P500
M106 S0
M140 S30
M190 S30
M104 S200 T0
M109 S200 T0
G90 ; absolute positioning - this line was added in case Cura doesn't include it by default
M82 ; set extruder to absolute mode - this line was added in case Cura doesn't include it by default (may not be needed)
M107; start with the fan off (I don't think this is possible)
G28 ; Start from home position
G29 C-0.8 Z0.3 ; probe the bed at 3 points with a 0.3mm overall vertical offset and an additional -0.8mm center offset 
G1 Z15.0 F4800  ; move the nozzle up 15mm
G92 E0 ; reset extrusion distance
G1 F200 E3 ; extrude 3mm of feed stock
G92 E0 ; reset extrusion distance again
G1 F4800
G92 E0
G1 E-8.0000 F3000
G1 Z0.640 F1002
; process Process3
; layer 1, Z = 0.250
T0
; tool H0.250 W0.400
; inner perimeter
G1 X-5.306 Y0.998 F3200
G1 E0.0000 F900
G92 E0
G1 X-5.384 Y0.396 E0.0253 F1119
G1 X-5.399 Y0.006 E0.0415
G1 X-5.365 Y-0.607 E0.0670
G1 X-5.307 Y-0.992 E0.0832
G1 X-5.161 Y-1.582 E0.1084
G1 X-4.953 Y-2.147 E0.1335
G1 X-4.681 Y-2.690 E0.1587
G1 X-4.475 Y-3.021 E0.1749
G1 X-4.107 Y-3.505 E0.2002
G1 X-3.687 Y-3.944 E0.2255
G1 X-3.393 Y-4.200 E0.2417
G1 X-2.895 Y-4.557 E0.2671
G1 X-2.524 Y-4.773 E0.2850
G1 X-2.385 Y-4.844 E0.2915
G1 X-1.815 Y-5.085 E0.3172
G1 X-1.443 Y-5.203 E0.3335
G1 X-0.849 Y-5.332 E0.3587
G1 X-0.250 Y-5.393 E0.3837
G1 X0.357 Y-5.388 E0.4090
G1 X0.745 Y-5.348 E0.4252
G1 X1.347 Y-5.229 E0.4507
G1 X1.726 Y-5.116 E0.4672
G1 X2.096 Y-4.976 E0.4836
G1 X2.642 Y-4.709 E0.5089
G1 X3.154 Y-4.383 E0.5341
G1 X3.467 Y-4.140 E0.5506
G1 X3.761 Y-3.875 E0.5670
G1 X4.172 Y-3.428 E0.5923
G1 X4.528 Y-2.942 E0.6173
G1 X4.830 Y-2.415 E0.6426
G1 X4.992 Y-2.060 E0.6588
G1 X5.191 Y-1.486 E0.6840
G1 X5.324 Y-0.899 E0.7091
G1 X5.391 Y-0.301 E0.7341
G1 X5.391 Y0.307 E0.7594
G1 X5.354 Y0.701 E0.7758
G1 X5.289 Y1.091 E0.7923
G1 X5.132 Y1.678 E0.8175
G1 X4.914 Y2.239 E0.8425
G1 X4.634 Y2.772 E0.8676
G1 X4.293 Y3.275 E0.8928
G1 X4.042 Y3.581 E0.9093
G1 X3.769 Y3.867 E0.9257
G1 X3.306 Y4.269 E0.9512
G1 X2.989 Y4.497 E0.9674
G1 X2.460 Y4.807 E0.9929
G1 X2.107 Y4.972 E1.0092
G1 X1.535 Y5.177 E1.0344
G1 X0.949 Y5.315 E1.0594
G1 X0.346 Y5.388 E1.0847
G1 X-0.044 Y5.399 E1.1009
G1 X-0.650 Y5.360 E1.1262
G1 X-1.248 Y5.253 E1.1514
G1 X-1.624 Y5.149 E1.1676
G1 X-2.192 Y4.934 E1.1929
G1 X-2.733 Y4.656 E1.2182
G1 X-3.062 Y4.447 E1.2344
G1 X-3.542 Y4.074 E1.2596
G1 X-3.977 Y3.651 E1.2849
G1 X-4.231 Y3.354 E1.3011
G1 X-4.584 Y2.853 E1.3266
G1 X-4.778 Y2.514 E1.3428
G1 X-5.032 Y1.956 E1.3683
G1 X-5.160 Y1.588 E1.3845
G1 X-5.306 Y0.998 E1.4098
; outer perimeter
G1 X-5.699 Y1.072 F3200
G92 E0
G1 X-5.783 Y0.429 E0.0270 F1119
G1 X-5.799 Y0.002 E0.0447
G1 X-5.763 Y-0.647 E0.0718
G1 X-5.700 Y-1.070 E0.0895
G1 X-5.545 Y-1.700 E0.1165
G1 X-5.321 Y-2.306 E0.1434
G1 X-5.030 Y-2.886 E0.1703
G1 X-4.804 Y-3.249 E0.1881
G1 X-4.411 Y-3.765 E0.2151
G1 X-3.964 Y-4.234 E0.2420
G1 X-3.641 Y-4.514 E0.2598
G1 X-3.113 Y-4.893 E0.2868
G1 X-2.716 Y-5.124 E0.3059
G1 X-2.554 Y-5.207 E0.3135
G1 X-1.953 Y-5.461 E0.3406
G1 X-1.546 Y-5.590 E0.3584
G1 X-0.912 Y-5.727 E0.3853
G1 X-0.269 Y-5.793 E0.4122
G1 X0.379 Y-5.787 E0.4392
G1 X0.805 Y-5.744 E0.4569
G1 X1.443 Y-5.618 E0.4840
G1 X1.854 Y-5.496 E0.5018
G1 X2.256 Y-5.343 E0.5197
G1 X2.838 Y-5.058 E0.5466
G1 X3.385 Y-4.710 E0.5736
G1 X3.724 Y-4.447 E0.5914
G1 X4.043 Y-4.159 E0.6093
G1 X4.482 Y-3.682 E0.6362
G1 X4.864 Y-3.160 E0.6631
G1 X5.186 Y-2.598 E0.6901
G1 X5.363 Y-2.209 E0.7078
G1 X5.576 Y-1.596 E0.7348
G1 X5.719 Y-0.966 E0.7617
G1 X5.791 Y-0.323 E0.7886
G1 X5.791 Y0.325 E0.8155
G1 X5.751 Y0.753 E0.8334
G1 X5.680 Y1.176 E0.8512
G1 X5.513 Y1.802 E0.8782
G1 X5.278 Y2.405 E0.9050
G1 X4.978 Y2.977 E0.9319
G1 X4.614 Y3.514 E0.9589
G1 X4.342 Y3.846 E0.9767
G1 X4.045 Y4.157 E0.9946
G1 X3.555 Y4.583 E1.0216
G1 X3.207 Y4.833 E1.0394
G1 X2.646 Y5.161 E1.0664
G1 X2.259 Y5.342 E1.0842
G1 X1.649 Y5.561 E1.1111
G1 X1.019 Y5.709 E1.1380
G1 X0.376 Y5.788 E1.1650
G1 X-0.051 Y5.800 E1.1827
G1 X-0.699 Y5.757 E1.2097
G1 X-1.337 Y5.643 E1.2367
G1 X-1.749 Y5.530 E1.2544
G1 X-2.355 Y5.300 E1.2814
G1 X-2.932 Y5.004 E1.3083
G1 X-3.293 Y4.774 E1.3261
G1 X-3.805 Y4.377 E1.3531
G1 X-4.270 Y3.925 E1.3800
G1 X-4.547 Y3.599 E1.3978
G1 X-4.921 Y3.068 E1.4248
G1 X-5.134 Y2.697 E1.4426
G1 X-5.404 Y2.105 E1.4696
G1 X-5.544 Y1.701 E1.4874
G1 X-5.699 Y1.072 E1.5144
; solid layer
G1 X-2.422 Y4.366 F3200
G92 E0
G1 X-4.374 Y2.414 E0.1148 F1119
G1 X-4.422 Y2.331 E0.1188
G1 X-4.660 Y1.807 E0.1427
G1 X-4.776 Y1.474 E0.1574
G1 X-4.785 Y1.437 E0.1589
G1 X-1.437 Y4.786 E0.3558
G1 X-1.160 Y4.862 E0.3678
G1 X-0.715 Y4.942 E0.3865
G1 X-4.939 Y0.718 E0.6349
G1 X-4.985 Y0.362 E0.6498
G1 X-4.995 Y0.096 E0.6609
G1 X-0.096 Y4.995 E0.9489
G1 X-0.036 Y4.999 E0.9514
G1 X0.316 Y4.989 E0.9661
G1 X0.448 Y4.973 E0.9716
G1 X-4.973 Y-0.447 E1.2903
G1 X-4.966 Y-0.566 E1.2952
G1 X-4.914 Y-0.915 E1.3099
G1 X-4.906 Y-0.946 E1.3112
G1 X0.945 Y4.905 E1.6553
G1 X1.403 Y4.797 E1.6748
G1 X-4.794 Y-1.400 E2.0392
G1 X-4.778 Y-1.465 E2.0420
G1 X-4.648 Y-1.819 E2.0577
G1 X1.821 Y4.649 E2.4380
G1 X1.954 Y4.601 E2.4439
G1 X2.216 Y4.479 E2.4559
G1 X-4.474 Y-2.211 E2.8493
G1 X-4.332 Y-2.494 E2.8624
G1 X-4.278 Y-2.581 E2.8667
G1 X2.577 Y4.274 E3.2697
G1 X2.771 Y4.161 E3.2790
G1 X2.922 Y4.053 E3.2868
G1 X-4.050 Y-2.919 E3.6967
G1 X-3.805 Y-3.240 E3.7134
G1 X3.235 Y3.801 E4.1274
G1 X3.492 Y3.577 E4.1416
G1 X3.534 Y3.534 E4.1441
G1 X-3.530 Y-3.530 E4.5594
G1 X-3.411 Y-3.654 E4.5665
G1 X-3.238 Y-3.804 E4.5760
G1 X3.805 Y3.239 E4.9901
G1 X3.973 Y3.035 E5.0011
G1 X4.051 Y2.919 E5.0069
G1 X-2.917 Y-4.049 E5.4166
G1 X-2.678 Y-4.221 E5.4289
G1 X-2.580 Y-4.277 E5.4336
G1 X4.279 Y2.582 E5.8369
G1 X4.290 Y2.566 E5.8377
G1 X4.475 Y2.213 E5.8543
G1 X-2.218 Y-4.480 E6.2478
G1 X-2.215 Y-4.482 E6.2479
G1 X-1.820 Y-4.649 E6.2658
G1 X4.648 Y1.819 E6.6461
G1 X4.751 Y1.554 E6.6579
G1 X4.793 Y1.399 E6.6646
G1 X-1.402 Y-4.796 E7.0288
G1 X-1.340 Y-4.816 E7.0315
G1 X-0.942 Y-4.902 E7.0484
G1 X4.907 Y0.947 E7.3924
G1 X4.958 Y0.649 E7.4050
G1 X4.976 Y0.451 E7.4132
G1 X-0.446 Y-4.971 E7.7320
G1 X-0.232 Y-4.993 E7.7409
G1 X0.101 Y-4.990 E7.7548
G1 X4.991 Y-0.100 E8.0423
G1 X4.991 Y-0.279 E8.0497
G1 X4.942 Y-0.715 E8.0680
G1 X0.710 Y-4.947 E8.3168
G1 X1.251 Y-4.840 E8.3397
G1 X1.438 Y-4.785 E8.3478
G1 X4.784 Y-1.438 E8.5446
G1 X4.620 Y-1.911 E8.5654
G1 X4.473 Y-2.232 E8.5801
G1 X4.362 Y-2.426 E8.5893
G1 X2.412 Y-4.376 E8.7040
G92 E0
G1 E-8.0000 F3000
; layer 2, Z = 0.500
M106 S255
G4 P500
M106 S153
; inner perimeter
G1 X2.642 Y-4.709 F3200
G1 Z0.890 F1002
G1 E0.0000 F3000
G92 E0
G1 X3.154 Y-4.383 E0.0253 F1119
G1 X3.467 Y-4.140 E0.0417
G1 X3.761 Y-3.875 E0.0582
G1 X4.172 Y-3.428 E0.0834
G1 X4.528 Y-2.942 E0.1084
G1 X4.830 Y-2.415 E0.1337
G1 X4.992 Y-2.060 E0.1499
G1 X5.191 Y-1.486 E0.1752
G1 X5.324 Y-0.899 E0.2002
G1 X5.391 Y-0.301 E0.2252
G1 X5.391 Y0.307 E0.2505
G1 X5.354 Y0.701 E0.2669
G1 X5.289 Y1.091 E0.2834
G1 X5.132 Y1.678 E0.3086
G1 X4.914 Y2.239 E0.3337
G1 X4.634 Y2.772 E0.3587
G1 X4.293 Y3.275 E0.3840
G1 X4.042 Y3.581 E0.4004
G1 X3.769 Y3.867 E0.4169
G1 X3.306 Y4.269 E0.4424
G1 X2.989 Y4.497 E0.4586
G1 X2.460 Y4.807 E0.4841
G1 X2.107 Y4.972 E0.5003
G1 X1.535 Y5.177 E0.5255
G1 X0.949 Y5.315 E0.5506
G1 X0.346 Y5.388 E0.5758
G1 X-0.044 Y5.399 E0.5920
G1 X-0.650 Y5.360 E0.6173
G1 X-1.248 Y5.253 E0.6426
G1 X-1.624 Y5.149 E0.6588
G1 X-2.192 Y4.934 E0.6840
G1 X-2.733 Y4.656 E0.7093
G1 X-3.062 Y4.447 E0.7255
G1 X-3.542 Y4.074 E0.7508
G1 X-3.977 Y3.651 E0.7760
G1 X-4.231 Y3.354 E0.7923
G1 X-4.584 Y2.853 E0.8177
G1 X-4.778 Y2.514 E0.8340
G1 X-5.032 Y1.956 E0.8595
G1 X-5.160 Y1.588 E0.8757
G1 X-5.306 Y0.998 E0.9009
G1 X-5.384 Y0.396 E0.9262
G1 X-5.399 Y0.006 E0.9424
G1 X-5.365 Y-0.607 E0.9679
G1 X-5.307 Y-0.992 E0.9841
G1 X-5.160 Y-1.588 E1.0096
G1 X-5.032 Y-1.956 E1.0258
G1 X-4.778 Y-2.514 E1.0513
G1 X-4.584 Y-2.853 E1.0675
G1 X-4.231 Y-3.354 E1.0930
G1 X-3.977 Y-3.651 E1.1093
G1 X-3.542 Y-4.074 E1.1345
G1 X-3.067 Y-4.443 E1.1595
G1 X-2.543 Y-4.763 E1.1850
G1 X-2.385 Y-4.844 E1.1924
G1 X-1.815 Y-5.085 E1.2182
G1 X-1.443 Y-5.203 E1.2344
G1 X-0.849 Y-5.332 E1.2596
G1 X-0.250 Y-5.393 E1.2847
G1 X0.357 Y-5.388 E1.3099
G1 X0.745 Y-5.348 E1.3261
G1 X1.347 Y-5.229 E1.3516
G1 X1.726 Y-5.116 E1.3681
G1 X2.096 Y-4.976 E1.3845
G1 X2.642 Y-4.709 E1.4098
; outer perimeter
G1 X2.838 Y-5.058 F3200
G92 E0
G1 X3.385 Y-4.710 E0.0270 F1119
G1 X3.724 Y-4.447 E0.0448
G1 X4.043 Y-4.159 E0.0627
G1 X4.482 Y-3.682 E0.0896
G1 X4.864 Y-3.160 E0.1165
G1 X5.186 Y-2.598 E0.1434
G1 X5.363 Y-2.209 E0.1612
G1 X5.576 Y-1.596 E0.1882
G1 X5.719 Y-0.966 E0.2151
G1 X5.791 Y-0.323 E0.2419
G1 X5.791 Y0.325 E0.2689
G1 X5.751 Y0.753 E0.2867
G1 X5.680 Y1.176 E0.3046
G1 X5.513 Y1.802 E0.3315
G1 X5.278 Y2.405 E0.3584
G1 X4.978 Y2.977 E0.3853
G1 X4.614 Y3.514 E0.4123
G1 X4.342 Y3.846 E0.4301
G1 X4.045 Y4.157 E0.4480
G1 X3.555 Y4.583 E0.4750
G1 X3.207 Y4.833 E0.4928
G1 X2.646 Y5.161 E0.5198
G1 X2.259 Y5.342 E0.5376
G1 X1.649 Y5.561 E0.5645
G1 X1.019 Y5.709 E0.5914
G1 X0.376 Y5.788 E0.6184
G1 X-0.051 Y5.800 E0.6361
G1 X-0.699 Y5.757 E0.6631
G1 X-1.337 Y5.643 E0.6901
G1 X-1.749 Y5.530 E0.7078
G1 X-2.355 Y5.300 E0.7348
G1 X-2.932 Y5.004 E0.7617
G1 X-3.293 Y4.774 E0.7795
G1 X-3.805 Y4.377 E0.8065
G1 X-4.270 Y3.925 E0.8334
G1 X-4.547 Y3.599 E0.8512
