; G-Code generated by Simplify3D(R) Version 4.0.0
; Oct 25, 2018 at 1:02:20 PM
; Settings Summary
;   processName,Process2
;   applyToModels,CPbottom
;   profileName,MP Mini Delta23 (modified)
;   profileVersion,2017-10-15 16:31:22
;   baseProfile,Monoprice MP Mini Delta
;   printMaterial,eSun PLA+ - Solid Red
;   printQuality,0.08
;   printExtruders,
;   extruderName,Primary Extruder
;   extruderToolheadNumber,0
;   extruderDiameter,0.4
;   extruderAutoWidth,0
;   extruderWidth,0.4
;   extrusionMultiplier,1
;   extruderUseRetract,1
;   extruderRetractionDistance,8
;   extruderExtraRestartDistance,0
;   extruderRetractionZLift,0
;   extruderRetractionSpeed,3000
;   extruderUseCoasting,0
;   extruderCoastingDistance,0.2
;   extruderUseWipe,0
;   extruderWipeDistance,5
;   primaryExtruder,0
;   layerHeight,0.1
;   topSolidLayers,7
;   bottomSolidLayers,7
;   perimeterOutlines,2
;   printPerimetersInsideOut,1
;   startPointOption,2
;   startPointOriginX,0
;   startPointOriginY,0
;   sequentialIslands,0
;   spiralVaseMode,0
;   firstLayerHeightPercentage,100
;   firstLayerWidthPercentage,100
;   firstLayerUnderspeed,0.4
;   useRaft,0
;   raftExtruder,0
;   raftTopLayers,3
;   raftBaseLayers,1
;   raftOffset,2
;   raftSeparationDistance,0.1
;   raftTopInfill,100
;   aboveRaftSpeedMultiplier,0.3
;   useSkirt,0
;   skirtExtruder,0
;   skirtLayers,4
;   skirtOutlines,12
;   skirtOffset,0
;   usePrimePillar,0
;   primePillarExtruder,999
;   primePillarWidth,6
;   primePillarLocation,0
;   primePillarSpeedMultiplier,1
;   useOozeShield,0
;   oozeShieldExtruder,999
;   oozeShieldOffset,2
;   oozeShieldOutlines,1
;   oozeShieldSidewallShape,1
;   oozeShieldSidewallAngle,30
;   oozeShieldSpeedMultiplier,1
;   infillExtruder,0
;   internalInfillPattern,Full Honeycomb
;   externalInfillPattern,Rectilinear
;   infillPercentage,12
;   outlineOverlapPercentage,0
;   infillExtrusionWidthPercentage,80
;   minInfillLength,5
;   infillLayerInterval,1
;   internalInfillAngles,0,120,-120
;   overlapInternalInfillAngles,0
;   externalInfillAngles,45,-45
;   generateSupport,1
;   supportExtruder,0
;   supportInfillPercentage,30
;   supportExtraInflation,0.2
;   supportBaseLayers,0
;   denseSupportExtruder,0
;   denseSupportLayers,0
;   denseSupportInfillPercentage,70
;   supportLayerInterval,2
;   supportHorizontalPartOffset,0.4
;   supportUpperSeparationLayers,1
;   supportLowerSeparationLayers,1
;   supportType,0
;   supportGridSpacing,1
;   maxOverhangAngle,45
;   supportAngles,45
;   temperatureName,Primary Extruder,Heated Bed
;   temperatureNumber,0,0
;   temperatureSetpointCount,1,1
;   temperatureSetpointLayers,1,1
;   temperatureSetpointTemperatures,200,30
;   temperatureStabilizeAtStartup,1,1
;   temperatureHeatedBed,0,1
;   temperatureRelayBetweenLayers,0,0
;   temperatureRelayBetweenLoops,0,0
;   fanLayers,1,2,10
;   fanSpeeds,0,60,100
;   blipFanToFullPower,1
;   adjustSpeedForCooling,1
;   minSpeedLayerTime,15
;   minCoolingSpeedSlowdown,20
;   increaseFanForCooling,0
;   minFanLayerTime,45
;   maxCoolingFanSpeed,100
;   increaseFanForBridging,0
;   bridgingFanSpeed,100
;   use5D,1
;   relativeEdistances,0
;   allowEaxisZeroing,1
;   independentExtruderAxes,0
;   includeM10123,0
;   stickySupport,1
;   applyToolheadOffsets,0
;   gcodeXoffset,0
;   gcodeYoffset,0
;   gcodeZoffset,0.39
;   overrideMachineDefinition,1
;   machineTypeOverride,1
;   strokeXoverride,77.8
;   strokeYoverride,77.8
;   strokeZoverride,120
;   originOffsetXoverride,38.9
;   originOffsetYoverride,38.9
;   originOffsetZoverride,0
;   homeXdirOverride,0
;   homeYdirOverride,0
;   homeZdirOverride,-1
;   flipXoverride,1
;   flipYoverride,-1
;   flipZoverride,1
;   toolheadOffsets,0,0|0,0|0,0|0,0|0,0|0,0
;   overrideFirmwareConfiguration,1
;   firmwareTypeOverride,RepRap (Marlin/Repetier/Sprinter)
;   GPXconfigOverride,r2
;   baudRateOverride,115200
;   overridePrinterModels,1
;   printerModelsOverride,MP_Mini_Delta_Platform.stl
;   startingGcode,G90 ; absolute positioning - this line was added in case Cura doesn't include it by default,M82 ; set extruder to absolute mode - this line was added in case Cura doesn't include it by default (may not be needed),M107; start with the fan off (I don't think this is possible),G28 ; Start from home position,G29 C-0.8 Z0.3 ; probe the bed at 3 points with a 0.3mm overall vertical offset and an additional -0.8mm center offset ,G1 Z15.0 F4800  ; move the nozzle up 15mm,G92 E0 ; reset extrusion distance,G1 F200 E3 ; extrude 3mm of feed stock,G92 E0 ; reset extrusion distance again,G1 F4800
;   layerChangeGcode,
;   retractionGcode,
;   toolChangeGcode,
;   endingGcode,M104 S0 ; turn off hotend heater,M140 S0 ; turn off bed heater,G91 ; Switch to use Relative Coordinates,G1 E-3 F700 ; retract the filament a bit before lifting the nozzle to release some of the pressure,G1 Z2 F1000 ; raise platform 2mm from current position,G1 E-2 F700 ; retract filament even more,G90 ; Switch back to using absolute coordinates,G28 X ; Return to home position. Without an X Y or Z after G28 the print completion time will not be displayed on the Mini Delta's display.,M84 ; disable motors,G4 S360 ; pause for 360 seconds to keep fan running to cool hotend and allow the fan to be turned off,M107 ; turn off fan. Some say M107 doesn't work for them but if the hotend is cool enough it should work,;M106 S1 ; turn off fan. Remove the semicolon in front of M106 if M107 doesn't work for you
;   exportFileFormat,gcode
;   celebration,0
;   celebrationSong,Random Song
;   postProcessing,
;   defaultSpeed,3200
;   outlineUnderspeed,1
;   solidInfillUnderspeed,1
;   supportUnderspeed,1
;   rapidXYspeed,3200
;   rapidZspeed,1002
;   minBridgingArea,50
;   bridgingExtraInflation,0
;   bridgingExtrusionMultiplier,0.9
;   bridgingSpeedMultiplier,1
;   useFixedBridgingAngle,0
;   fixedBridgingAngle,0
;   applyBridgingToPerimeters,0
;   filamentDiameters,1.75|1.75|1.75|1.75|1.75|1.75
;   filamentPricesPerKg,48|25|25|25|25|25
;   filamentDensities,1.25|1.25|1.25|1.25|1.25|1.25
;   useMinPrintHeight,0
;   minPrintHeight,42
;   useMaxPrintHeight,0
;   maxPrintHeight,0
;   useDiaphragm,0
;   diaphragmLayerInterval,20
;   robustSlicing,1
;   mergeAllIntoSolid,0
;   onlyRetractWhenCrossingOutline,1
;   retractBetweenLayers,1
;   useRetractionMinTravel,0
;   retractionMinTravel,3
;   retractWhileWiping,1
;   onlyWipeOutlines,1
;   avoidCrossingOutline,0
;   maxMovementDetourFactor,5
;   toolChangeRetractionDistance,12
;   toolChangeExtraRestartDistance,-0.5
;   toolChangeRetractionSpeed,600
;   externalThinWallType,1
;   internalThinWallType,1
;   thinWallAllowedOverlapPercentage,100
;   singleExtrusionMinLength,0.4
;   singleExtrusionMinPrintingWidthPercentage,50
;   singleExtrusionMaxPrintingWidthPercentage,200
;   singleExtrusionEndpointExtension,0.2
;   horizontalSizeCompensation,0
G90
M82
M106 S255
G4 P500
M106 S0
M140 S30
M190 S30
M104 S200 T0
M109 S200 T0
G90 ; absolute positioning - this line was added in case Cura doesn't include it by default
M82 ; set extruder to absolute mode - this line was added in case Cura doesn't include it by default (may not be needed)
M107; start with the fan off (I don't think this is possible)
G28 ; Start from home position
G29 C-0.8 Z0.3 ; probe the bed at 3 points with a 0.3mm overall vertical offset and an additional -0.8mm center offset 
G1 Z15.0 F4800  ; move the nozzle up 15mm
G92 E0 ; reset extrusion distance
G1 F200 E3 ; extrude 3mm of feed stock
G92 E0 ; reset extrusion distance again
G1 F4800
G92 E0
G1 E-8.0000 F3000
G1 Z0.490 F1002
; process Process2
; layer 1, Z = 0.100
T0
; tool H0.100 W0.400
; inner perimeter
G1 X-5.306 Y0.998 F3200
G1 E0.0000 F900
G92 E0
G1 X-5.384 Y0.396 E0.0101 F1119
G1 X-5.399 Y0.006 E0.0166
G1 X-5.365 Y-0.607 E0.0268
G1 X-5.307 Y-0.992 E0.0333
G1 X-5.161 Y-1.582 E0.0434
G1 X-4.953 Y-2.147 E0.0534
G1 X-4.681 Y-2.690 E0.0635
G1 X-4.475 Y-3.021 E0.0700
G1 X-4.107 Y-3.505 E0.0801
G1 X-3.687 Y-3.944 E0.0902
G1 X-3.393 Y-4.200 E0.0967
G1 X-2.895 Y-4.557 E0.1069
G1 X-2.539 Y-4.765 E0.1137
G1 X-2.380 Y-4.847 E0.1167
G1 X-2.013 Y-5.010 E0.1234
G1 X-1.437 Y-5.204 E0.1335
G1 X-0.844 Y-5.333 E0.1436
G1 X-0.456 Y-5.380 E0.1501
G1 X0.151 Y-5.397 E0.1602
G1 X0.751 Y-5.347 E0.1702
G1 X1.347 Y-5.229 E0.1803
G1 X1.726 Y-5.116 E0.1869
G1 X2.096 Y-4.976 E0.1934
G1 X2.642 Y-4.709 E0.2035
G1 X3.154 Y-4.383 E0.2136
G1 X3.463 Y-4.143 E0.2201
G1 X3.910 Y-3.724 E0.2303
G1 X4.169 Y-3.432 E0.2368
G1 X4.528 Y-2.942 E0.2469
G1 X4.830 Y-2.415 E0.2570
G1 X4.992 Y-2.060 E0.2635
G1 X5.191 Y-1.486 E0.2736
G1 X5.324 Y-0.899 E0.2836
G1 X5.391 Y-0.301 E0.2936
G1 X5.391 Y0.307 E0.3037
G1 X5.354 Y0.701 E0.3103
G1 X5.289 Y1.091 E0.3169
G1 X5.132 Y1.678 E0.3270
G1 X4.914 Y2.239 E0.3370
G1 X4.634 Y2.772 E0.3470
G1 X4.293 Y3.275 E0.3571
G1 X4.042 Y3.581 E0.3637
G1 X3.769 Y3.867 E0.3703
G1 X3.306 Y4.269 E0.3805
G1 X2.989 Y4.497 E0.3870
G1 X2.460 Y4.807 E0.3972
G1 X2.107 Y4.972 E0.4037
G1 X1.535 Y5.177 E0.4138
G1 X0.949 Y5.315 E0.4238
G1 X0.346 Y5.388 E0.4339
G1 X-0.044 Y5.399 E0.4404
G1 X-0.650 Y5.360 E0.4505
G1 X-1.248 Y5.253 E0.4606
G1 X-1.624 Y5.149 E0.4671
G1 X-2.192 Y4.934 E0.4772
G1 X-2.733 Y4.656 E0.4873
G1 X-3.062 Y4.447 E0.4938
G1 X-3.542 Y4.074 E0.5039
G1 X-3.977 Y3.651 E0.5140
G1 X-4.231 Y3.354 E0.5204
G1 X-4.584 Y2.853 E0.5306
G1 X-4.781 Y2.509 E0.5372
G1 X-4.951 Y2.152 E0.5438
G1 X-5.161 Y1.582 E0.5539
G1 X-5.306 Y0.998 E0.5639
; outer perimeter
G1 X-5.699 Y1.072 F3200
G92 E0
G1 X-5.783 Y0.429 E0.0108 F1119
G1 X-5.799 Y0.002 E0.0179
G1 X-5.763 Y-0.647 E0.0287
G1 X-5.700 Y-1.070 E0.0358
G1 X-5.545 Y-1.700 E0.0466
G1 X-5.321 Y-2.306 E0.0573
G1 X-5.030 Y-2.886 E0.0681
G1 X-4.804 Y-3.249 E0.0752
G1 X-4.411 Y-3.765 E0.0860
G1 X-3.964 Y-4.234 E0.0968
G1 X-3.641 Y-4.514 E0.1039
G1 X-3.113 Y-4.893 E0.1147
G1 X-2.731 Y-5.116 E0.1221
G1 X-2.552 Y-5.208 E0.1254
G1 X-2.158 Y-5.383 E0.1326
G1 X-1.544 Y-5.590 E0.1434
G1 X-0.910 Y-5.728 E0.1542
G1 X-0.486 Y-5.779 E0.1613
G1 X0.162 Y-5.797 E0.1720
G1 X0.806 Y-5.743 E0.1828
G1 X1.443 Y-5.618 E0.1936
G1 X1.854 Y-5.496 E0.2007
G1 X2.256 Y-5.343 E0.2079
G1 X2.838 Y-5.058 E0.2186
G1 X3.385 Y-4.710 E0.2294
G1 X3.723 Y-4.448 E0.2365
G1 X4.197 Y-4.003 E0.2474
G1 X4.480 Y-3.683 E0.2545
G1 X4.864 Y-3.160 E0.2652
G1 X5.186 Y-2.598 E0.2760
G1 X5.363 Y-2.209 E0.2831
G1 X5.576 Y-1.596 E0.2939
G1 X5.719 Y-0.966 E0.3047
G1 X5.791 Y-0.323 E0.3154
G1 X5.791 Y0.325 E0.3262
G1 X5.751 Y0.753 E0.3333
G1 X5.680 Y1.176 E0.3405
G1 X5.513 Y1.802 E0.3513
G1 X5.278 Y2.405 E0.3620
G1 X4.978 Y2.977 E0.3728
G1 X4.614 Y3.514 E0.3836
G1 X4.342 Y3.846 E0.3907
G1 X4.045 Y4.157 E0.3978
G1 X3.555 Y4.583 E0.4086
G1 X3.207 Y4.833 E0.4158
G1 X2.646 Y5.161 E0.4266
G1 X2.259 Y5.342 E0.4337
G1 X1.649 Y5.561 E0.4445
G1 X1.019 Y5.709 E0.4552
G1 X0.376 Y5.788 E0.4660
G1 X-0.051 Y5.800 E0.4731
G1 X-0.699 Y5.757 E0.4839
G1 X-1.337 Y5.643 E0.4947
G1 X-1.749 Y5.530 E0.5018
G1 X-2.355 Y5.300 E0.5126
G1 X-2.932 Y5.004 E0.5233
G1 X-3.293 Y4.774 E0.5304
G1 X-3.805 Y4.377 E0.5412
G1 X-4.270 Y3.925 E0.5520
G1 X-4.547 Y3.599 E0.5591
G1 X-4.921 Y3.068 E0.5699
G1 X-5.135 Y2.695 E0.5771
G1 X-5.320 Y2.308 E0.5842
G1 X-5.545 Y1.700 E0.5950
G1 X-5.699 Y1.072 E0.6058
; solid layer
G1 X-2.422 Y4.366 F3200
G92 E0
G1 X-4.374 Y2.414 E0.0459 F1119
G1 X-4.426 Y2.323 E0.0477
G1 X-4.583 Y1.996 E0.0537
G1 X-4.778 Y1.465 E0.0631
G1 X-4.785 Y1.437 E0.0636
G1 X-1.437 Y4.786 E0.1423
G1 X-1.160 Y4.862 E0.1471
G1 X-0.715 Y4.942 E0.1546
G1 X-4.939 Y0.718 E0.2540
G1 X-4.985 Y0.362 E0.2599
G1 X-4.995 Y0.096 E0.2644
G1 X-0.096 Y4.995 E0.3796
G1 X-0.036 Y4.999 E0.3806
G1 X0.316 Y4.989 E0.3864
G1 X0.448 Y4.973 E0.3886
G1 X-4.973 Y-0.447 E0.5161
G1 X-4.966 Y-0.566 E0.5181
G1 X-4.914 Y-0.915 E0.5240
G1 X-4.906 Y-0.946 E0.5245
G1 X0.945 Y4.905 E0.6621
G1 X1.403 Y4.797 E0.6699
G1 X-4.794 Y-1.400 E0.8157
G1 X-4.778 Y-1.465 E0.8168
G1 X-4.648 Y-1.819 E0.8231
G1 X1.821 Y4.649 E0.9752
G1 X1.954 Y4.601 E0.9776
G1 X2.216 Y4.479 E0.9824
G1 X-4.474 Y-2.211 E1.1397
G1 X-4.332 Y-2.494 E1.1450
G1 X-4.278 Y-2.581 E1.1467
G1 X2.577 Y4.274 E1.3079
G1 X2.771 Y4.161 E1.3116
G1 X2.922 Y4.053 E1.3147
G1 X-4.050 Y-2.919 E1.4787
G1 X-3.805 Y-3.240 E1.4854
G1 X3.235 Y3.801 E1.6510
G1 X3.492 Y3.577 E1.6566
G1 X3.534 Y3.534 E1.6576
G1 X-3.530 Y-3.530 E1.8237
G1 X-3.411 Y-3.654 E1.8266
G1 X-3.238 Y-3.804 E1.8304
G1 X3.805 Y3.239 E1.9961
G1 X3.973 Y3.035 E2.0004
G1 X4.051 Y2.919 E2.0028
G1 X-2.917 Y-4.049 E2.1667
G1 X-2.677 Y-4.221 E2.1716
G1 X-2.581 Y-4.278 E2.1734
G1 X4.279 Y2.582 E2.3348
G1 X4.290 Y2.566 E2.3351
G1 X4.475 Y2.213 E2.3417
G1 X-2.218 Y-4.480 E2.4991
G1 X-2.207 Y-4.486 E2.4993
G1 X-1.867 Y-4.637 E2.5055
G1 X-1.823 Y-4.652 E2.5063
G1 X4.648 Y1.819 E2.6585
G1 X4.751 Y1.554 E2.6632
G1 X4.793 Y1.399 E2.6659
G1 X-1.400 Y-4.794 E2.8115
G1 X-1.331 Y-4.818 E2.8128
G1 X-0.942 Y-4.902 E2.8194
G1 X4.907 Y0.947 E2.9569
G1 X4.958 Y0.649 E2.9620
G1 X4.976 Y0.451 E2.9653
G1 X-0.452 Y-4.978 E3.0929
G1 X-0.426 Y-4.981 E3.0934
G1 X0.096 Y-4.995 E3.1021
G1 X4.991 Y-0.100 E3.2172
G1 X4.991 Y-0.279 E3.2202
G1 X4.942 Y-0.715 E3.2275
G1 X0.710 Y-4.947 E3.3270
G1 X1.251 Y-4.840 E3.3362
G1 X1.438 Y-4.785 E3.3394
G1 X4.784 Y-1.438 E3.4181
G1 X4.620 Y-1.911 E3.4264
G1 X4.473 Y-2.232 E3.4323
G1 X4.362 Y-2.426 E3.4360
G1 X2.412 Y-4.376 E3.4819
G92 E0
G1 E-8.0000 F3000
; layer 2, Z = 0.200
M106 S255
G4 P500
M106 S153
; inner perimeter
G1 X2.642 Y-4.709 F3200
G1 Z0.590 F1002
G1 E0.0000 F3000
G92 E0
G1 X3.154 Y-4.383 E0.0101 F1119
G1 X3.463 Y-4.143 E0.0166
G1 X3.910 Y-3.724 E0.0268
G1 X4.169 Y-3.432 E0.0333
G1 X4.528 Y-2.942 E0.0434
G1 X4.830 Y-2.415 E0.0535
G1 X4.992 Y-2.060 E0.0600
G1 X5.191 Y-1.486 E0.0701
G1 X5.324 Y-0.899 E0.0801
G1 X5.391 Y-0.301 E0.0901
G1 X5.391 Y0.307 E0.1002
G1 X5.354 Y0.701 E0.1068
G1 X5.289 Y1.091 E0.1134
G1 X5.132 Y1.678 E0.1235
G1 X4.914 Y2.239 E0.1335
G1 X4.634 Y2.772 E0.1435
G1 X4.293 Y3.275 E0.1536
G1 X4.042 Y3.581 E0.1602
G1 X3.769 Y3.867 E0.1667
G1 X3.306 Y4.269 E0.1769
G1 X2.989 Y4.497 E0.1834
G1 X2.460 Y4.807 E0.1936
G1 X2.107 Y4.972 E0.2001
G1 X1.535 Y5.177 E0.2102
G1 X0.949 Y5.315 E0.2202
G1 X0.346 Y5.388 E0.2303
G1 X-0.044 Y5.399 E0.2368
G1 X-0.650 Y5.360 E0.2469
G1 X-1.248 Y5.253 E0.2570
G1 X-1.624 Y5.149 E0.2635
G1 X-2.192 Y4.934 E0.2736
G1 X-2.733 Y4.656 E0.2837
G1 X-3.062 Y4.447 E0.2902
G1 X-3.542 Y4.074 E0.3003
G1 X-3.977 Y3.651 E0.3104
G1 X-4.231 Y3.354 E0.3169
G1 X-4.584 Y2.853 E0.3271
G1 X-4.781 Y2.509 E0.3337
G1 X-4.951 Y2.152 E0.3403
G1 X-5.161 Y1.582 E0.3504
G1 X-5.306 Y0.998 E0.3604
G1 X-5.384 Y0.396 E0.3705
G1 X-5.399 Y0.006 E0.3770
G1 X-5.365 Y-0.607 E0.3872
G1 X-5.307 Y-0.992 E0.3936
G1 X-5.161 Y-1.582 E0.4038
G1 X-4.951 Y-2.152 E0.4139
G1 X-4.781 Y-2.509 E0.4204
G1 X-4.584 Y-2.853 E0.4270
G1 X-4.231 Y-3.354 E0.4372
G1 X-3.977 Y-3.651 E0.4437
G1 X-3.542 Y-4.074 E0.4538
G1 X-3.067 Y-4.443 E0.4638
G1 X-2.543 Y-4.763 E0.4740
G1 X-2.380 Y-4.847 E0.4771
G1 X-2.013 Y-5.010 E0.4837
G1 X-1.437 Y-5.204 E0.4938
G1 X-0.844 Y-5.333 E0.5040
G1 X-0.456 Y-5.380 E0.5104
G1 X0.151 Y-5.397 E0.5205
G1 X0.751 Y-5.347 E0.5305
G1 X1.347 Y-5.229 E0.5407
G1 X1.726 Y-5.116 E0.5472
G1 X2.096 Y-4.976 E0.5538
G1 X2.642 Y-4.709 E0.5639
; outer perimeter
G1 X2.838 Y-5.058 F3200
G92 E0
G1 X3.385 Y-4.710 E0.0108 F1119
G1 X3.723 Y-4.448 E0.0179
G1 X4.197 Y-4.003 E0.0287
G1 X4.480 Y-3.683 E0.0358
G1 X4.864 Y-3.160 E0.0466
G1 X5.186 Y-2.598 E0.0574
G1 X5.363 Y-2.209 E0.0645
G1 X5.576 Y-1.596 E0.0753
G1 X5.719 Y-0.966 E0.0860
G1 X5.791 Y-0.323 E0.0968
G1 X5.791 Y0.325 E0.1076
G1 X5.751 Y0.753 E0.1147
G1 X5.680 Y1.176 E0.1218
G1 X5.513 Y1.802 E0.1326
G1 X5.278 Y2.405 E0.1434
G1 X4.978 Y2.977 E0.1541
G1 X4.614 Y3.514 E0.1649
G1 X4.342 Y3.846 E0.1720
G1 X4.045 Y4.157 E0.1792
G1 X3.555 Y4.583 E0.1900
G1 X3.207 Y4.833 E0.1971
G1 X2.646 Y5.161 E0.2079
G1 X2.259 Y5.342 E0.2150
G1 X1.649 Y5.561 E0.2258
G1 X1.019 Y5.709 E0.2366
G1 X0.376 Y5.788 E0.2473
G1 X-0.051 Y5.800 E0.2545
G1 X-0.699 Y5.757 E0.2652
G1 X-1.337 Y5.643 E0.2760
G1 X-1.749 Y5.530 E0.2831
G1 X-2.355 Y5.300 E0.2939
G1 X-2.932 Y5.004 E0.3047
G1 X-3.293 Y4.774 E0.3118
G1 X-3.805 Y4.377 E0.3226
G1 X-4.270 Y3.925 E0.3334
