; G-Code generated by Simplify3D(R) Version 4.0.0
; Oct 26, 2018 at 8:13:23 PM
; Settings Summary
;   processName,Process3
;   applyToModels,CPmiddle_changed
;   profileName,MP Mini Delta23 (modified)
;   profileVersion,2017-10-15 16:31:22
;   baseProfile,Monoprice MP Mini Delta
;   printMaterial,eSun PLA+ - Solid Red
;   printQuality,0.08
;   printExtruders,
;   extruderName,Primary Extruder
;   extruderToolheadNumber,0
;   extruderDiameter,0.4
;   extruderAutoWidth,0
;   extruderWidth,0.4
;   extrusionMultiplier,1
;   extruderUseRetract,1
;   extruderRetractionDistance,8
;   extruderExtraRestartDistance,0
;   extruderRetractionZLift,0
;   extruderRetractionSpeed,3000
;   extruderUseCoasting,0
;   extruderCoastingDistance,0.2
;   extruderUseWipe,0
;   extruderWipeDistance,5
;   primaryExtruder,0
;   layerHeight,0.25
;   topSolidLayers,5
;   bottomSolidLayers,5
;   perimeterOutlines,2
;   printPerimetersInsideOut,1
;   startPointOption,2
;   startPointOriginX,0
;   startPointOriginY,0
;   sequentialIslands,0
;   spiralVaseMode,0
;   firstLayerHeightPercentage,100
;   firstLayerWidthPercentage,100
;   firstLayerUnderspeed,0.4
;   useRaft,0
;   raftExtruder,0
;   raftTopLayers,3
;   raftBaseLayers,1
;   raftOffset,2
;   raftSeparationDistance,0.1
;   raftTopInfill,100
;   aboveRaftSpeedMultiplier,0.3
;   useSkirt,0
;   skirtExtruder,0
;   skirtLayers,4
;   skirtOutlines,12
;   skirtOffset,0
;   usePrimePillar,0
;   primePillarExtruder,999
;   primePillarWidth,6
;   primePillarLocation,0
;   primePillarSpeedMultiplier,1
;   useOozeShield,0
;   oozeShieldExtruder,999
;   oozeShieldOffset,2
;   oozeShieldOutlines,1
;   oozeShieldSidewallShape,1
;   oozeShieldSidewallAngle,30
;   oozeShieldSpeedMultiplier,1
;   infillExtruder,0
;   internalInfillPattern,Full Honeycomb
;   externalInfillPattern,Rectilinear
;   infillPercentage,12
;   outlineOverlapPercentage,0
;   infillExtrusionWidthPercentage,80
;   minInfillLength,5
;   infillLayerInterval,1
;   internalInfillAngles,0,120,-120
;   overlapInternalInfillAngles,0
;   externalInfillAngles,45,-45
;   generateSupport,1
;   supportExtruder,0
;   supportInfillPercentage,30
;   supportExtraInflation,0.2
;   supportBaseLayers,1
;   denseSupportExtruder,0
;   denseSupportLayers,0
;   denseSupportInfillPercentage,70
;   supportLayerInterval,1
;   supportHorizontalPartOffset,0.4
;   supportUpperSeparationLayers,1
;   supportLowerSeparationLayers,1
;   supportType,0
;   supportGridSpacing,1
;   maxOverhangAngle,45
;   supportAngles,45
;   temperatureName,Primary Extruder,Heated Bed
;   temperatureNumber,0,0
;   temperatureSetpointCount,1,1
;   temperatureSetpointLayers,1,1
;   temperatureSetpointTemperatures,200,30
;   temperatureStabilizeAtStartup,1,1
;   temperatureHeatedBed,0,1
;   temperatureRelayBetweenLayers,0,0
;   temperatureRelayBetweenLoops,0,0
;   fanLayers,1,2,10
;   fanSpeeds,0,60,100
;   blipFanToFullPower,1
;   adjustSpeedForCooling,1
;   minSpeedLayerTime,15
;   minCoolingSpeedSlowdown,20
;   increaseFanForCooling,0
;   minFanLayerTime,45
;   maxCoolingFanSpeed,100
;   increaseFanForBridging,0
;   bridgingFanSpeed,100
;   use5D,1
;   relativeEdistances,0
;   allowEaxisZeroing,1
;   independentExtruderAxes,0
;   includeM10123,0
;   stickySupport,1
;   applyToolheadOffsets,0
;   gcodeXoffset,0
;   gcodeYoffset,0
;   gcodeZoffset,0.39
;   overrideMachineDefinition,1
;   machineTypeOverride,1
;   strokeXoverride,77.8
;   strokeYoverride,77.8
;   strokeZoverride,120
;   originOffsetXoverride,38.9
;   originOffsetYoverride,38.9
;   originOffsetZoverride,0
;   homeXdirOverride,0
;   homeYdirOverride,0
;   homeZdirOverride,-1
;   flipXoverride,1
;   flipYoverride,-1
;   flipZoverride,1
;   toolheadOffsets,0,0|0,0|0,0|0,0|0,0|0,0
;   overrideFirmwareConfiguration,1
;   firmwareTypeOverride,RepRap (Marlin/Repetier/Sprinter)
;   GPXconfigOverride,r2
;   baudRateOverride,115200
;   overridePrinterModels,1
;   printerModelsOverride,MP_Mini_Delta_Platform.stl
;   startingGcode,G90 ; absolute positioning - this line was added in case Cura doesn't include it by default,M82 ; set extruder to absolute mode - this line was added in case Cura doesn't include it by default (may not be needed),M107; start with the fan off (I don't think this is possible),G28 ; Start from home position,G29 C-0.8 Z0.3 ; probe the bed at 3 points with a 0.3mm overall vertical offset and an additional -0.8mm center offset ,G1 Z15.0 F4800  ; move the nozzle up 15mm,G92 E0 ; reset extrusion distance,G1 F200 E3 ; extrude 3mm of feed stock,G92 E0 ; reset extrusion distance again,G1 F4800
;   layerChangeGcode,
;   retractionGcode,
;   toolChangeGcode,
;   endingGcode,M104 S0 ; turn off hotend heater,M140 S0 ; turn off bed heater,G91 ; Switch to use Relative Coordinates,G1 E-3 F700 ; retract the filament a bit before lifting the nozzle to release some of the pressure,G1 Z2 F1000 ; raise platform 2mm from current position,G1 E-2 F700 ; retract filament even more,G90 ; Switch back to using absolute coordinates,G28 X ; Return to home position. Without an X Y or Z after G28 the print completion time will not be displayed on the Mini Delta's display.,M84 ; disable motors,G4 S360 ; pause for 360 seconds to keep fan running to cool hotend and allow the fan to be turned off,M107 ; turn off fan. Some say M107 doesn't work for them but if the hotend is cool enough it should work,;M106 S1 ; turn off fan. Remove the semicolon in front of M106 if M107 doesn't work for you
;   exportFileFormat,gcode
;   celebration,0
;   celebrationSong,Random Song
;   postProcessing,
;   defaultSpeed,3200
;   outlineUnderspeed,1
;   solidInfillUnderspeed,1
;   supportUnderspeed,1
;   rapidXYspeed,3200
;   rapidZspeed,1002
;   minBridgingArea,50
;   bridgingExtraInflation,0
;   bridgingExtrusionMultiplier,0.9
;   bridgingSpeedMultiplier,1
;   useFixedBridgingAngle,0
;   fixedBridgingAngle,0
;   applyBridgingToPerimeters,0
;   filamentDiameters,1.75|1.75|1.75|1.75|1.75|1.75
;   filamentPricesPerKg,48|25|25|25|25|25
;   filamentDensities,1.25|1.25|1.25|1.25|1.25|1.25
;   useMinPrintHeight,0
;   minPrintHeight,42
;   useMaxPrintHeight,0
;   maxPrintHeight,0
;   useDiaphragm,0
;   diaphragmLayerInterval,20
;   robustSlicing,1
;   mergeAllIntoSolid,0
;   onlyRetractWhenCrossingOutline,1
;   retractBetweenLayers,1
;   useRetractionMinTravel,0
;   retractionMinTravel,3
;   retractWhileWiping,1
;   onlyWipeOutlines,1
;   avoidCrossingOutline,0
;   maxMovementDetourFactor,5
;   toolChangeRetractionDistance,12
;   toolChangeExtraRestartDistance,-0.5
;   toolChangeRetractionSpeed,600
;   externalThinWallType,1
;   internalThinWallType,1
;   thinWallAllowedOverlapPercentage,100
;   singleExtrusionMinLength,0.4
;   singleExtrusionMinPrintingWidthPercentage,50
;   singleExtrusionMaxPrintingWidthPercentage,200
;   singleExtrusionEndpointExtension,0.2
;   horizontalSizeCompensation,0
G90
M82
M106 S255
G4 P500
M106 S0
M140 S30
M190 S30
M104 S200 T0
M109 S200 T0
G90 ; absolute positioning - this line was added in case Cura doesn't include it by default
M82 ; set extruder to absolute mode - this line was added in case Cura doesn't include it by default (may not be needed)
M107; start with the fan off (I don't think this is possible)
G28 ; Start from home position
G29 C-0.8 Z0.3 ; probe the bed at 3 points with a 0.3mm overall vertical offset and an additional -0.8mm center offset 
G1 Z15.0 F4800  ; move the nozzle up 15mm
G92 E0 ; reset extrusion distance
G1 F200 E3 ; extrude 3mm of feed stock
G92 E0 ; reset extrusion distance again
G1 F4800
G92 E0
G1 E-8.0000 F3000
G1 Z0.640 F1002
; process Process3
; layer 1, Z = 0.250
T0
; tool H0.250 W0.400
; inner perimeter
G1 X8.447 Y-11.662 F3200
G1 E0.0000 F900
G92 E0
G1 X9.240 Y-11.044 E0.0418 F1280
G1 X9.991 Y-10.369 E0.0838
G1 X10.344 Y-10.018 E0.1045
G1 X10.683 Y-9.655 E0.1251
G1 X11.334 Y-8.882 E0.1672
G1 X11.929 Y-8.065 E0.2092
G1 X12.197 Y-7.653 E0.2296
G1 X12.712 Y-6.764 E0.2723
G1 X13.155 Y-5.856 E0.3143
G1 X13.350 Y-5.398 E0.3350
G1 X13.528 Y-4.933 E0.3557
G1 X13.842 Y-3.968 E0.3979
G1 X13.970 Y-3.492 E0.4184
G1 X14.181 Y-2.499 E0.4606
G1 X14.258 Y-2.013 E0.4811
G1 X14.365 Y-1.003 E0.5233
G1 X14.391 Y-0.511 E0.5438
G1 X14.391 Y0.499 E0.5858
G1 X14.321 Y1.507 E0.6278
G1 X14.260 Y2.001 E0.6484
G1 X14.183 Y2.492 E0.6691
G1 X13.972 Y3.484 E0.7113
G1 X13.846 Y3.956 E0.7316
G1 X13.536 Y4.912 E0.7734
G1 X13.160 Y5.844 E0.8152
G1 X12.946 Y6.305 E0.8363
G1 X12.472 Y7.197 E0.8783
G1 X11.937 Y8.054 E0.9203
G1 X11.651 Y8.462 E0.9410
G1 X11.352 Y8.859 E0.9617
G1 X10.703 Y9.633 E1.0037
G1 X10.005 Y10.356 E1.0455
G1 X9.254 Y11.033 E1.0875
G1 X8.871 Y11.342 E1.1079
G1 X8.050 Y11.940 E1.1502
G1 X7.637 Y12.208 E1.1706
G1 X6.758 Y12.716 E1.2129
G1 X6.319 Y12.939 E1.2333
G1 X5.391 Y13.352 E1.2755
G1 X4.932 Y13.529 E1.2960
G1 X3.971 Y13.841 E1.3380
G1 X2.991 Y14.086 E1.3800
G1 X2.508 Y14.180 E1.4005
G1 X1.502 Y14.321 E1.4427
G1 X1.011 Y14.364 E1.4632
G1 X-0.000 Y14.400 E1.5053
G1 X-1.009 Y14.364 E1.5472
G1 X-1.504 Y14.321 E1.5679
G1 X-1.997 Y14.261 E1.5885
G1 X-2.997 Y14.085 E1.6307
G1 X-3.476 Y13.974 E1.6512
G1 X-4.451 Y13.695 E1.6934
G1 X-4.916 Y13.535 E1.7138
G1 X-5.852 Y13.157 E1.7558
G1 X-6.760 Y12.714 E1.7977
G1 X-7.190 Y12.476 E1.8182
G1 X-8.051 Y11.939 E1.8604
G1 X-8.454 Y11.657 E1.8808
G1 X-9.250 Y11.036 E1.9228
G1 X-10.000 Y10.361 E1.9648
G1 X-10.352 Y10.010 E1.9854
G1 X-10.691 Y9.646 E2.0061
G1 X-11.344 Y8.869 E2.0483
G1 X-11.640 Y8.477 E2.0687
G1 X-12.205 Y7.640 E2.1107
G1 X-12.711 Y6.767 E2.1527
G1 X-12.934 Y6.329 E2.1731
G1 X-13.348 Y5.402 E2.2153
G1 X-13.525 Y4.943 E2.2357
G1 X-13.839 Y3.978 E2.2779
G1 X-13.967 Y3.504 E2.2984
G1 X-14.181 Y2.500 E2.3410
G1 X-14.321 Y1.500 E2.3830
G1 X-14.364 Y1.010 E2.4035
G1 X-14.400 Y0.000 E2.4455
G1 X-14.365 Y-1.003 E2.4872
G1 X-14.322 Y-1.493 E2.5077
G1 X-14.181 Y-2.499 E2.5499
G1 X-14.087 Y-2.987 E2.5706
G1 X-13.975 Y-3.472 E2.5913
G1 X-13.697 Y-4.443 E2.6333
G1 X-13.352 Y-5.393 E2.6753
G1 X-13.157 Y-5.851 E2.6959
G1 X-12.948 Y-6.302 E2.7166
G1 X-12.474 Y-7.194 E2.7586
G1 X-11.935 Y-8.057 E2.8009
G1 X-11.656 Y-8.454 E2.8211
G1 X-11.035 Y-9.251 E2.8631
G1 X-10.359 Y-10.002 E2.9051
G1 X-10.011 Y-10.350 E2.9256
G1 X-9.256 Y-11.030 E2.9678
G1 X-8.874 Y-11.340 E2.9883
G1 X-8.053 Y-11.938 E3.0305
G1 X-7.640 Y-12.206 E3.0510
G1 X-6.761 Y-12.714 E3.0932
G1 X-6.318 Y-12.940 E3.1139
G1 X-5.867 Y-13.150 E3.1345
G1 X-4.925 Y-13.531 E3.1768
G1 X-4.460 Y-13.692 E3.1972
G1 X-3.489 Y-13.970 E3.2392
G1 X-2.506 Y-14.180 E3.2810
G1 X-1.505 Y-14.321 E3.3230
G1 X-1.010 Y-14.364 E3.3437
G1 X-0.513 Y-14.391 E3.3644
G1 X0.487 Y-14.391 E3.4060
G1 X0.978 Y-14.366 E3.4264
G1 X1.988 Y-14.261 E3.4686
G1 X2.475 Y-14.185 E3.4891
G1 X3.468 Y-13.976 E3.5313
G1 X3.944 Y-13.849 E3.5518
G1 X4.910 Y-13.536 E3.5940
G1 X5.370 Y-13.361 E3.6145
G1 X6.293 Y-12.951 E3.6565
G1 X7.186 Y-12.478 E3.6985
G1 X7.608 Y-12.225 E3.7189
G1 X8.447 Y-11.662 E3.7609
; outer perimeter
G1 X8.682 Y-11.986 F3200
G92 E0
G1 X9.496 Y-11.351 E0.0429 F1280
G1 X10.266 Y-10.660 E0.0860
G1 X10.631 Y-10.296 E0.1074
G1 X10.983 Y-9.920 E0.1288
G1 X11.649 Y-9.128 E0.1718
G1 X12.258 Y-8.292 E0.2148
G1 X12.538 Y-7.862 E0.2361
G1 X13.066 Y-6.952 E0.2799
G1 X13.519 Y-6.022 E0.3229
G1 X13.721 Y-5.548 E0.3443
G1 X13.905 Y-5.067 E0.3657
G1 X14.226 Y-4.082 E0.4088
G1 X14.359 Y-3.586 E0.4301
G1 X14.575 Y-2.572 E0.4732
G1 X14.655 Y-2.065 E0.4946
G1 X14.764 Y-1.034 E0.5377
G1 X14.791 Y-0.522 E0.5590
G1 X14.791 Y0.513 E0.6020
G1 X14.719 Y1.545 E0.6451
G1 X14.656 Y2.056 E0.6665
G1 X14.576 Y2.565 E0.6879
G1 X14.361 Y3.577 E0.7309
G1 X14.229 Y4.070 E0.7521
G1 X13.912 Y5.049 E0.7949
G1 X13.527 Y6.003 E0.8377
G1 X13.304 Y6.483 E0.8597
G1 X12.819 Y7.397 E0.9027
G1 X12.270 Y8.275 E0.9457
G1 X11.975 Y8.697 E0.9671
G1 X11.665 Y9.108 E0.9885
G1 X11.000 Y9.901 E1.0316
G1 X10.283 Y10.644 E1.0745
G1 X9.514 Y11.337 E1.1175
G1 X9.115 Y11.660 E1.1389
G1 X8.277 Y12.269 E1.1820
G1 X7.846 Y12.549 E1.2033
G1 X6.949 Y13.067 E1.2464
G1 X6.492 Y13.300 E1.2677
G1 X5.545 Y13.722 E1.3108
G1 X5.065 Y13.906 E1.3322
G1 X4.081 Y14.226 E1.3752
G1 X3.077 Y14.476 E1.4182
G1 X2.574 Y14.574 E1.4395
G1 X1.547 Y14.719 E1.4826
G1 X1.036 Y14.764 E1.5040
G1 X-0.000 Y14.800 E1.5471
G1 X-1.033 Y14.764 E1.5901
G1 X-1.546 Y14.719 E1.6114
G1 X-2.056 Y14.656 E1.6328
G1 X-3.076 Y14.477 E1.6759
G1 X-3.576 Y14.361 E1.6972
G1 X-4.572 Y14.076 E1.7403
G1 X-5.056 Y13.909 E1.7616
G1 X-6.015 Y13.522 E1.8046
G1 X-6.945 Y13.069 E1.8476
G1 X-7.393 Y12.821 E1.8689
G1 X-8.272 Y12.273 E1.9119
G1 X-8.692 Y11.979 E1.9332
G1 X-9.507 Y11.343 E1.9762
G1 X-10.276 Y10.651 E2.0192
G1 X-10.640 Y10.288 E2.0406
G1 X-10.991 Y9.912 E2.0620
G1 X-11.657 Y9.119 E2.1050
G1 X-11.966 Y8.709 E2.1264
G1 X-12.545 Y7.853 E2.1693
G1 X-13.062 Y6.958 E2.2123
G1 X-13.295 Y6.501 E2.2336
G1 X-13.718 Y5.555 E2.2767
G1 X-13.902 Y5.077 E2.2980
G1 X-14.223 Y4.092 E2.3411
G1 X-14.356 Y3.597 E2.3624
G1 X-14.575 Y2.570 E2.4061
G1 X-14.719 Y1.545 E2.4491
G1 X-14.764 Y1.034 E2.4704
G1 X-14.800 Y-0.000 E2.5134
G1 X-14.764 Y-1.027 E2.5562
G1 X-14.720 Y-1.538 E2.5775
G1 X-14.576 Y-2.565 E2.6206
G1 X-14.478 Y-3.070 E2.6420
G1 X-14.362 Y-3.572 E2.6634
G1 X-14.078 Y-4.567 E2.7064
G1 X-13.724 Y-5.539 E2.7495
G1 X-13.523 Y-6.014 E2.7709
G1 X-13.306 Y-6.480 E2.7923
G1 X-12.820 Y-7.394 E2.8353
G1 X-12.268 Y-8.278 E2.8786
G1 X-11.978 Y-8.692 E2.8996
G1 X-11.341 Y-9.508 E2.9427
G1 X-10.649 Y-10.278 E2.9857
G1 X-10.287 Y-10.641 E3.0070
G1 X-9.517 Y-11.334 E3.0501
G1 X-9.118 Y-11.658 E3.0715
G1 X-8.280 Y-12.267 E3.1146
G1 X-7.849 Y-12.547 E3.1359
G1 X-6.952 Y-13.066 E3.1790
G1 X-6.493 Y-13.299 E3.2004
G1 X-6.027 Y-13.517 E3.2218
G1 X-5.066 Y-13.906 E3.2649
G1 X-4.580 Y-14.073 E3.2862
G1 X-3.586 Y-14.359 E3.3292
G1 X-2.575 Y-14.574 E3.3722
G1 X-1.551 Y-14.718 E3.4152
G1 X-1.038 Y-14.763 E3.4366
G1 X-0.524 Y-14.791 E3.4580
G1 X0.497 Y-14.791 E3.5005
G1 X1.009 Y-14.765 E3.5218
G1 X2.040 Y-14.658 E3.5649
G1 X2.547 Y-14.579 E3.5862
G1 X3.561 Y-14.365 E3.6293
G1 X4.057 Y-14.233 E3.6506
G1 X5.043 Y-13.914 E3.6937
G1 X5.522 Y-13.731 E3.7151
G1 X6.468 Y-13.311 E3.7581
G1 X7.383 Y-12.827 E3.8011
G1 X7.823 Y-12.563 E3.8224
G1 X8.682 Y-11.986 E3.8655
; inner perimeter
G1 X3.182 Y-4.610 F3200
G92 E0
G1 X2.603 Y-4.960 E0.0281 F1280
G1 X1.994 Y-5.233 E0.0559
G1 X1.658 Y-5.350 E0.0707
G1 X1.018 Y-5.507 E0.0980
G1 X0.666 Y-5.561 E0.1129
G1 X0.000 Y-5.601 E0.1406
G1 X-0.666 Y-5.561 E0.1684
G1 X-1.018 Y-5.507 E0.1832
G1 X-1.658 Y-5.350 E0.2105
G1 X-1.994 Y-5.233 E0.2254
G1 X-2.603 Y-4.960 E0.2531
G1 X-3.182 Y-4.610 E0.2812
G1 X-3.707 Y-4.198 E0.3090
G1 X-3.960 Y-3.960 E0.3234
G1 X-4.198 Y-3.707 E0.3378
G1 X-4.610 Y-3.182 E0.3656
G1 X-4.960 Y-2.603 E0.3937
G1 X-5.233 Y-1.994 E0.4214
G1 X-5.350 Y-1.658 E0.4363
G1 X-5.507 Y-1.018 E0.4636
G1 X-5.561 Y-0.666 E0.4784
G1 X-5.601 Y-0.009 E0.5058
G1 X-5.590 Y0.347 E0.5206
G1 X-5.509 Y1.010 E0.5484
G1 X-5.350 Y1.658 E0.5761
G1 X-5.233 Y1.994 E0.5909
G1 X-4.960 Y2.603 E0.6187
G1 X-4.614 Y3.174 E0.6464
G1 X-4.408 Y3.454 E0.6609
G1 X-4.186 Y3.721 E0.6753
G1 X-3.714 Y4.192 E0.7030
G1 X-3.189 Y4.604 E0.7308
G1 X-2.897 Y4.793 E0.7452
G1 X-2.595 Y4.963 E0.7597
G1 X-1.994 Y5.233 E0.7870
G1 X-1.658 Y5.350 E0.8019
G1 X-1.018 Y5.507 E0.8292
G1 X-0.666 Y5.561 E0.8440
G1 X0.000 Y5.601 E0.8718
G1 X0.666 Y5.561 E0.8995
G1 X1.018 Y5.507 E0.9143
G1 X1.658 Y5.350 E0.9417
G1 X1.994 Y5.233 E0.9565
G1 X2.603 Y4.960 E0.9843
G1 X3.182 Y4.610 E1.0124
G1 X3.707 Y4.198 E1.0401
G1 X3.960 Y3.960 E1.0546
G1 X4.198 Y3.707 E1.0690
G1 X4.610 Y3.182 E1.0968
G1 X4.960 Y2.603 E1.1249
G1 X5.233 Y1.994 E1.1526
G1 X5.350 Y1.658 E1.1674
G1 X5.507 Y1.018 E1.1948
G1 X5.561 Y0.666 E1.2096
G1 X5.601 Y0.000 E1.2374
G1 X5.561 Y-0.666 E1.2651
G1 X5.507 Y-1.018 E1.2799
G1 X5.350 Y-1.658 E1.3073
G1 X5.233 Y-1.994 E1.3221
G1 X4.960 Y-2.603 E1.3499
G1 X4.610 Y-3.182 E1.3780
G1 X4.198 Y-3.707 E1.4057
G1 X3.960 Y-3.960 E1.4202
G1 X3.707 Y-4.198 E1.4346
G1 X3.182 Y-4.610 E1.4623
; outer perimeter
G1 X2.954 Y-4.280 F3200
G92 E0
G1 X2.417 Y-4.605 E0.0261 F1280
G1 X1.847 Y-4.861 E0.0521
G1 X1.544 Y-4.966 E0.0654
G1 X0.940 Y-5.114 E0.0913
G1 X0.624 Y-5.163 E0.1046
