; G-Code generated by Simplify3D(R) Version 4.0.0
; Oct 31, 2018 at 2:33:39 PM
; Settings Summary
;   processName,Process3
;   applyToModels,CPmiddle_changed,CPmiddle_changed(2),CPmiddle_changed(3),CPmiddle_changed(4)
;   profileName,MP Mini Delta23 (modified)
;   profileVersion,2017-10-15 16:31:22
;   baseProfile,Monoprice MP Mini Delta
;   printMaterial,eSun PLA+ - Solid Red
;   printQuality,0.08
;   printExtruders,
;   extruderName,Primary Extruder
;   extruderToolheadNumber,0
;   extruderDiameter,0.4
;   extruderAutoWidth,0
;   extruderWidth,0.4
;   extrusionMultiplier,1
;   extruderUseRetract,1
;   extruderRetractionDistance,8
;   extruderExtraRestartDistance,0
;   extruderRetractionZLift,0
;   extruderRetractionSpeed,3000
;   extruderUseCoasting,0
;   extruderCoastingDistance,0.2
;   extruderUseWipe,0
;   extruderWipeDistance,5
;   primaryExtruder,0
;   layerHeight,0.3
;   topSolidLayers,5
;   bottomSolidLayers,5
;   perimeterOutlines,2
;   printPerimetersInsideOut,1
;   startPointOption,2
;   startPointOriginX,0
;   startPointOriginY,0
;   sequentialIslands,0
;   spiralVaseMode,0
;   firstLayerHeightPercentage,100
;   firstLayerWidthPercentage,100
;   firstLayerUnderspeed,0.4
;   useRaft,0
;   raftExtruder,0
;   raftTopLayers,3
;   raftBaseLayers,1
;   raftOffset,2
;   raftSeparationDistance,0.1
;   raftTopInfill,100
;   aboveRaftSpeedMultiplier,0.3
;   useSkirt,1
;   skirtExtruder,0
;   skirtLayers,3
;   skirtOutlines,6
;   skirtOffset,0
;   usePrimePillar,0
;   primePillarExtruder,999
;   primePillarWidth,6
;   primePillarLocation,0
;   primePillarSpeedMultiplier,1
;   useOozeShield,0
;   oozeShieldExtruder,999
;   oozeShieldOffset,2
;   oozeShieldOutlines,1
;   oozeShieldSidewallShape,1
;   oozeShieldSidewallAngle,30
;   oozeShieldSpeedMultiplier,1
;   infillExtruder,0
;   internalInfillPattern,Full Honeycomb
;   externalInfillPattern,Rectilinear
;   infillPercentage,15
;   outlineOverlapPercentage,0
;   infillExtrusionWidthPercentage,100
;   minInfillLength,5
;   infillLayerInterval,1
;   internalInfillAngles,0,120,-120
;   overlapInternalInfillAngles,0
;   externalInfillAngles,45,-45
;   generateSupport,1
;   supportExtruder,0
;   supportInfillPercentage,30
;   supportExtraInflation,0
;   supportBaseLayers,0
;   denseSupportExtruder,0
;   denseSupportLayers,0
;   denseSupportInfillPercentage,70
;   supportLayerInterval,1
;   supportHorizontalPartOffset,0.4
;   supportUpperSeparationLayers,0
;   supportLowerSeparationLayers,0
;   supportType,0
;   supportGridSpacing,1
;   maxOverhangAngle,45
;   supportAngles,-45
;   temperatureName,Primary Extruder,Heated Bed
;   temperatureNumber,0,0
;   temperatureSetpointCount,1,1
;   temperatureSetpointLayers,1,1
;   temperatureSetpointTemperatures,200,30
;   temperatureStabilizeAtStartup,1,1
;   temperatureHeatedBed,0,1
;   temperatureRelayBetweenLayers,0,0
;   temperatureRelayBetweenLoops,0,0
;   fanLayers,1,2,10
;   fanSpeeds,0,60,100
;   blipFanToFullPower,1
;   adjustSpeedForCooling,1
;   minSpeedLayerTime,15
;   minCoolingSpeedSlowdown,20
;   increaseFanForCooling,0
;   minFanLayerTime,45
;   maxCoolingFanSpeed,100
;   increaseFanForBridging,0
;   bridgingFanSpeed,100
;   use5D,1
;   relativeEdistances,0
;   allowEaxisZeroing,1
;   independentExtruderAxes,0
;   includeM10123,0
;   stickySupport,1
;   applyToolheadOffsets,0
;   gcodeXoffset,0
;   gcodeYoffset,0
;   gcodeZoffset,0.39
;   overrideMachineDefinition,1
;   machineTypeOverride,1
;   strokeXoverride,77.8
;   strokeYoverride,77.8
;   strokeZoverride,120
;   originOffsetXoverride,38.9
;   originOffsetYoverride,38.9
;   originOffsetZoverride,0
;   homeXdirOverride,0
;   homeYdirOverride,0
;   homeZdirOverride,-1
;   flipXoverride,1
;   flipYoverride,-1
;   flipZoverride,1
;   toolheadOffsets,0,0|0,0|0,0|0,0|0,0|0,0
;   overrideFirmwareConfiguration,1
;   firmwareTypeOverride,RepRap (Marlin/Repetier/Sprinter)
;   GPXconfigOverride,r2
;   baudRateOverride,115200
;   overridePrinterModels,1
;   printerModelsOverride,MP_Mini_Delta_Platform.stl
;   startingGcode,G90 ; absolute positioning - this line was added in case Cura doesn't include it by default,M82 ; set extruder to absolute mode - this line was added in case Cura doesn't include it by default (may not be needed),M107; start with the fan off (I don't think this is possible),G28 ; Start from home position,G29 C-0.8 Z0.3 ; probe the bed at 3 points with a 0.3mm overall vertical offset and an additional -0.8mm center offset ,G1 Z15.0 F4800  ; move the nozzle up 15mm,G92 E0 ; reset extrusion distance,G1 F200 E3 ; extrude 3mm of feed stock,G92 E0 ; reset extrusion distance again,G1 F4800
;   layerChangeGcode,
;   retractionGcode,
;   toolChangeGcode,
;   endingGcode,M104 S0 ; turn off hotend heater,M140 S0 ; turn off bed heater,G91 ; Switch to use Relative Coordinates,G1 E-3 F700 ; retract the filament a bit before lifting the nozzle to release some of the pressure,G1 Z2 F1000 ; raise platform 2mm from current position,G1 E-2 F700 ; retract filament even more,G90 ; Switch back to using absolute coordinates,G28 X ; Return to home position. Without an X Y or Z after G28 the print completion time will not be displayed on the Mini Delta's display.,M84 ; disable motors,G4 S360 ; pause for 360 seconds to keep fan running to cool hotend and allow the fan to be turned off,M107 ; turn off fan. Some say M107 doesn't work for them but if the hotend is cool enough it should work,;M106 S1 ; turn off fan. Remove the semicolon in front of M106 if M107 doesn't work for you
;   exportFileFormat,gcode
;   celebration,0
;   celebrationSong,Random Song
;   postProcessing,
;   defaultSpeed,3200
;   outlineUnderspeed,1
;   solidInfillUnderspeed,1
;   supportUnderspeed,1
;   rapidXYspeed,3200
;   rapidZspeed,1002
;   minBridgingArea,50
;   bridgingExtraInflation,0
;   bridgingExtrusionMultiplier,0.9
;   bridgingSpeedMultiplier,1
;   useFixedBridgingAngle,0
;   fixedBridgingAngle,0
;   applyBridgingToPerimeters,0
;   filamentDiameters,1.75|1.75|1.75|1.75|1.75|1.75
;   filamentPricesPerKg,48|25|25|25|25|25
;   filamentDensities,1.25|1.25|1.25|1.25|1.25|1.25
;   useMinPrintHeight,0
;   minPrintHeight,42
;   useMaxPrintHeight,0
;   maxPrintHeight,0
;   useDiaphragm,0
;   diaphragmLayerInterval,20
;   robustSlicing,1
;   mergeAllIntoSolid,0
;   onlyRetractWhenCrossingOutline,1
;   retractBetweenLayers,1
;   useRetractionMinTravel,0
;   retractionMinTravel,3
;   retractWhileWiping,1
;   onlyWipeOutlines,1
;   avoidCrossingOutline,0
;   maxMovementDetourFactor,5
;   toolChangeRetractionDistance,12
;   toolChangeExtraRestartDistance,-0.5
;   toolChangeRetractionSpeed,600
;   externalThinWallType,1
;   internalThinWallType,1
;   thinWallAllowedOverlapPercentage,100
;   singleExtrusionMinLength,0.4
;   singleExtrusionMinPrintingWidthPercentage,50
;   singleExtrusionMaxPrintingWidthPercentage,200
;   singleExtrusionEndpointExtension,0.2
;   horizontalSizeCompensation,0
G90
M82
M106 S255
G4 P500
M106 S0
M140 S30
M190 S30
M104 S200 T0
M109 S200 T0
G90 ; absolute positioning - this line was added in case Cura doesn't include it by default
M82 ; set extruder to absolute mode - this line was added in case Cura doesn't include it by default (may not be needed)
M107; start with the fan off (I don't think this is possible)
G28 ; Start from home position
G29 C-0.8 Z0.3 ; probe the bed at 3 points with a 0.3mm overall vertical offset and an additional -0.8mm center offset 
G1 Z15.0 F4800  ; move the nozzle up 15mm
G92 E0 ; reset extrusion distance
G1 F200 E3 ; extrude 3mm of feed stock
G92 E0 ; reset extrusion distance again
G1 F4800
G92 E0
G1 E-8.0000 F3000
G1 Z0.690 F1002
; process Process3
; layer 1, Z = 0.300
T0
; tool H0.300 W0.400
; skirt
G1 X5.515 Y5.163 F3200
G1 E0.0000 F900
G92 E0
G1 X5.598 Y5.083 E0.0058 F1280
G1 X6.871 Y3.977 E0.0899
G1 X6.962 Y3.906 E0.0956
G1 X8.343 Y2.940 E0.1797
G1 X8.441 Y2.879 E0.1855
G1 X9.916 Y2.062 E0.2696
G1 X10.019 Y2.012 E0.2753
G1 X11.534 Y1.369 E0.3574
G1 X11.623 Y1.335 E0.3622
G1 X12.739 Y0.972 E0.4207
G1 X12.833 Y0.946 E0.4256
G1 X14.468 Y0.569 E0.5093
G1 X14.581 Y0.549 E0.5150
G1 X16.254 Y0.345 E0.5991
G1 X16.368 Y0.337 E0.6048
G1 X17.978 Y0.309 E0.6851
G1 X18.017 Y0.309 E0.6871
G1 X18.101 Y0.310 E0.6913
G1 X18.177 Y0.314 E0.6951
G1 X19.836 Y0.459 E0.7782
G1 X19.950 Y0.475 E0.7839
G1 X21.578 Y0.791 E0.8666
G1 X21.688 Y0.818 E0.8723
G1 X23.291 Y1.305 E0.9559
G1 X23.382 Y1.337 E0.9607
G1 X24.468 Y1.774 E1.0191
G1 X24.556 Y1.814 E1.0239
G1 X26.050 Y2.576 E1.1076
G1 X26.150 Y2.633 E1.1133
G1 X27.563 Y3.551 E1.1974
G1 X27.657 Y3.619 E1.2032
G1 X28.959 Y4.673 E1.2868
G1 X29.031 Y4.737 E1.2915
G1 X29.853 Y5.531 E1.3486
G1 X29.918 Y5.600 E1.3533
G1 X31.001 Y6.844 E1.4356
G1 X31.071 Y6.934 E1.4413
G1 X32.055 Y8.335 E1.5267
G1 X32.116 Y8.433 E1.5325
G1 X32.927 Y9.894 E1.6158
G1 X32.977 Y9.996 E1.6215
G1 X33.630 Y11.529 E1.7046
G1 X33.663 Y11.619 E1.7094
G1 X34.024 Y12.725 E1.7674
G1 X34.050 Y12.818 E1.7723
G1 X34.428 Y14.451 E1.8559
G1 X34.448 Y14.565 E1.8616
G1 X34.654 Y16.238 E1.9457
G1 X34.662 Y16.353 E1.9515
G1 X34.692 Y18.038 E2.0356
G1 X34.688 Y18.153 E2.0413
G1 X34.541 Y19.831 E2.1254
G1 X34.525 Y19.945 E2.1311
G1 X34.213 Y21.562 E2.2133
G1 X34.190 Y21.657 E2.2181
G1 X33.852 Y22.834 E2.2792
G1 X33.821 Y22.926 E2.2841
G1 X33.237 Y24.443 E2.3652
G1 X33.190 Y24.547 E2.3709
G1 X32.427 Y26.046 E2.4548
G1 X32.369 Y26.146 E2.4605
G1 X31.465 Y27.540 E2.5434
G1 X31.410 Y27.618 E2.5482
G1 X30.698 Y28.530 E2.6060
G1 X30.635 Y28.604 E2.6108
G1 X29.492 Y29.830 E2.6944
G1 X29.409 Y29.910 E2.7001
G1 X28.138 Y31.016 E2.7842
G1 X28.047 Y31.087 E2.7900
G1 X26.666 Y32.054 E2.8741
G1 X26.569 Y32.115 E2.8798
G1 X25.095 Y32.933 E2.9639
G1 X24.991 Y32.983 E2.9696
G1 X23.445 Y33.640 E3.0534
G1 X23.337 Y33.679 E3.0592
G1 X21.740 Y34.169 E3.1425
G1 X21.647 Y34.193 E3.1473
G1 X20.519 Y34.433 E3.2049
G1 X20.423 Y34.449 E3.2097
G1 X18.760 Y34.654 E3.2933
G1 X18.645 Y34.662 E3.2991
G1 X16.960 Y34.692 E3.3831
G1 X16.845 Y34.688 E3.3889
G1 X15.184 Y34.543 E3.4721
G1 X15.088 Y34.530 E3.4769
G1 X13.956 Y34.331 E3.5342
G1 X13.862 Y34.310 E3.5390
G1 X12.245 Y33.878 E3.6226
G1 X12.135 Y33.842 E3.6283
G1 X10.563 Y33.239 E3.7123
G1 X10.458 Y33.192 E3.7181
G1 X8.957 Y32.429 E3.8021
G1 X8.858 Y32.371 E3.8078
G1 X7.445 Y31.455 E3.8918
G1 X7.352 Y31.387 E3.8975
G1 X6.043 Y30.329 E3.9815
G1 X5.958 Y30.252 E3.9872
G1 X4.789 Y29.087 E4.0696
G1 X4.723 Y29.015 E4.0744
G1 X3.940 Y28.081 E4.1353
G1 X3.880 Y28.003 E4.1402
G1 X2.924 Y26.631 E4.2236
G1 X2.864 Y26.535 E4.2292
G1 X2.073 Y25.105 E4.3108
G1 X2.022 Y25.002 E4.3165
G1 X1.352 Y23.421 E4.4022
G1 X1.318 Y23.330 E4.4070
G1 X0.963 Y22.231 E4.4647
G1 X0.938 Y22.139 E4.4694
G1 X0.571 Y20.542 E4.5512
G1 X0.551 Y20.430 E4.5568
G1 X0.346 Y18.758 E4.6409
G1 X0.338 Y18.643 E4.6466
G1 X0.309 Y16.967 E4.7303
G1 X0.311 Y16.871 E4.7350
G1 X0.390 Y15.739 E4.7916
G1 X0.398 Y15.663 E4.7955
G1 X0.555 Y14.550 E4.8515
G1 X0.568 Y14.475 E4.8553
G1 X0.796 Y13.402 E4.9101
G1 X0.814 Y13.328 E4.9138
G1 X1.133 Y12.212 E4.9718
G1 X1.164 Y12.119 E4.9766
G1 X1.765 Y10.554 E5.0603
G1 X1.812 Y10.449 E5.0660
G1 X2.571 Y8.957 E5.1495
G1 X2.628 Y8.858 E5.1552
G1 X3.531 Y7.466 E5.2380
G1 X3.587 Y7.388 E5.2428
G1 X4.308 Y6.463 E5.3013
G1 X4.371 Y6.389 E5.3062
G1 X5.515 Y5.163 E5.3898
G1 X8.957 Y-2.571 F3200
G92 E0
G1 X8.858 Y-2.629 E0.0057 F1280
G1 X7.445 Y-3.545 E0.0897
G1 X7.352 Y-3.613 E0.0955
G1 X6.043 Y-4.671 E0.1795
G1 X5.958 Y-4.748 E0.1852
G1 X4.789 Y-5.913 E0.2675
G1 X4.723 Y-5.985 E0.2724
G1 X3.940 Y-6.919 E0.3332
G1 X3.880 Y-6.997 E0.3381
G1 X2.924 Y-8.369 E0.4215
G1 X2.863 Y-8.467 E0.4273
G1 X2.051 Y-9.938 E0.5111
G1 X2.001 Y-10.042 E0.5168
G1 X1.351 Y-11.581 E0.6002
G1 X1.317 Y-11.671 E0.6050
G1 X0.963 Y-12.769 E0.6626
G1 X0.938 Y-12.861 E0.6673
G1 X0.571 Y-14.458 E0.7491
G1 X0.551 Y-14.570 E0.7548
G1 X0.346 Y-16.242 E0.8388
G1 X0.338 Y-16.357 E0.8446
G1 X0.309 Y-18.033 E0.9282
G1 X0.311 Y-18.129 E0.9330
G1 X0.390 Y-19.260 E0.9896
G1 X0.398 Y-19.336 E0.9934
G1 X0.550 Y-20.422 E1.0481
G1 X0.564 Y-20.497 E1.0519
G1 X0.804 Y-21.633 E1.1098
G1 X0.828 Y-21.726 E1.1146
G1 X1.306 Y-23.295 E1.1964
G1 X1.338 Y-23.384 E1.2012
G1 X1.776 Y-24.471 E1.2596
G1 X1.816 Y-24.560 E1.2644
G1 X2.577 Y-26.053 E1.3481
G1 X2.635 Y-26.153 E1.3538
G1 X3.531 Y-27.535 E1.4360
G1 X3.587 Y-27.613 E1.4408
G1 X4.308 Y-28.537 E1.4993
G1 X4.371 Y-28.611 E1.5041
G1 X5.515 Y-29.837 E1.5878
G1 X5.598 Y-29.917 E1.5935
G1 X6.871 Y-31.023 E1.6777
G1 X6.962 Y-31.094 E1.6834
G1 X8.343 Y-32.060 E1.7675
G1 X8.441 Y-32.121 E1.7733
G1 X9.916 Y-32.938 E1.8574
G1 X10.019 Y-32.988 E1.8631
G1 X11.534 Y-33.631 E1.9452
G1 X11.623 Y-33.665 E1.9500
G1 X12.739 Y-34.028 E2.0085
G1 X12.833 Y-34.054 E2.0134
G1 X14.468 Y-34.431 E2.0971
G1 X14.581 Y-34.451 E2.1028
G1 X16.254 Y-34.655 E2.1869
G1 X16.368 Y-34.663 E2.1926
G1 X17.978 Y-34.691 E2.2729
G1 X18.017 Y-34.691 E2.2749
G1 X18.101 Y-34.690 E2.2790
G1 X18.177 Y-34.686 E2.2829
G1 X19.827 Y-34.541 E2.3655
G1 X19.922 Y-34.529 E2.3703
G1 X21.038 Y-34.332 E2.4268
G1 X21.114 Y-34.316 E2.4307
G1 X22.204 Y-34.044 E2.4867
G1 X22.277 Y-34.023 E2.4905
G1 X23.321 Y-33.685 E2.5453
G1 X23.392 Y-33.659 E2.5490
G1 X24.468 Y-33.226 E2.6069
G1 X24.556 Y-33.186 E2.6118
G1 X26.050 Y-32.424 E2.6954
G1 X26.150 Y-32.367 E2.7012
G1 X27.555 Y-31.454 E2.7848
G1 X27.633 Y-31.398 E2.7895
G1 X28.534 Y-30.695 E2.8466
G1 X28.607 Y-30.632 E2.8514
G1 X29.833 Y-29.490 E2.9350
G1 X29.913 Y-29.407 E2.9407
G1 X31.018 Y-28.135 E3.0248
G1 X31.089 Y-28.044 E3.0305
G1 X32.056 Y-26.664 E3.1146
G1 X32.117 Y-26.566 E3.1203
G1 X32.927 Y-25.106 E3.2036
G1 X32.977 Y-25.004 E3.2093
G1 X33.630 Y-23.471 E3.2924
G1 X33.663 Y-23.381 E3.2972
G1 X34.024 Y-22.275 E3.3553
G1 X34.050 Y-22.182 E3.3601
G1 X34.428 Y-20.549 E3.4437
G1 X34.448 Y-20.435 E3.4495
G1 X34.654 Y-18.762 E3.5336
G1 X34.662 Y-18.647 E3.5393
G1 X34.692 Y-16.962 E3.6234
G1 X34.688 Y-16.847 E3.6291
G1 X34.541 Y-15.169 E3.7132
G1 X34.525 Y-15.055 E3.7189
G1 X34.213 Y-13.438 E3.8011
G1 X34.190 Y-13.343 E3.8060
G1 X33.852 Y-12.166 E3.8671
G1 X33.821 Y-12.074 E3.8719
G1 X33.237 Y-10.559 E3.9529
G1 X33.191 Y-10.455 E3.9586
G1 X32.427 Y-8.954 E4.0426
G1 X32.369 Y-8.854 E4.0484
G1 X31.465 Y-7.460 E4.1313
G1 X31.410 Y-7.382 E4.1360
G1 X30.698 Y-6.470 E4.1938
G1 X30.635 Y-6.396 E4.1986
G1 X29.492 Y-5.170 E4.2822
G1 X29.409 Y-5.090 E4.2880
G1 X28.138 Y-3.984 E4.3721
G1 X28.047 Y-3.913 E4.3778
G1 X26.666 Y-2.946 E4.4619
G1 X26.569 Y-2.885 E4.4676
G1 X25.095 Y-2.067 E4.5517
G1 X24.991 Y-2.017 E4.5575
G1 X23.445 Y-1.360 E4.6413
G1 X23.337 Y-1.321 E4.6470
G1 X21.740 Y-0.831 E4.7304
G1 X21.647 Y-0.807 E4.7352
G1 X20.519 Y-0.567 E4.7927
G1 X20.423 Y-0.551 E4.7975
G1 X18.760 Y-0.346 E4.8811
G1 X18.645 Y-0.338 E4.8869
G1 X16.960 Y-0.308 E4.9710
G1 X16.845 Y-0.312 E4.9767
G1 X15.184 Y-0.457 E5.0599
G1 X15.089 Y-0.470 E5.0647
G1 X13.956 Y-0.669 E5.1221
G1 X13.862 Y-0.690 E5.1269
G1 X12.245 Y-1.122 E5.2104
G1 X12.135 Y-1.158 E5.2161
G1 X10.563 Y-1.761 E5.3001
G1 X10.458 Y-1.808 E5.3059
G1 X8.957 Y-2.571 E5.3899
G1 X-2.574 Y-8.953 F3200
G92 E0
G1 X-2.631 Y-8.854 E0.0057 F1280
G1 X-3.549 Y-7.440 E0.0898
G1 X-3.616 Y-7.347 E0.0956
G1 X-4.677 Y-6.037 E0.1797
G1 X-4.753 Y-5.951 E0.1854
G1 X-5.928 Y-4.775 E0.2683
G1 X-5.999 Y-4.710 E0.2731
G1 X-6.884 Y-3.966 E0.3308
G1 X-6.961 Y-3.908 E0.3356
G1 X-8.334 Y-2.946 E0.4192
G1 X-8.431 Y-2.885 E0.4250
G1 X-9.905 Y-2.067 E0.5091
G1 X-10.009 Y-2.017 E0.5148
G1 X-11.555 Y-1.360 E0.5986
G1 X-11.663 Y-1.321 E0.6044
G1 X-13.260 Y-0.831 E0.6877
G1 X-13.353 Y-0.807 E0.6925
G1 X-14.481 Y-0.567 E0.7501
G1 X-14.577 Y-0.551 E0.7549
G1 X-16.240 Y-0.346 E0.8385
G1 X-16.355 Y-0.338 E0.8442
G1 X-18.042 Y-0.308 E0.9284
G1 X-18.157 Y-0.312 E0.9341
G1 X-19.816 Y-0.457 E1.0173
G1 X-19.912 Y-0.470 E1.0220
G1 X-21.044 Y-0.669 E1.0794
G1 X-21.138 Y-0.690 E1.0842
G1 X-22.755 Y-1.122 E1.1677
G1 X-22.865 Y-1.158 E1.1735
G1 X-24.436 Y-1.761 E1.2575
G1 X-24.541 Y-1.807 E1.2632
G1 X-26.008 Y-2.552 E1.3453
G1 X-26.095 Y-2.601 E1.3502
G1 X-27.169 Y-3.275 E1.4135
G1 X-27.247 Y-3.329 E1.4182
G1 X-28.490 Y-4.269 E1.4960
G1 X-28.576 Y-4.341 E1.5016
