; G-Code generated by Simplify3D(R) Version 4.0.0
; Oct 25, 2018 at 1:01:18 PM
; Settings Summary
;   processName,Process2
;   applyToModels,CPmiddle
;   profileName,MP Mini Delta23 (modified)
;   profileVersion,2017-10-15 16:31:22
;   baseProfile,Monoprice MP Mini Delta
;   printMaterial,eSun PLA+ - Solid Red
;   printQuality,0.08
;   printExtruders,
;   extruderName,Primary Extruder
;   extruderToolheadNumber,0
;   extruderDiameter,0.4
;   extruderAutoWidth,0
;   extruderWidth,0.4
;   extrusionMultiplier,1
;   extruderUseRetract,1
;   extruderRetractionDistance,8
;   extruderExtraRestartDistance,0
;   extruderRetractionZLift,0
;   extruderRetractionSpeed,3000
;   extruderUseCoasting,0
;   extruderCoastingDistance,0.2
;   extruderUseWipe,0
;   extruderWipeDistance,5
;   primaryExtruder,0
;   layerHeight,0.1
;   topSolidLayers,7
;   bottomSolidLayers,7
;   perimeterOutlines,2
;   printPerimetersInsideOut,1
;   startPointOption,2
;   startPointOriginX,0
;   startPointOriginY,0
;   sequentialIslands,0
;   spiralVaseMode,0
;   firstLayerHeightPercentage,100
;   firstLayerWidthPercentage,100
;   firstLayerUnderspeed,0.4
;   useRaft,0
;   raftExtruder,0
;   raftTopLayers,3
;   raftBaseLayers,1
;   raftOffset,2
;   raftSeparationDistance,0.1
;   raftTopInfill,100
;   aboveRaftSpeedMultiplier,0.3
;   useSkirt,0
;   skirtExtruder,0
;   skirtLayers,4
;   skirtOutlines,12
;   skirtOffset,0
;   usePrimePillar,0
;   primePillarExtruder,999
;   primePillarWidth,6
;   primePillarLocation,0
;   primePillarSpeedMultiplier,1
;   useOozeShield,0
;   oozeShieldExtruder,999
;   oozeShieldOffset,2
;   oozeShieldOutlines,1
;   oozeShieldSidewallShape,1
;   oozeShieldSidewallAngle,30
;   oozeShieldSpeedMultiplier,1
;   infillExtruder,0
;   internalInfillPattern,Full Honeycomb
;   externalInfillPattern,Rectilinear
;   infillPercentage,12
;   outlineOverlapPercentage,0
;   infillExtrusionWidthPercentage,80
;   minInfillLength,5
;   infillLayerInterval,1
;   internalInfillAngles,0,120,-120
;   overlapInternalInfillAngles,0
;   externalInfillAngles,45,-45
;   generateSupport,1
;   supportExtruder,0
;   supportInfillPercentage,30
;   supportExtraInflation,0.2
;   supportBaseLayers,0
;   denseSupportExtruder,0
;   denseSupportLayers,0
;   denseSupportInfillPercentage,70
;   supportLayerInterval,2
;   supportHorizontalPartOffset,0.4
;   supportUpperSeparationLayers,1
;   supportLowerSeparationLayers,1
;   supportType,0
;   supportGridSpacing,1
;   maxOverhangAngle,45
;   supportAngles,45
;   temperatureName,Primary Extruder,Heated Bed
;   temperatureNumber,0,0
;   temperatureSetpointCount,1,1
;   temperatureSetpointLayers,1,1
;   temperatureSetpointTemperatures,200,30
;   temperatureStabilizeAtStartup,1,1
;   temperatureHeatedBed,0,1
;   temperatureRelayBetweenLayers,0,0
;   temperatureRelayBetweenLoops,0,0
;   fanLayers,1,2,10
;   fanSpeeds,0,60,100
;   blipFanToFullPower,1
;   adjustSpeedForCooling,1
;   minSpeedLayerTime,15
;   minCoolingSpeedSlowdown,20
;   increaseFanForCooling,0
;   minFanLayerTime,45
;   maxCoolingFanSpeed,100
;   increaseFanForBridging,0
;   bridgingFanSpeed,100
;   use5D,1
;   relativeEdistances,0
;   allowEaxisZeroing,1
;   independentExtruderAxes,0
;   includeM10123,0
;   stickySupport,1
;   applyToolheadOffsets,0
;   gcodeXoffset,0
;   gcodeYoffset,0
;   gcodeZoffset,0.39
;   overrideMachineDefinition,1
;   machineTypeOverride,1
;   strokeXoverride,77.8
;   strokeYoverride,77.8
;   strokeZoverride,120
;   originOffsetXoverride,38.9
;   originOffsetYoverride,38.9
;   originOffsetZoverride,0
;   homeXdirOverride,0
;   homeYdirOverride,0
;   homeZdirOverride,-1
;   flipXoverride,1
;   flipYoverride,-1
;   flipZoverride,1
;   toolheadOffsets,0,0|0,0|0,0|0,0|0,0|0,0
;   overrideFirmwareConfiguration,1
;   firmwareTypeOverride,RepRap (Marlin/Repetier/Sprinter)
;   GPXconfigOverride,r2
;   baudRateOverride,115200
;   overridePrinterModels,1
;   printerModelsOverride,MP_Mini_Delta_Platform.stl
;   startingGcode,G90 ; absolute positioning - this line was added in case Cura doesn't include it by default,M82 ; set extruder to absolute mode - this line was added in case Cura doesn't include it by default (may not be needed),M107; start with the fan off (I don't think this is possible),G28 ; Start from home position,G29 C-0.8 Z0.3 ; probe the bed at 3 points with a 0.3mm overall vertical offset and an additional -0.8mm center offset ,G1 Z15.0 F4800  ; move the nozzle up 15mm,G92 E0 ; reset extrusion distance,G1 F200 E3 ; extrude 3mm of feed stock,G92 E0 ; reset extrusion distance again,G1 F4800
;   layerChangeGcode,
;   retractionGcode,
;   toolChangeGcode,
;   endingGcode,M104 S0 ; turn off hotend heater,M140 S0 ; turn off bed heater,G91 ; Switch to use Relative Coordinates,G1 E-3 F700 ; retract the filament a bit before lifting the nozzle to release some of the pressure,G1 Z2 F1000 ; raise platform 2mm from current position,G1 E-2 F700 ; retract filament even more,G90 ; Switch back to using absolute coordinates,G28 X ; Return to home position. Without an X Y or Z after G28 the print completion time will not be displayed on the Mini Delta's display.,M84 ; disable motors,G4 S360 ; pause for 360 seconds to keep fan running to cool hotend and allow the fan to be turned off,M107 ; turn off fan. Some say M107 doesn't work for them but if the hotend is cool enough it should work,;M106 S1 ; turn off fan. Remove the semicolon in front of M106 if M107 doesn't work for you
;   exportFileFormat,gcode
;   celebration,0
;   celebrationSong,Random Song
;   postProcessing,
;   defaultSpeed,3200
;   outlineUnderspeed,1
;   solidInfillUnderspeed,1
;   supportUnderspeed,1
;   rapidXYspeed,3200
;   rapidZspeed,1002
;   minBridgingArea,50
;   bridgingExtraInflation,0
;   bridgingExtrusionMultiplier,0.9
;   bridgingSpeedMultiplier,1
;   useFixedBridgingAngle,0
;   fixedBridgingAngle,0
;   applyBridgingToPerimeters,0
;   filamentDiameters,1.75|1.75|1.75|1.75|1.75|1.75
;   filamentPricesPerKg,48|25|25|25|25|25
;   filamentDensities,1.25|1.25|1.25|1.25|1.25|1.25
;   useMinPrintHeight,0
;   minPrintHeight,42
;   useMaxPrintHeight,0
;   maxPrintHeight,0
;   useDiaphragm,0
;   diaphragmLayerInterval,20
;   robustSlicing,1
;   mergeAllIntoSolid,0
;   onlyRetractWhenCrossingOutline,1
;   retractBetweenLayers,1
;   useRetractionMinTravel,0
;   retractionMinTravel,3
;   retractWhileWiping,1
;   onlyWipeOutlines,1
;   avoidCrossingOutline,0
;   maxMovementDetourFactor,5
;   toolChangeRetractionDistance,12
;   toolChangeExtraRestartDistance,-0.5
;   toolChangeRetractionSpeed,600
;   externalThinWallType,1
;   internalThinWallType,1
;   thinWallAllowedOverlapPercentage,100
;   singleExtrusionMinLength,0.4
;   singleExtrusionMinPrintingWidthPercentage,50
;   singleExtrusionMaxPrintingWidthPercentage,200
;   singleExtrusionEndpointExtension,0.2
;   horizontalSizeCompensation,0
G90
M82
M106 S255
G4 P500
M106 S0
M140 S30
M190 S30
M104 S200 T0
M109 S200 T0
G90 ; absolute positioning - this line was added in case Cura doesn't include it by default
M82 ; set extruder to absolute mode - this line was added in case Cura doesn't include it by default (may not be needed)
M107; start with the fan off (I don't think this is possible)
G28 ; Start from home position
G29 C-0.8 Z0.3 ; probe the bed at 3 points with a 0.3mm overall vertical offset and an additional -0.8mm center offset 
G1 Z15.0 F4800  ; move the nozzle up 15mm
G92 E0 ; reset extrusion distance
G1 F200 E3 ; extrude 3mm of feed stock
G92 E0 ; reset extrusion distance again
G1 F4800
G92 E0
G1 E-8.0000 F3000
G1 Z0.490 F1002
; process Process2
; layer 1, Z = 0.100
T0
; tool H0.100 W0.400
; inner perimeter
G1 X12.207 Y-7.638 F3200
G1 E0.0000 F900
G92 E0
G1 X12.716 Y-6.757 E0.0169 F1280
G1 X12.939 Y-6.319 E0.0251
G1 X13.353 Y-5.391 E0.0420
G1 X13.529 Y-4.931 E0.0502
G1 X13.841 Y-3.971 E0.0670
G1 X14.086 Y-2.990 E0.0838
G1 X14.181 Y-2.502 E0.0920
G1 X14.259 Y-2.011 E0.1003
G1 X14.365 Y-1.001 E0.1172
G1 X14.391 Y-0.509 E0.1254
G1 X14.391 Y0.501 E0.1422
G1 X14.321 Y1.509 E0.1590
G1 X14.260 Y2.003 E0.1673
G1 X14.182 Y2.494 E0.1755
G1 X13.972 Y3.481 E0.1923
G1 X13.695 Y4.451 E0.2091
G1 X13.535 Y4.915 E0.2173
G1 X13.156 Y5.855 E0.2341
G1 X12.945 Y6.307 E0.2424
G1 X12.471 Y7.199 E0.2592
G1 X11.936 Y8.056 E0.2760
G1 X11.654 Y8.459 E0.2842
G1 X11.028 Y9.259 E0.3011
G1 X10.705 Y9.631 E0.3093
G1 X10.004 Y10.357 E0.3261
G1 X9.253 Y11.034 E0.3429
G1 X8.866 Y11.347 E0.3511
G1 X8.469 Y11.646 E0.3594
G1 X7.627 Y12.214 E0.3763
G1 X7.205 Y12.467 E0.3845
G1 X6.313 Y12.942 E0.4013
G1 X5.395 Y13.351 E0.4180
G1 X4.446 Y13.696 E0.4348
G1 X3.970 Y13.842 E0.4431
G1 X3.489 Y13.971 E0.4514
G1 X2.501 Y14.181 E0.4682
G1 X1.501 Y14.321 E0.4850
G1 X1.010 Y14.364 E0.4931
G1 X-0.000 Y14.400 E0.5100
G1 X-1.009 Y14.364 E0.5268
G1 X-1.500 Y14.322 E0.5349
G1 X-2.505 Y14.180 E0.5518
G1 X-2.988 Y14.086 E0.5600
G1 X-3.973 Y13.841 E0.5769
G1 X-4.449 Y13.696 E0.5852
G1 X-4.918 Y13.534 E0.5934
G1 X-5.855 Y13.155 E0.6102
G1 X-6.763 Y12.713 E0.6270
G1 X-7.198 Y12.472 E0.6353
G1 X-7.624 Y12.216 E0.6436
G1 X-8.461 Y11.651 E0.6603
G1 X-9.258 Y11.030 E0.6771
G1 X-9.633 Y10.703 E0.6854
G1 X-9.997 Y10.364 E0.6937
G1 X-10.702 Y9.634 E0.7106
G1 X-11.025 Y9.263 E0.7188
G1 X-11.647 Y8.467 E0.7355
G1 X-12.209 Y7.635 E0.7523
G1 X-12.714 Y6.760 E0.7691
G1 X-12.938 Y6.322 E0.7772
G1 X-13.351 Y5.394 E0.7941
G1 X-13.530 Y4.930 E0.8024
G1 X-13.692 Y4.460 E0.8107
G1 X-13.970 Y3.490 E0.8274
G1 X-14.181 Y2.500 E0.8443
G1 X-14.321 Y1.505 E0.8610
G1 X-14.391 Y0.497 E0.8778
G1 X-14.400 Y0.005 E0.8860
G1 X-14.365 Y-1.007 E0.9028
G1 X-14.321 Y-1.503 E0.9111
G1 X-14.261 Y-1.996 E0.9194
G1 X-14.085 Y-2.991 E0.9362
G1 X-13.841 Y-3.972 E0.9530
G1 X-13.696 Y-4.447 E0.9612
G1 X-13.534 Y-4.918 E0.9695
G1 X-13.156 Y-5.854 E0.9863
G1 X-12.713 Y-6.763 E1.0031
G1 X-12.475 Y-7.193 E1.0113
G1 X-11.935 Y-8.057 E1.0282
G1 X-11.651 Y-8.462 E1.0365
G1 X-11.352 Y-8.859 E1.0447
G1 X-10.703 Y-9.633 E1.0615
G1 X-10.001 Y-10.360 E1.0783
G1 X-9.641 Y-10.696 E1.0865
G1 X-8.867 Y-11.346 E1.1033
G1 X-8.050 Y-11.940 E1.1201
G1 X-7.633 Y-12.211 E1.1284
G1 X-7.206 Y-12.467 E1.1367
G1 X-6.314 Y-12.941 E1.1535
G1 X-5.391 Y-13.352 E1.1703
G1 X-4.932 Y-13.529 E1.1784
G1 X-3.966 Y-13.843 E1.1953
G1 X-3.491 Y-13.970 E1.2035
G1 X-2.503 Y-14.180 E1.2203
G1 X-1.502 Y-14.321 E1.2371
G1 X-1.006 Y-14.365 E1.2454
G1 X-0.510 Y-14.391 E1.2537
G1 X0.499 Y-14.391 E1.2705
G1 X0.991 Y-14.366 E1.2786
G1 X2.001 Y-14.260 E1.2955
G1 X2.487 Y-14.183 E1.3037
G1 X3.480 Y-13.973 E1.3206
G1 X3.956 Y-13.846 E1.3288
G1 X4.917 Y-13.534 E1.3456
G1 X5.849 Y-13.158 E1.3623
G1 X6.757 Y-12.716 E1.3791
G1 X7.188 Y-12.477 E1.3873
G1 X8.050 Y-11.940 E1.4042
G1 X8.457 Y-11.655 E1.4124
G1 X8.855 Y-11.356 E1.4207
G1 X9.633 Y-10.703 E1.4376
G1 X9.993 Y-10.368 E1.4458
G1 X10.699 Y-9.638 E1.4627
G1 X11.022 Y-9.266 E1.4709
G1 X11.644 Y-8.471 E1.4877
G1 X12.207 Y-7.638 E1.5044
; outer perimeter
G1 X12.546 Y-7.850 F3200
G92 E0
G1 X13.068 Y-6.948 E0.0173 F1280
G1 X13.301 Y-6.491 E0.0259
G1 X13.722 Y-5.544 E0.0431
G1 X13.906 Y-5.065 E0.0516
G1 X14.226 Y-4.081 E0.0688
G1 X14.477 Y-3.077 E0.0860
G1 X14.575 Y-2.571 E0.0946
G1 X14.655 Y-2.063 E0.1032
G1 X14.764 Y-1.032 E0.1204
G1 X14.791 Y-0.520 E0.1289
G1 X14.791 Y0.515 E0.1462
G1 X14.719 Y1.547 E0.1634
G1 X14.656 Y2.058 E0.1719
G1 X14.576 Y2.567 E0.1805
G1 X14.361 Y3.578 E0.1977
G1 X14.076 Y4.571 E0.2148
G1 X13.910 Y5.055 E0.2234
G1 X13.523 Y6.014 E0.2406
G1 X13.303 Y6.485 E0.2492
G1 X12.818 Y7.399 E0.2664
G1 X12.269 Y8.277 E0.2836
G1 X11.975 Y8.697 E0.2922
G1 X11.337 Y9.514 E0.3094
G1 X11.000 Y9.901 E0.3179
G1 X10.282 Y10.645 E0.3351
G1 X9.513 Y11.338 E0.3523
G1 X9.113 Y11.662 E0.3609
G1 X8.701 Y11.972 E0.3695
G1 X7.842 Y12.551 E0.3867
G1 X7.402 Y12.816 E0.3952
G1 X6.489 Y13.302 E0.4124
G1 X5.545 Y13.722 E0.4296
G1 X4.573 Y14.076 E0.4468
G1 X4.080 Y14.226 E0.4554
G1 X3.583 Y14.360 E0.4640
G1 X2.571 Y14.575 E0.4812
G1 X1.546 Y14.719 E0.4984
G1 X1.035 Y14.764 E0.5069
G1 X-0.000 Y14.800 E0.5241
G1 X-1.034 Y14.764 E0.5413
G1 X-1.545 Y14.719 E0.5499
G1 X-2.571 Y14.575 E0.5671
G1 X-3.074 Y14.477 E0.5756
G1 X-4.080 Y14.227 E0.5929
G1 X-4.572 Y14.076 E0.6014
G1 X-5.059 Y13.909 E0.6100
G1 X-6.018 Y13.521 E0.6272
G1 X-6.948 Y13.068 E0.6444
G1 X-7.398 Y12.818 E0.6529
G1 X-7.839 Y12.553 E0.6615
G1 X-8.697 Y11.975 E0.6787
G1 X-9.512 Y11.338 E0.6959
G1 X-9.901 Y11.001 E0.7045
G1 X-10.277 Y10.650 E0.7130
G1 X-10.997 Y9.905 E0.7303
G1 X-11.334 Y9.518 E0.7388
G1 X-11.971 Y8.703 E0.7560
G1 X-12.548 Y7.847 E0.7732
G1 X-13.066 Y6.951 E0.7904
G1 X-13.299 Y6.494 E0.7989
G1 X-13.721 Y5.548 E0.8161
G1 X-13.905 Y5.067 E0.8247
G1 X-14.073 Y4.581 E0.8332
G1 X-14.359 Y3.587 E0.8504
G1 X-14.575 Y2.570 E0.8677
G1 X-14.719 Y1.547 E0.8849
G1 X-14.791 Y0.515 E0.9021
G1 X-14.800 Y0.002 E0.9106
G1 X-14.764 Y-1.031 E0.9278
G1 X-14.719 Y-1.544 E0.9364
G1 X-14.657 Y-2.055 E0.9450
G1 X-14.477 Y-3.074 E0.9622
G1 X-14.227 Y-4.078 E0.9794
G1 X-14.076 Y-4.571 E0.9879
G1 X-13.909 Y-5.058 E0.9965
G1 X-13.521 Y-6.017 E1.0137
G1 X-13.068 Y-6.947 E1.0309
G1 X-12.819 Y-7.396 E1.0395
G1 X-12.269 Y-8.278 E1.0567
G1 X-11.975 Y-8.697 E1.0653
G1 X-11.665 Y-9.108 E1.0738
G1 X-11.000 Y-9.901 E1.0910
G1 X-10.281 Y-10.646 E1.1082
G1 X-9.906 Y-10.996 E1.1168
G1 X-9.114 Y-11.661 E1.1340
G1 X-8.277 Y-12.269 E1.1512
G1 X-7.845 Y-12.550 E1.1597
G1 X-7.403 Y-12.815 E1.1683
G1 X-6.490 Y-13.301 E1.1855
G1 X-5.545 Y-13.722 E1.2027
G1 X-5.066 Y-13.906 E1.2113
G1 X-4.080 Y-14.226 E1.2285
G1 X-3.584 Y-14.359 E1.2370
G1 X-2.572 Y-14.575 E1.2542
G1 X-1.548 Y-14.719 E1.2714
G1 X-1.034 Y-14.764 E1.2800
G1 X-0.520 Y-14.791 E1.2886
G1 X0.510 Y-14.791 E1.3057
G1 X1.022 Y-14.764 E1.3142
G1 X2.053 Y-14.657 E1.3315
G1 X2.560 Y-14.577 E1.3400
G1 X3.574 Y-14.362 E1.3572
G1 X4.069 Y-14.229 E1.3658
G1 X5.054 Y-13.910 E1.3830
G1 X6.012 Y-13.524 E1.4002
G1 X6.942 Y-13.071 E1.4174
G1 X7.391 Y-12.822 E1.4259
G1 X8.270 Y-12.273 E1.4431
G1 X8.692 Y-11.978 E1.4517
G1 X9.104 Y-11.669 E1.4603
G1 X9.898 Y-11.003 E1.4775
G1 X10.273 Y-10.653 E1.4860
G1 X10.994 Y-9.908 E1.5033
G1 X11.331 Y-9.521 E1.5118
G1 X11.968 Y-8.706 E1.5290
G1 X12.546 Y-7.850 E1.5462
; solid layer
G1 X7.293 Y-11.940 F3200
G92 E0
G1 X11.950 Y-7.284 E0.1095 F1280
G1 X12.364 Y-6.566 E0.1233
G1 X12.578 Y-6.146 E0.1311
G1 X12.624 Y-6.044 E0.1330
G1 X6.055 Y-12.613 E0.2875
G1 X5.686 Y-12.792 E0.2943
G1 X5.055 Y-13.047 E0.3056
G1 X13.057 Y-5.045 E0.4938
G1 X13.152 Y-4.798 E0.4982
G1 X13.351 Y-4.185 E0.5090
G1 X4.186 Y-13.351 E0.7245
G1 X3.843 Y-13.462 E0.7305
G1 X3.387 Y-13.584 E0.7383
G1 X13.572 Y-3.399 E0.9779
G1 X13.695 Y-2.904 E0.9864
G1 X13.742 Y-2.663 E0.9904
G1 X2.669 Y-13.736 E1.2509
G1 X2.415 Y-13.790 E1.2552
G1 X1.981 Y-13.858 E1.2625
G1 X13.858 Y-1.981 E1.5418
G1 X13.862 Y-1.959 E1.5422
G1 X13.926 Y-1.347 E1.5524
G1 X1.347 Y-13.926 E1.8483
G1 X0.960 Y-13.967 E1.8547
G1 X0.729 Y-13.979 E1.8586
G1 X13.979 Y-0.729 E2.1702
G1 X13.991 Y-0.498 E2.1740
G1 X13.991 Y-0.151 E2.1798
G1 X0.151 Y-13.991 E2.5053
G1 X-0.414 Y-13.991 E2.5147
G1 X13.991 Y0.414 E2.8535
G1 X13.991 Y0.487 E2.8547
G1 X13.959 Y0.948 E2.8624
G1 X-0.956 Y-13.967 E3.2131
G1 X-0.978 Y-13.966 E3.2135
G1 X-1.457 Y-13.924 E3.2215
G1 X-1.476 Y-13.921 E3.2218
G1 X13.922 Y1.476 E3.5839
G1 X13.864 Y1.947 E3.5918
G1 X13.859 Y1.979 E3.5924
G1 X-1.972 Y-13.851 E3.9647
G1 X-2.433 Y-13.786 E3.9724
G1 X-2.466 Y-13.779 E3.9730
G1 X13.779 Y2.466 E4.3550
G1 X13.680 Y2.932 E4.3630
G1 X-2.932 Y-13.680 E4.7537
G1 X-3.397 Y-13.581 E4.7616
G1 X13.580 Y3.398 E5.1609
G1 X13.454 Y3.838 E5.1685
G1 X-3.845 Y-13.461 E5.5753
G1 X-3.853 Y-13.459 E5.5755
G1 X-4.272 Y-13.323 E5.5828
G1 X13.328 Y4.277 E5.9967
G1 X13.313 Y4.330 E5.9977
G1 X13.186 Y4.700 E6.0042
G1 X-4.699 Y-13.184 E6.4248
G1 X-4.798 Y-13.152 E6.4265
G1 X-5.112 Y-13.031 E6.4321
G1 X13.026 Y5.107 E6.8587
G1 X12.864 Y5.510 E6.8659
G1 X-5.508 Y-12.862 E7.2980
G1 X-5.900 Y-12.688 E7.3051
G1 X12.692 Y5.904 E7.7424
G1 X12.587 Y6.128 E7.7465
G1 X12.505 Y6.283 E7.7494
G1 X-6.283 Y-12.505 E8.1912
G1 X-6.652 Y-12.309 E8.1982
G1 X12.309 Y6.652 E8.6441
G1 X12.124 Y6.999 E8.6507
G1 X12.111 Y7.020 E8.6511
