; G-Code generated by Simplify3D(R) Version 4.0.0
; Oct 28, 2018 at 5:05:27 PM
; Settings Summary
;   processName,Process3
;   applyToModels,CPtop_thin_1.2mm
;   profileName,MP Mini Delta23 (modified)
;   profileVersion,2017-10-15 16:31:22
;   baseProfile,Monoprice MP Mini Delta
;   printMaterial,eSun PLA+ - Solid Red
;   printQuality,0.08
;   printExtruders,
;   extruderName,Primary Extruder
;   extruderToolheadNumber,0
;   extruderDiameter,0.4
;   extruderAutoWidth,0
;   extruderWidth,0.4
;   extrusionMultiplier,1
;   extruderUseRetract,1
;   extruderRetractionDistance,8
;   extruderExtraRestartDistance,0
;   extruderRetractionZLift,0
;   extruderRetractionSpeed,3000
;   extruderUseCoasting,0
;   extruderCoastingDistance,0.2
;   extruderUseWipe,0
;   extruderWipeDistance,5
;   primaryExtruder,0
;   layerHeight,0.3
;   topSolidLayers,5
;   bottomSolidLayers,5
;   perimeterOutlines,2
;   printPerimetersInsideOut,1
;   startPointOption,2
;   startPointOriginX,0
;   startPointOriginY,0
;   sequentialIslands,0
;   spiralVaseMode,0
;   firstLayerHeightPercentage,100
;   firstLayerWidthPercentage,100
;   firstLayerUnderspeed,0.4
;   useRaft,0
;   raftExtruder,0
;   raftTopLayers,3
;   raftBaseLayers,1
;   raftOffset,2
;   raftSeparationDistance,0.1
;   raftTopInfill,100
;   aboveRaftSpeedMultiplier,0.3
;   useSkirt,0
;   skirtExtruder,0
;   skirtLayers,4
;   skirtOutlines,12
;   skirtOffset,0
;   usePrimePillar,0
;   primePillarExtruder,999
;   primePillarWidth,6
;   primePillarLocation,0
;   primePillarSpeedMultiplier,1
;   useOozeShield,0
;   oozeShieldExtruder,999
;   oozeShieldOffset,2
;   oozeShieldOutlines,1
;   oozeShieldSidewallShape,1
;   oozeShieldSidewallAngle,30
;   oozeShieldSpeedMultiplier,1
;   infillExtruder,0
;   internalInfillPattern,Full Honeycomb
;   externalInfillPattern,Rectilinear
;   infillPercentage,15
;   outlineOverlapPercentage,0
;   infillExtrusionWidthPercentage,100
;   minInfillLength,5
;   infillLayerInterval,1
;   internalInfillAngles,0,120,-120
;   overlapInternalInfillAngles,0
;   externalInfillAngles,45,-45
;   generateSupport,1
;   supportExtruder,0
;   supportInfillPercentage,30
;   supportExtraInflation,0.2
;   supportBaseLayers,0
;   denseSupportExtruder,0
;   denseSupportLayers,0
;   denseSupportInfillPercentage,70
;   supportLayerInterval,1
;   supportHorizontalPartOffset,0.4
;   supportUpperSeparationLayers,1
;   supportLowerSeparationLayers,1
;   supportType,0
;   supportGridSpacing,1
;   maxOverhangAngle,45
;   supportAngles,-45
;   temperatureName,Primary Extruder,Heated Bed
;   temperatureNumber,0,0
;   temperatureSetpointCount,1,1
;   temperatureSetpointLayers,1,1
;   temperatureSetpointTemperatures,200,30
;   temperatureStabilizeAtStartup,1,1
;   temperatureHeatedBed,0,1
;   temperatureRelayBetweenLayers,0,0
;   temperatureRelayBetweenLoops,0,0
;   fanLayers,1,2,10
;   fanSpeeds,0,60,100
;   blipFanToFullPower,1
;   adjustSpeedForCooling,1
;   minSpeedLayerTime,15
;   minCoolingSpeedSlowdown,20
;   increaseFanForCooling,0
;   minFanLayerTime,45
;   maxCoolingFanSpeed,100
;   increaseFanForBridging,0
;   bridgingFanSpeed,100
;   use5D,1
;   relativeEdistances,0
;   allowEaxisZeroing,1
;   independentExtruderAxes,0
;   includeM10123,0
;   stickySupport,1
;   applyToolheadOffsets,0
;   gcodeXoffset,0
;   gcodeYoffset,0
;   gcodeZoffset,0.39
;   overrideMachineDefinition,1
;   machineTypeOverride,1
;   strokeXoverride,77.8
;   strokeYoverride,77.8
;   strokeZoverride,120
;   originOffsetXoverride,38.9
;   originOffsetYoverride,38.9
;   originOffsetZoverride,0
;   homeXdirOverride,0
;   homeYdirOverride,0
;   homeZdirOverride,-1
;   flipXoverride,1
;   flipYoverride,-1
;   flipZoverride,1
;   toolheadOffsets,0,0|0,0|0,0|0,0|0,0|0,0
;   overrideFirmwareConfiguration,1
;   firmwareTypeOverride,RepRap (Marlin/Repetier/Sprinter)
;   GPXconfigOverride,r2
;   baudRateOverride,115200
;   overridePrinterModels,1
;   printerModelsOverride,MP_Mini_Delta_Platform.stl
;   startingGcode,G90 ; absolute positioning - this line was added in case Cura doesn't include it by default,M82 ; set extruder to absolute mode - this line was added in case Cura doesn't include it by default (may not be needed),M107; start with the fan off (I don't think this is possible),G28 ; Start from home position,G29 C-0.8 Z0.3 ; probe the bed at 3 points with a 0.3mm overall vertical offset and an additional -0.8mm center offset ,G1 Z15.0 F4800  ; move the nozzle up 15mm,G92 E0 ; reset extrusion distance,G1 F200 E3 ; extrude 3mm of feed stock,G92 E0 ; reset extrusion distance again,G1 F4800
;   layerChangeGcode,
;   retractionGcode,
;   toolChangeGcode,
;   endingGcode,M104 S0 ; turn off hotend heater,M140 S0 ; turn off bed heater,G91 ; Switch to use Relative Coordinates,G1 E-3 F700 ; retract the filament a bit before lifting the nozzle to release some of the pressure,G1 Z2 F1000 ; raise platform 2mm from current position,G1 E-2 F700 ; retract filament even more,G90 ; Switch back to using absolute coordinates,G28 X ; Return to home position. Without an X Y or Z after G28 the print completion time will not be displayed on the Mini Delta's display.,M84 ; disable motors,G4 S360 ; pause for 360 seconds to keep fan running to cool hotend and allow the fan to be turned off,M107 ; turn off fan. Some say M107 doesn't work for them but if the hotend is cool enough it should work,;M106 S1 ; turn off fan. Remove the semicolon in front of M106 if M107 doesn't work for you
;   exportFileFormat,gcode
;   celebration,0
;   celebrationSong,Random Song
;   postProcessing,
;   defaultSpeed,3200
;   outlineUnderspeed,1
;   solidInfillUnderspeed,1
;   supportUnderspeed,1
;   rapidXYspeed,3200
;   rapidZspeed,1002
;   minBridgingArea,50
;   bridgingExtraInflation,0
;   bridgingExtrusionMultiplier,0.9
;   bridgingSpeedMultiplier,1
;   useFixedBridgingAngle,0
;   fixedBridgingAngle,0
;   applyBridgingToPerimeters,0
;   filamentDiameters,1.75|1.75|1.75|1.75|1.75|1.75
;   filamentPricesPerKg,48|25|25|25|25|25
;   filamentDensities,1.25|1.25|1.25|1.25|1.25|1.25
;   useMinPrintHeight,0
;   minPrintHeight,42
;   useMaxPrintHeight,0
;   maxPrintHeight,0
;   useDiaphragm,0
;   diaphragmLayerInterval,20
;   robustSlicing,1
;   mergeAllIntoSolid,0
;   onlyRetractWhenCrossingOutline,1
;   retractBetweenLayers,1
;   useRetractionMinTravel,0
;   retractionMinTravel,3
;   retractWhileWiping,1
;   onlyWipeOutlines,1
;   avoidCrossingOutline,0
;   maxMovementDetourFactor,5
;   toolChangeRetractionDistance,12
;   toolChangeExtraRestartDistance,-0.5
;   toolChangeRetractionSpeed,600
;   externalThinWallType,1
;   internalThinWallType,1
;   thinWallAllowedOverlapPercentage,100
;   singleExtrusionMinLength,0.4
;   singleExtrusionMinPrintingWidthPercentage,50
;   singleExtrusionMaxPrintingWidthPercentage,200
;   singleExtrusionEndpointExtension,0.2
;   horizontalSizeCompensation,0
G90
M82
M106 S255
G4 P500
M106 S0
M140 S30
M190 S30
M104 S200 T0
M109 S200 T0
G90 ; absolute positioning - this line was added in case Cura doesn't include it by default
M82 ; set extruder to absolute mode - this line was added in case Cura doesn't include it by default (may not be needed)
M107; start with the fan off (I don't think this is possible)
G28 ; Start from home position
G29 C-0.8 Z0.3 ; probe the bed at 3 points with a 0.3mm overall vertical offset and an additional -0.8mm center offset 
G1 Z15.0 F4800  ; move the nozzle up 15mm
G92 E0 ; reset extrusion distance
G1 F200 E3 ; extrude 3mm of feed stock
G92 E0 ; reset extrusion distance again
G1 F4800
G92 E0
G1 E-8.0000 F3000
G1 Z0.690 F1002
; process Process3
; layer 1, Z = 0.300
T0
; tool H0.300 W0.400
; inner perimeter
G1 X0.000 Y20.307 F3200
G1 E0.0000 F900
G92 E0
G1 X-17.587 Y10.154 E1.0131 F1280
G1 X-17.587 Y-10.154 E2.0263
G1 X0.000 Y-20.307 E3.0394
G1 X17.587 Y-10.154 E4.0525
G1 X17.587 Y10.154 E5.0656
G1 X0.000 Y20.307 E6.0788
; outer perimeter
G1 X0.000 Y20.769 F3200
G92 E0
G1 X-17.987 Y10.385 E1.0362 F1280
G1 X-17.987 Y-10.385 E2.0723
G1 X0.000 Y-20.769 E3.1085
G1 X17.987 Y-10.385 E4.1447
G1 X17.987 Y10.385 E5.1809
G1 X0.000 Y20.769 E6.2170
; solid layer
G1 X-15.952 Y10.636 F3200
G92 E0
G1 X-17.187 Y9.401 E0.0871 F1280
G1 X-17.187 Y8.835 E0.1154
G1 X-14.613 Y11.408 E0.2969
G1 X-13.275 Y12.181 E0.3740
G1 X-17.187 Y8.269 E0.6500
G1 X-17.187 Y7.704 E0.6783
G1 X-11.936 Y12.954 E1.0487
G1 X-10.598 Y13.727 E1.1258
G1 X-17.187 Y7.138 E1.5907
G1 X-17.187 Y6.572 E1.6189
G1 X-9.259 Y14.499 E2.1782
G1 X-7.921 Y15.272 E2.2553
G1 X-17.187 Y6.007 E2.9090
G1 X-17.187 Y5.441 E2.9372
G1 X-6.583 Y16.045 E3.6854
G1 X-5.244 Y16.818 E3.7625
G1 X-17.187 Y4.875 E4.6051
G1 X-17.187 Y4.310 E4.6333
G1 X-3.906 Y17.590 E5.5704
G1 X-2.567 Y18.363 E5.6475
G1 X-17.187 Y3.744 E6.6789
G1 X-17.187 Y3.178 E6.7072
G1 X-1.229 Y19.136 E7.8331
G1 X0.000 Y19.845 E7.9039
G1 X0.029 Y19.828 E7.9056
G1 X-17.187 Y2.612 E9.1202
G1 X-17.187 Y2.047 E9.1484
G1 X0.388 Y19.621 E10.3884
G1 X0.747 Y19.414 E10.4091
G1 X-17.187 Y1.481 E11.6744
G1 X-17.187 Y0.915 E11.7026
G1 X1.105 Y19.207 E12.9932
G1 X1.464 Y19.000 E13.0138
G1 X-17.187 Y0.350 E14.3297
G1 X-17.187 Y-0.216 E14.3579
G1 X1.823 Y18.793 E15.6991
G1 X2.181 Y18.586 E15.7198
G1 X-17.187 Y-0.782 E17.0863
G1 X-17.187 Y-1.347 E17.1145
G1 X2.540 Y18.379 E18.5063
G1 X2.898 Y18.172 E18.5270
G1 X-17.187 Y-1.913 E19.9441
G1 X-17.187 Y-2.479 E19.9723
G1 X3.257 Y17.965 E21.4147
G1 X3.616 Y17.758 E21.4354
G1 X-17.187 Y-3.044 E22.9031
G1 X-17.187 Y-3.610 E22.9313
G1 X3.974 Y17.551 E24.4243
G1 X4.333 Y17.344 E24.4450
G1 X-17.187 Y-4.176 E25.9633
G1 X-17.187 Y-4.741 E25.9915
G1 X4.692 Y17.137 E27.5351
G1 X5.050 Y16.930 E27.5558
G1 X-17.187 Y-5.307 E29.1247
G1 X-17.187 Y-5.873 E29.1529
G1 X5.409 Y16.723 E30.7471
G1 X5.767 Y16.515 E30.7678
G1 X-17.187 Y-6.439 E32.3873
G1 X-17.187 Y-7.004 E32.4155
G1 X6.126 Y16.308 E34.0604
G1 X6.485 Y16.101 E34.0810
G1 X-17.187 Y-7.570 E35.7512
G1 X-17.187 Y-8.136 E35.7794
G1 X6.843 Y15.894 E37.4748
G1 X7.202 Y15.687 E37.4955
G1 X-17.187 Y-8.701 E39.2162
G1 X-17.187 Y-9.267 E39.2444
G1 X7.561 Y15.480 E40.9905
G1 X7.919 Y15.273 E41.0111
G1 X-17.187 Y-9.833 E42.7825
G1 X-17.187 Y-9.923 E42.7870
G1 X-16.885 Y-10.097 E42.8044
G1 X8.278 Y15.066 E44.5797
G1 X8.636 Y14.859 E44.6004
G1 X-16.526 Y-10.304 E46.3758
G1 X-16.168 Y-10.511 E46.3964
G1 X8.995 Y14.652 E48.1718
G1 X9.354 Y14.445 E48.1925
G1 X-15.809 Y-10.718 E49.9678
G1 X-15.450 Y-10.925 E49.9885
G1 X9.712 Y14.238 E51.7639
G1 X10.071 Y14.031 E51.7845
G1 X-15.092 Y-11.132 E53.5599
G1 X-14.733 Y-11.339 E53.5806
G1 X10.430 Y13.824 E55.3559
G1 X10.788 Y13.617 E55.3766
G1 X-14.375 Y-11.546 E57.1520
G1 X-14.016 Y-11.753 E57.1726
G1 X11.147 Y13.410 E58.9480
G1 X11.506 Y13.203 E58.9687
G1 X-13.657 Y-11.960 E60.7440
G1 X-13.299 Y-12.167 E60.7647
G1 X11.864 Y12.996 E62.5401
G1 X12.223 Y12.788 E62.5607
G1 X-12.940 Y-12.374 E64.3361
G1 X-12.581 Y-12.581 E64.3567
G1 X12.581 Y12.581 E66.1321
G1 X12.940 Y12.374 E66.1528
G1 X-12.223 Y-12.788 E67.9282
G1 X-11.864 Y-12.996 E67.9488
G1 X13.299 Y12.167 E69.7242
G1 X13.657 Y11.960 E69.7448
G1 X-11.506 Y-13.203 E71.5202
G1 X-11.147 Y-13.410 E71.5409
G1 X14.016 Y11.753 E73.3163
G1 X14.375 Y11.546 E73.3369
G1 X-10.788 Y-13.617 E75.1123
G1 X-10.430 Y-13.824 E75.1329
G1 X14.733 Y11.339 E76.9083
G1 X15.092 Y11.132 E76.9290
G1 X-10.071 Y-14.031 E78.7044
G1 X-9.712 Y-14.238 E78.7250
G1 X15.450 Y10.925 E80.5004
G1 X15.809 Y10.718 E80.5210
G1 X-9.354 Y-14.445 E82.2964
G1 X-8.995 Y-14.652 E82.3171
G1 X16.168 Y10.511 E84.0924
G1 X16.526 Y10.304 E84.1131
G1 X-8.636 Y-14.859 E85.8885
G1 X-8.278 Y-15.066 E85.9091
G1 X16.885 Y10.097 E87.6845
G1 X17.187 Y9.923 E87.7019
G1 X17.187 Y9.833 E87.7064
G1 X-7.919 Y-15.273 E89.4777
G1 X-7.561 Y-15.480 E89.4984
G1 X17.187 Y9.267 E91.2444
G1 X17.187 Y8.701 E91.2726
G1 X-7.202 Y-15.687 E92.9934
G1 X-6.843 Y-15.894 E93.0140
G1 X17.187 Y8.136 E94.7095
G1 X17.187 Y7.570 E94.7377
G1 X-6.485 Y-16.101 E96.4078
G1 X-6.126 Y-16.308 E96.4285
G1 X17.187 Y7.004 E98.0733
G1 X17.187 Y6.438 E98.1015
G1 X-5.767 Y-16.515 E99.7211
G1 X-5.409 Y-16.723 E99.7417
G1 X17.187 Y5.873 E101.3360
G1 X17.187 Y5.307 E101.3642
G1 X-5.050 Y-16.930 E102.9331
G1 X-4.692 Y-17.137 E102.9538
G1 X17.187 Y4.741 E104.4974
G1 X17.187 Y4.176 E104.5256
G1 X-4.333 Y-17.344 E106.0439
G1 X-3.974 Y-17.551 E106.0646
G1 X17.187 Y3.610 E107.5576
G1 X17.187 Y3.044 E107.5858
G1 X-3.616 Y-17.758 E109.0535
G1 X-3.257 Y-17.965 E109.0742
G1 X17.187 Y2.479 E110.5166
G1 X17.187 Y1.913 E110.5448
G1 X-2.898 Y-18.172 E111.9619
G1 X-2.540 Y-18.379 E111.9826
G1 X17.187 Y1.347 E113.3743
G1 X17.187 Y0.782 E113.4026
G1 X-2.181 Y-18.586 E114.7691
G1 X-1.822 Y-18.793 E114.7897
G1 X17.187 Y0.216 E116.1309
G1 X17.187 Y-0.350 E116.1591
G1 X-1.464 Y-19.000 E117.4750
G1 X-1.105 Y-19.207 E117.4957
G1 X17.187 Y-0.915 E118.7863
G1 X17.187 Y-1.481 E118.8145
G1 X-0.747 Y-19.414 E120.0798
G1 X-0.388 Y-19.621 E120.1004
G1 X17.187 Y-2.047 E121.3404
G1 X17.187 Y-2.612 E121.3686
G1 X-0.029 Y-19.828 E122.5833
G1 X0.000 Y-19.845 E122.5850
G1 X1.229 Y-19.136 E122.6558
G1 X17.187 Y-3.178 E123.7817
G1 X17.187 Y-3.744 E123.8099
G1 X2.567 Y-18.363 E124.8414
G1 X3.906 Y-17.590 E124.9185
G1 X17.187 Y-4.310 E125.8555
G1 X17.187 Y-4.875 E125.8837
G1 X5.244 Y-16.818 E126.7263
G1 X6.583 Y-16.045 E126.8034
G1 X17.187 Y-5.441 E127.5516
G1 X17.187 Y-6.007 E127.5798
G1 X7.921 Y-15.272 E128.2335
G1 X9.259 Y-14.499 E128.3106
G1 X17.187 Y-6.572 E128.8699
G1 X17.187 Y-7.138 E128.8982
G1 X10.598 Y-13.727 E129.3630
G1 X11.936 Y-12.954 E129.4401
G1 X17.187 Y-7.704 E129.8106
G1 X17.187 Y-8.269 E129.8388
G1 X13.275 Y-12.181 E130.1148
G1 X14.613 Y-11.408 E130.1919
G1 X17.187 Y-8.835 E130.3734
G1 X17.187 Y-9.401 E130.4017
G1 X15.952 Y-10.636 E130.4888
G92 E0
G1 E-8.0000 F3000
; layer 2, Z = 0.600
M106 S255
G4 P500
M106 S153
; inner perimeter
G1 X17.587 Y-10.154 F3200
G1 Z0.990 F1002
G1 E0.0000 F3000
G92 E0
G1 X17.587 Y10.154 E1.0131 F3200
G1 X0.000 Y20.307 E2.0263
G1 X-17.587 Y10.154 E3.0394
G1 X-17.587 Y-10.154 E4.0525
G1 X0.000 Y-20.307 E5.0656
G1 X17.587 Y-10.154 E6.0788
; outer perimeter
G1 X17.987 Y-10.385 F3200
G92 E0
G1 X17.987 Y10.385 E1.0362 F3200
G1 X0.000 Y20.769 E2.0723
G1 X-17.987 Y10.385 E3.1085
G1 X-17.987 Y-10.385 E4.1447
G1 X0.000 Y-20.769 E5.1809
G1 X17.987 Y-10.385 E6.2170
; solid layer
G1 X17.187 Y9.401 F3200
G92 E0
G1 X15.952 Y10.636 E0.0871 F3200
G1 X14.613 Y11.408 E0.1642
G1 X17.187 Y8.835 E0.3458
G1 X17.187 Y8.269 E0.3740
G1 X13.275 Y12.181 E0.6500
G1 X11.936 Y12.954 E0.7271
G1 X17.187 Y7.704 E1.0975
G1 X17.187 Y7.138 E1.1258
G1 X10.598 Y13.727 E1.5906
G1 X9.260 Y14.499 E1.6677
G1 X17.187 Y6.572 E2.2270
G1 X17.187 Y6.007 E2.2552
G1 X7.921 Y15.272 E2.9090
G1 X6.583 Y16.045 E2.9861
G1 X17.187 Y5.441 E3.7342
G1 X17.187 Y4.875 E3.7625
G1 X5.244 Y16.818 E4.6050
G1 X3.906 Y17.590 E4.6822
G1 X17.187 Y4.310 E5.6192
G1 X17.187 Y3.744 E5.6474
G1 X2.567 Y18.363 E6.6789
G1 X1.229 Y19.136 E6.7560
G1 X17.187 Y3.178 E7.8819
G1 X17.187 Y2.612 E7.9101
G1 X-0.029 Y19.828 E9.1248
G1 X-0.388 Y19.621 E9.1454
G1 X17.187 Y2.047 E10.3854
G1 X17.187 Y1.481 E10.4136
G1 X-0.747 Y19.414 E11.6789
G1 X-1.105 Y19.207 E11.6995
G1 X17.187 Y0.915 E12.9901
G1 X17.187 Y0.350 E13.0184
G1 X-1.464 Y19.000 E14.3342
G1 X-1.822 Y18.793 E14.3549
G1 X17.187 Y-0.216 E15.6961
G1 X17.187 Y-0.782 E15.7243
G1 X-2.181 Y18.586 E17.0908
G1 X-2.540 Y18.379 E17.1115
G1 X17.187 Y-1.347 E18.5033
G1 X17.187 Y-1.913 E18.5315
G1 X-2.898 Y18.172 E19.9486
G1 X-3.257 Y17.965 E19.9692
G1 X17.187 Y-2.479 E21.4116
G1 X17.187 Y-3.044 E21.4399
G1 X-3.616 Y17.758 E22.9076
G1 X-3.974 Y17.551 E22.9282
G1 X17.187 Y-3.610 E24.4212
G1 X17.187 Y-4.176 E24.4495
G1 X-4.333 Y17.344 E25.9678
G1 X-4.692 Y17.137 E25.9884
G1 X17.187 Y-4.741 E27.5320
G1 X17.187 Y-5.307 E27.5603
G1 X-5.050 Y16.930 E29.1292
G1 X-5.409 Y16.723 E29.1498
G1 X17.187 Y-5.873 E30.7441
G1 X17.187 Y-6.438 E30.7723
G1 X-5.767 Y16.515 E32.3918
G1 X-6.126 Y16.308 E32.4125
G1 X17.187 Y-7.004 E34.0573
G1 X17.187 Y-7.570 E34.0855
G1 X-6.485 Y16.101 E35.7557
G1 X-6.843 Y15.894 E35.7763
G1 X17.187 Y-8.136 E37.4717
G1 X17.187 Y-8.701 E37.5000
