; G-Code generated by Simplify3D(R) Version 4.0.0
; Oct 26, 2018 at 8:15:31 PM
; Settings Summary
;   processName,Process3
;   applyToModels,CPtop_thin
;   profileName,MP Mini Delta23 (modified)
;   profileVersion,2017-10-15 16:31:22
;   baseProfile,Monoprice MP Mini Delta
;   printMaterial,eSun PLA+ - Solid Red
;   printQuality,0.08
;   printExtruders,
;   extruderName,Primary Extruder
;   extruderToolheadNumber,0
;   extruderDiameter,0.4
;   extruderAutoWidth,0
;   extruderWidth,0.4
;   extrusionMultiplier,1
;   extruderUseRetract,1
;   extruderRetractionDistance,8
;   extruderExtraRestartDistance,0
;   extruderRetractionZLift,0
;   extruderRetractionSpeed,3000
;   extruderUseCoasting,0
;   extruderCoastingDistance,0.2
;   extruderUseWipe,0
;   extruderWipeDistance,5
;   primaryExtruder,0
;   layerHeight,0.25
;   topSolidLayers,5
;   bottomSolidLayers,5
;   perimeterOutlines,2
;   printPerimetersInsideOut,1
;   startPointOption,2
;   startPointOriginX,0
;   startPointOriginY,0
;   sequentialIslands,0
;   spiralVaseMode,0
;   firstLayerHeightPercentage,100
;   firstLayerWidthPercentage,100
;   firstLayerUnderspeed,0.4
;   useRaft,0
;   raftExtruder,0
;   raftTopLayers,3
;   raftBaseLayers,1
;   raftOffset,2
;   raftSeparationDistance,0.1
;   raftTopInfill,100
;   aboveRaftSpeedMultiplier,0.3
;   useSkirt,0
;   skirtExtruder,0
;   skirtLayers,4
;   skirtOutlines,12
;   skirtOffset,0
;   usePrimePillar,0
;   primePillarExtruder,999
;   primePillarWidth,6
;   primePillarLocation,0
;   primePillarSpeedMultiplier,1
;   useOozeShield,0
;   oozeShieldExtruder,999
;   oozeShieldOffset,2
;   oozeShieldOutlines,1
;   oozeShieldSidewallShape,1
;   oozeShieldSidewallAngle,30
;   oozeShieldSpeedMultiplier,1
;   infillExtruder,0
;   internalInfillPattern,Full Honeycomb
;   externalInfillPattern,Rectilinear
;   infillPercentage,12
;   outlineOverlapPercentage,0
;   infillExtrusionWidthPercentage,80
;   minInfillLength,5
;   infillLayerInterval,1
;   internalInfillAngles,0,120,-120
;   overlapInternalInfillAngles,0
;   externalInfillAngles,45,-45
;   generateSupport,1
;   supportExtruder,0
;   supportInfillPercentage,30
;   supportExtraInflation,0.2
;   supportBaseLayers,1
;   denseSupportExtruder,0
;   denseSupportLayers,0
;   denseSupportInfillPercentage,70
;   supportLayerInterval,1
;   supportHorizontalPartOffset,0.4
;   supportUpperSeparationLayers,1
;   supportLowerSeparationLayers,1
;   supportType,0
;   supportGridSpacing,1
;   maxOverhangAngle,45
;   supportAngles,45
;   temperatureName,Primary Extruder,Heated Bed
;   temperatureNumber,0,0
;   temperatureSetpointCount,1,1
;   temperatureSetpointLayers,1,1
;   temperatureSetpointTemperatures,200,30
;   temperatureStabilizeAtStartup,1,1
;   temperatureHeatedBed,0,1
;   temperatureRelayBetweenLayers,0,0
;   temperatureRelayBetweenLoops,0,0
;   fanLayers,1,2,10
;   fanSpeeds,0,60,100
;   blipFanToFullPower,1
;   adjustSpeedForCooling,1
;   minSpeedLayerTime,15
;   minCoolingSpeedSlowdown,20
;   increaseFanForCooling,0
;   minFanLayerTime,45
;   maxCoolingFanSpeed,100
;   increaseFanForBridging,0
;   bridgingFanSpeed,100
;   use5D,1
;   relativeEdistances,0
;   allowEaxisZeroing,1
;   independentExtruderAxes,0
;   includeM10123,0
;   stickySupport,1
;   applyToolheadOffsets,0
;   gcodeXoffset,0
;   gcodeYoffset,0
;   gcodeZoffset,0.39
;   overrideMachineDefinition,1
;   machineTypeOverride,1
;   strokeXoverride,77.8
;   strokeYoverride,77.8
;   strokeZoverride,120
;   originOffsetXoverride,38.9
;   originOffsetYoverride,38.9
;   originOffsetZoverride,0
;   homeXdirOverride,0
;   homeYdirOverride,0
;   homeZdirOverride,-1
;   flipXoverride,1
;   flipYoverride,-1
;   flipZoverride,1
;   toolheadOffsets,0,0|0,0|0,0|0,0|0,0|0,0
;   overrideFirmwareConfiguration,1
;   firmwareTypeOverride,RepRap (Marlin/Repetier/Sprinter)
;   GPXconfigOverride,r2
;   baudRateOverride,115200
;   overridePrinterModels,1
;   printerModelsOverride,MP_Mini_Delta_Platform.stl
;   startingGcode,G90 ; absolute positioning - this line was added in case Cura doesn't include it by default,M82 ; set extruder to absolute mode - this line was added in case Cura doesn't include it by default (may not be needed),M107; start with the fan off (I don't think this is possible),G28 ; Start from home position,G29 C-0.8 Z0.3 ; probe the bed at 3 points with a 0.3mm overall vertical offset and an additional -0.8mm center offset ,G1 Z15.0 F4800  ; move the nozzle up 15mm,G92 E0 ; reset extrusion distance,G1 F200 E3 ; extrude 3mm of feed stock,G92 E0 ; reset extrusion distance again,G1 F4800
;   layerChangeGcode,
;   retractionGcode,
;   toolChangeGcode,
;   endingGcode,M104 S0 ; turn off hotend heater,M140 S0 ; turn off bed heater,G91 ; Switch to use Relative Coordinates,G1 E-3 F700 ; retract the filament a bit before lifting the nozzle to release some of the pressure,G1 Z2 F1000 ; raise platform 2mm from current position,G1 E-2 F700 ; retract filament even more,G90 ; Switch back to using absolute coordinates,G28 X ; Return to home position. Without an X Y or Z after G28 the print completion time will not be displayed on the Mini Delta's display.,M84 ; disable motors,G4 S360 ; pause for 360 seconds to keep fan running to cool hotend and allow the fan to be turned off,M107 ; turn off fan. Some say M107 doesn't work for them but if the hotend is cool enough it should work,;M106 S1 ; turn off fan. Remove the semicolon in front of M106 if M107 doesn't work for you
;   exportFileFormat,gcode
;   celebration,0
;   celebrationSong,Random Song
;   postProcessing,
;   defaultSpeed,3200
;   outlineUnderspeed,1
;   solidInfillUnderspeed,1
;   supportUnderspeed,1
;   rapidXYspeed,3200
;   rapidZspeed,1002
;   minBridgingArea,50
;   bridgingExtraInflation,0
;   bridgingExtrusionMultiplier,0.9
;   bridgingSpeedMultiplier,1
;   useFixedBridgingAngle,0
;   fixedBridgingAngle,0
;   applyBridgingToPerimeters,0
;   filamentDiameters,1.75|1.75|1.75|1.75|1.75|1.75
;   filamentPricesPerKg,48|25|25|25|25|25
;   filamentDensities,1.25|1.25|1.25|1.25|1.25|1.25
;   useMinPrintHeight,0
;   minPrintHeight,42
;   useMaxPrintHeight,0
;   maxPrintHeight,0
;   useDiaphragm,0
;   diaphragmLayerInterval,20
;   robustSlicing,1
;   mergeAllIntoSolid,0
;   onlyRetractWhenCrossingOutline,1
;   retractBetweenLayers,1
;   useRetractionMinTravel,0
;   retractionMinTravel,3
;   retractWhileWiping,1
;   onlyWipeOutlines,1
;   avoidCrossingOutline,0
;   maxMovementDetourFactor,5
;   toolChangeRetractionDistance,12
;   toolChangeExtraRestartDistance,-0.5
;   toolChangeRetractionSpeed,600
;   externalThinWallType,1
;   internalThinWallType,1
;   thinWallAllowedOverlapPercentage,100
;   singleExtrusionMinLength,0.4
;   singleExtrusionMinPrintingWidthPercentage,50
;   singleExtrusionMaxPrintingWidthPercentage,200
;   singleExtrusionEndpointExtension,0.2
;   horizontalSizeCompensation,0
G90
M82
M106 S255
G4 P500
M106 S0
M140 S30
M190 S30
M104 S200 T0
M109 S200 T0
G90 ; absolute positioning - this line was added in case Cura doesn't include it by default
M82 ; set extruder to absolute mode - this line was added in case Cura doesn't include it by default (may not be needed)
M107; start with the fan off (I don't think this is possible)
G28 ; Start from home position
G29 C-0.8 Z0.3 ; probe the bed at 3 points with a 0.3mm overall vertical offset and an additional -0.8mm center offset 
G1 Z15.0 F4800  ; move the nozzle up 15mm
G92 E0 ; reset extrusion distance
G1 F200 E3 ; extrude 3mm of feed stock
G92 E0 ; reset extrusion distance again
G1 F4800
G92 E0
G1 E-8.0000 F3000
G1 Z0.640 F1002
; process Process3
; layer 1, Z = 0.250
T0
; tool H0.250 W0.400
; inner perimeter
G1 X0.000 Y20.307 F3200
G1 E0.0000 F900
G92 E0
G1 X-17.587 Y10.154 E0.8443 F1280
G1 X-17.587 Y-10.154 E1.6885
G1 X0.000 Y-20.307 E2.5328
G1 X17.587 Y-10.154 E3.3771
G1 X17.587 Y10.154 E4.2214
G1 X0.000 Y20.307 E5.0656
; outer perimeter
G1 X0.000 Y20.769 F3200
G92 E0
G1 X-17.987 Y10.385 E0.8635 F1280
G1 X-17.987 Y-10.385 E1.7270
G1 X0.000 Y-20.769 E2.5904
G1 X17.987 Y-10.385 E3.4539
G1 X17.987 Y10.385 E4.3174
G1 X0.000 Y20.769 E5.1809
; solid layer
G1 X-15.952 Y10.636 F3200
G92 E0
G1 X-17.187 Y9.401 E0.0726 F1280
G1 X-17.187 Y8.835 E0.0961
G1 X-14.613 Y11.408 E0.2474
G1 X-13.275 Y12.181 E0.3117
G1 X-17.187 Y8.269 E0.5417
G1 X-17.187 Y7.704 E0.5652
G1 X-11.936 Y12.954 E0.8739
G1 X-10.598 Y13.727 E0.9382
G1 X-17.187 Y7.138 E1.3256
G1 X-17.187 Y6.572 E1.3491
G1 X-9.259 Y14.499 E1.8152
G1 X-7.921 Y15.272 E1.8794
G1 X-17.187 Y6.007 E2.4242
G1 X-17.187 Y5.441 E2.4477
G1 X-6.583 Y16.045 E3.0712
G1 X-5.244 Y16.818 E3.1354
G1 X-17.187 Y4.875 E3.8376
G1 X-17.187 Y4.310 E3.8611
G1 X-3.906 Y17.590 E4.6420
G1 X-2.567 Y18.363 E4.7062
G1 X-17.187 Y3.744 E5.5658
G1 X-17.187 Y3.178 E5.5893
G1 X-1.229 Y19.136 E6.5276
G1 X0.000 Y19.845 E6.5866
G1 X0.029 Y19.828 E6.5880
G1 X-17.187 Y2.612 E7.6002
G1 X-17.187 Y2.047 E7.6237
G1 X0.388 Y19.621 E8.6570
G1 X0.747 Y19.414 E8.6742
G1 X-17.187 Y1.481 E9.7286
G1 X-17.187 Y0.915 E9.7522
G1 X1.105 Y19.207 E10.8276
G1 X1.464 Y19.000 E10.8449
G1 X-17.187 Y0.350 E11.9414
G1 X-17.187 Y-0.216 E11.9650
G1 X1.823 Y18.793 E13.0826
G1 X2.181 Y18.586 E13.0998
G1 X-17.187 Y-0.782 E14.2386
G1 X-17.187 Y-1.347 E14.2621
G1 X2.540 Y18.379 E15.4219
G1 X2.898 Y18.172 E15.4391
G1 X-17.187 Y-1.913 E16.6201
G1 X-17.187 Y-2.479 E16.6436
G1 X3.257 Y17.965 E17.8456
G1 X3.616 Y17.758 E17.8628
G1 X-17.187 Y-3.044 E19.0859
G1 X-17.187 Y-3.610 E19.1094
G1 X3.974 Y17.551 E20.3536
G1 X4.333 Y17.344 E20.3708
G1 X-17.187 Y-4.176 E21.6361
G1 X-17.187 Y-4.741 E21.6596
G1 X4.692 Y17.137 E22.9459
G1 X5.050 Y16.930 E22.9631
G1 X-17.187 Y-5.307 E24.2706
G1 X-17.187 Y-5.873 E24.2941
G1 X5.409 Y16.723 E25.6226
G1 X5.767 Y16.515 E25.6398
G1 X-17.187 Y-6.439 E26.9894
G1 X-17.187 Y-7.004 E27.0129
G1 X6.126 Y16.308 E28.3836
G1 X6.485 Y16.101 E28.4009
G1 X-17.187 Y-7.570 E29.7926
G1 X-17.187 Y-8.136 E29.8162
G1 X6.843 Y15.894 E31.2290
G1 X7.202 Y15.687 E31.2462
G1 X-17.187 Y-8.701 E32.6802
G1 X-17.187 Y-9.267 E32.7037
G1 X7.561 Y15.480 E34.1587
G1 X7.919 Y15.273 E34.1760
G1 X-17.187 Y-9.833 E35.6521
G1 X-17.187 Y-9.923 E35.6558
G1 X-16.885 Y-10.097 E35.6703
G1 X8.278 Y15.066 E37.1498
G1 X8.636 Y14.859 E37.1670
G1 X-16.526 Y-10.304 E38.6465
G1 X-16.168 Y-10.511 E38.6637
G1 X8.995 Y14.652 E40.1432
G1 X9.354 Y14.445 E40.1604
G1 X-15.809 Y-10.718 E41.6399
G1 X-15.450 Y-10.925 E41.6571
G1 X9.712 Y14.238 E43.1366
G1 X10.071 Y14.031 E43.1538
G1 X-15.092 Y-11.132 E44.6332
G1 X-14.733 Y-11.339 E44.6505
G1 X10.430 Y13.824 E46.1299
G1 X10.788 Y13.617 E46.1472
G1 X-14.375 Y-11.546 E47.6266
G1 X-14.016 Y-11.753 E47.6438
G1 X11.147 Y13.410 E49.1233
G1 X11.506 Y13.203 E49.1405
G1 X-13.657 Y-11.960 E50.6200
G1 X-13.299 Y-12.167 E50.6372
G1 X11.864 Y12.996 E52.1167
G1 X12.223 Y12.788 E52.1339
G1 X-12.940 Y-12.374 E53.6134
G1 X-12.581 Y-12.581 E53.6306
G1 X12.581 Y12.581 E55.1101
G1 X12.940 Y12.374 E55.1273
G1 X-12.223 Y-12.788 E56.6068
G1 X-11.864 Y-12.996 E56.6240
G1 X13.299 Y12.167 E58.1035
G1 X13.657 Y11.960 E58.1207
G1 X-11.506 Y-13.203 E59.6002
G1 X-11.147 Y-13.410 E59.6174
G1 X14.016 Y11.753 E61.0969
G1 X14.375 Y11.546 E61.1141
G1 X-10.788 Y-13.617 E62.5936
G1 X-10.430 Y-13.824 E62.6108
G1 X14.733 Y11.339 E64.0903
G1 X15.092 Y11.132 E64.1075
G1 X-10.071 Y-14.031 E65.5870
G1 X-9.712 Y-14.238 E65.6042
G1 X15.450 Y10.925 E67.0837
G1 X15.809 Y10.718 E67.1009
G1 X-9.354 Y-14.445 E68.5803
G1 X-8.995 Y-14.652 E68.5976
G1 X16.168 Y10.511 E70.0770
G1 X16.526 Y10.304 E70.0943
G1 X-8.636 Y-14.859 E71.5737
G1 X-8.278 Y-15.066 E71.5910
G1 X16.885 Y10.097 E73.0704
G1 X17.187 Y9.923 E73.0849
G1 X17.187 Y9.833 E73.0886
G1 X-7.919 Y-15.273 E74.5648
G1 X-7.561 Y-15.480 E74.5820
G1 X17.187 Y9.267 E76.0370
G1 X17.187 Y8.701 E76.0605
G1 X-7.202 Y-15.687 E77.4945
G1 X-6.843 Y-15.894 E77.5117
G1 X17.187 Y8.136 E78.9246
G1 X17.187 Y7.570 E78.9481
G1 X-6.485 Y-16.101 E80.3399
G1 X-6.126 Y-16.308 E80.3571
G1 X17.187 Y7.004 E81.7278
G1 X17.187 Y6.438 E81.7513
G1 X-5.767 Y-16.515 E83.1009
G1 X-5.409 Y-16.723 E83.1181
G1 X17.187 Y5.873 E84.4466
G1 X17.187 Y5.307 E84.4701
G1 X-5.050 Y-16.930 E85.7776
G1 X-4.692 Y-17.137 E85.7948
G1 X17.187 Y4.741 E87.0811
G1 X17.187 Y4.176 E87.1047
G1 X-4.333 Y-17.344 E88.3699
G1 X-3.974 Y-17.551 E88.3871
G1 X17.187 Y3.610 E89.6313
G1 X17.187 Y3.044 E89.6548
G1 X-3.616 Y-17.758 E90.8779
G1 X-3.257 Y-17.965 E90.8951
G1 X17.187 Y2.479 E92.0971
G1 X17.187 Y1.913 E92.1207
G1 X-2.898 Y-18.172 E93.3016
G1 X-2.540 Y-18.379 E93.3188
G1 X17.187 Y1.347 E94.4786
G1 X17.187 Y0.782 E94.5021
G1 X-2.181 Y-18.586 E95.6409
G1 X-1.822 Y-18.793 E95.6581
G1 X17.187 Y0.216 E96.7758
G1 X17.187 Y-0.350 E96.7993
G1 X-1.464 Y-19.000 E97.8958
G1 X-1.105 Y-19.207 E97.9131
G1 X17.187 Y-0.915 E98.9886
G1 X17.187 Y-1.481 E99.0121
G1 X-0.747 Y-19.414 E100.0665
G1 X-0.388 Y-19.621 E100.0837
G1 X17.187 Y-2.047 E101.1170
G1 X17.187 Y-2.612 E101.1405
G1 X-0.029 Y-19.828 E102.1527
G1 X0.000 Y-19.845 E102.1542
G1 X1.229 Y-19.136 E102.2132
G1 X17.187 Y-3.178 E103.1514
G1 X17.187 Y-3.744 E103.1749
G1 X2.567 Y-18.363 E104.0345
G1 X3.906 Y-17.590 E104.0987
G1 X17.187 Y-4.310 E104.8796
G1 X17.187 Y-4.875 E104.9031
G1 X5.244 Y-16.818 E105.6053
G1 X6.583 Y-16.045 E105.6695
G1 X17.187 Y-5.441 E106.2930
G1 X17.187 Y-6.007 E106.3165
G1 X7.921 Y-15.272 E106.8613
G1 X9.259 Y-14.499 E106.9255
G1 X17.187 Y-6.572 E107.3916
G1 X17.187 Y-7.138 E107.4151
G1 X10.598 Y-13.727 E107.8025
G1 X11.936 Y-12.954 E107.8668
G1 X17.187 Y-7.704 E108.1755
G1 X17.187 Y-8.269 E108.1990
G1 X13.275 Y-12.181 E108.4290
G1 X14.613 Y-11.408 E108.4932
G1 X17.187 Y-8.835 E108.6445
G1 X17.187 Y-9.401 E108.6681
G1 X15.952 Y-10.636 E108.7407
G92 E0
G1 E-8.0000 F3000
; layer 2, Z = 0.500
M106 S255
G4 P500
M106 S153
; inner perimeter
G1 X17.587 Y-10.154 F3200
G1 Z0.890 F1002
G1 E0.0000 F3000
G92 E0
G1 X17.587 Y10.154 E0.8443 F3200
G1 X0.000 Y20.307 E1.6885
G1 X-17.587 Y10.154 E2.5328
G1 X-17.587 Y-10.154 E3.3771
G1 X0.000 Y-20.307 E4.2214
G1 X17.587 Y-10.154 E5.0656
; outer perimeter
G1 X17.987 Y-10.385 F3200
G92 E0
G1 X17.987 Y10.385 E0.8635 F3200
G1 X0.000 Y20.769 E1.7270
G1 X-17.987 Y10.385 E2.5904
G1 X-17.987 Y-10.385 E3.4539
G1 X0.000 Y-20.769 E4.3174
G1 X17.987 Y-10.385 E5.1809
; solid layer
G1 X17.187 Y9.401 F3200
G92 E0
G1 X15.952 Y10.636 E0.0726 F3200
G1 X14.613 Y11.408 E0.1369
G1 X17.187 Y8.835 E0.2882
G1 X17.187 Y8.269 E0.3117
G1 X13.275 Y12.181 E0.5417
G1 X11.936 Y12.954 E0.6059
G1 X17.187 Y7.704 E0.9146
G1 X17.187 Y7.138 E0.9381
G1 X10.598 Y13.727 E1.3255
G1 X9.260 Y14.499 E1.3898
G1 X17.187 Y6.572 E1.8559
G1 X17.187 Y6.007 E1.8794
G1 X7.921 Y15.272 E2.4241
G1 X6.583 Y16.045 E2.4884
G1 X17.187 Y5.441 E3.1119
G1 X17.187 Y4.875 E3.1354
G1 X5.244 Y16.818 E3.8375
G1 X3.906 Y17.590 E3.9018
G1 X17.187 Y4.310 E4.6826
G1 X17.187 Y3.744 E4.7062
G1 X2.567 Y18.363 E5.5657
G1 X1.229 Y19.136 E5.6300
G1 X17.187 Y3.178 E6.5682
G1 X17.187 Y2.612 E6.5917
G1 X-0.029 Y19.828 E7.6040
G1 X-0.388 Y19.621 E7.6212
G1 X17.187 Y2.047 E8.6545
G1 X17.187 Y1.481 E8.6780
G1 X-0.747 Y19.414 E9.7324
G1 X-1.105 Y19.207 E9.7496
G1 X17.187 Y0.915 E10.8251
G1 X17.187 Y0.350 E10.8486
G1 X-1.464 Y19.000 E11.9452
G1 X-1.822 Y18.793 E11.9624
G1 X17.187 Y-0.216 E13.0801
G1 X17.187 Y-0.782 E13.1036
G1 X-2.181 Y18.586 E14.2423
G1 X-2.540 Y18.379 E14.2596
G1 X17.187 Y-1.347 E15.4194
G1 X17.187 Y-1.913 E15.4429
G1 X-2.898 Y18.172 E16.6238
G1 X-3.257 Y17.965 E16.6410
G1 X17.187 Y-2.479 E17.8430
G1 X17.187 Y-3.044 E17.8666
G1 X-3.616 Y17.758 E19.0896
G1 X-3.974 Y17.551 E19.1069
G1 X17.187 Y-3.610 E20.3510
G1 X17.187 Y-4.176 E20.3745
G1 X-4.333 Y17.344 E21.6398
G1 X-4.692 Y17.137 E21.6570
G1 X17.187 Y-4.741 E22.9434
G1 X17.187 Y-5.307 E22.9669
G1 X-5.050 Y16.930 E24.2743
G1 X-5.409 Y16.723 E24.2915
G1 X17.187 Y-5.873 E25.6201
G1 X17.187 Y-6.438 E25.6436
G1 X-5.767 Y16.515 E26.9932
G1 X-6.126 Y16.308 E27.0104
G1 X17.187 Y-7.004 E28.3811
G1 X17.187 Y-7.570 E28.4046
G1 X-6.485 Y16.101 E29.7964
G1 X-6.843 Y15.894 E29.8136
G1 X17.187 Y-8.136 E31.2265
G1 X17.187 Y-8.701 E31.2500
G1 X-7.202 Y15.687 E32.6839
G1 X-7.561 Y15.480 E32.7011
